P3
400 200
255
234 253 63 233 253 42 232 252 39 232 251 45 232 252 39 229 250 33 230 250 37 227 251 33 233 251 41 230 250 39 229 250 33 230 250 37 229 251 42 228 249 32 227 246 30 231 250 34 232 250 42 231 250 36 228 248 37 227 247 34 226 246 35 224 247 35 225 248 36 227 248 33 220 243 31 220 243 29 222 247 31 223 248 35 230 249 43 230 251 48 229 252 38 231 249 39 230 250 41 229 249 38 226 247 30 223 246 34 226 251 36 229 249 36 227 245 35 224 244 33 223 246 32 225 248 36 223 247 31 221 243 34 221 244 30 223 245 38 223 244 41 221 243 36 223 248 45 227 249 44 228 248 39 218 241 29 215 239 29 220 245 32 222 245 31 217 239 32 224 248 48 226 251 48 225 249 39 224 251 35 224 248 38 222 246 38 224 247 35 223 248 33 231 250 47 230 252 47 227 247 38 225 244 31 221 245 29 224 247 35 221 243 36 220 245 39 220 246 35 227 250 48 227 250 38 221 244 30 221 246 33 225 249 41 226 249 35 224 247 33 223 246 34 220 243 39 222 247 32 224 247 35 221 240 37 220 240 29 218 241 29 216 239 35 218 240 31 220 242 35 221 244 40 222 246 38 222 245 31 219 241 32 213 236 34 215 239 29 215 239 31 216 241 35 221 246 41 223 248 45 217 244 27 218 242 32 218 242 32 220 241 40 218 241 37 223 247 39 219 245 36 217 242 37 223 247 47 219 244 38 219 243 33 216 239 37 217 242 37 221 247 36 214 243 31 211 240 28 220 248 41 221 246 40 218 243 30 222 248 39 222 248 37 224 247 45 221 245 37 213 237 27 210 236 27 216 242 33 220 245 39 217 239 40 216 242 33 216 240 30 214 235 32 213 236 31 209 234 29 202 229 26 200 227 28 212 240 33 214 242 33 215 241 30 215 241 30 216 242 31 221 246 40 217 243 34 214 240 27 220 246 35 212 241 29 212 240 34 214 242 35 217 245 38 219 244 39 218 242 34 219 242 40 217 242 37 217 240 35 209 240 38 206 239 34 210 240 32 214 239 33 213 242 30 216 245 29 217 243 34 210 238 31 202 233 31 202 234 29 202 229 28 209 236 35 214 245 30 204 236 28 203 235 28 203 236 31 194 230 32 195 229 28 205 237 29 209 242 31 207 241 23 208 238 28 211 239 32 205 238 27 207 237 27 210 238 32 209 237 31 203 235 27 202 236 27 204 237 26 208 237 33 207 235 28 202 231 25 
198 230 25 198 230 25 204 233 27 207 237 29 207 237 25 210 239 25 207 238 23 206 235 21 209 238 22 207 236 24 203 233 23 200 230 20 201 230 24 204 234 22 209 238 24 213 243 25 212 239 23 207 233 24 205 234 20 211 241 23 208 239 24 205 235 23 206 237 22 208 237 25 206 236 28 199 231 23 197 230 19 200 230 22 201 230 24 205 237 29 212 240 34 201 236 22 200 237 20 203 236 25 208 238 28 208 238 26 206 237 22 204 234 22 210 241 23 207 240 25 206 242 22 208 243 25 203 238 22 192 229 25 193 229 31 204 236 31 203 235 28 204 236 28 214 245 30 209 236 35 202 229 28 202 234 29 202 233 31 210 238 31 217 243 34 216 245 29 213 242 30 214 239 33 210 240 32 206 239 34 209 240 38 217 240 35 217 242 37 219 242 40 218 242 34 219 244 39 217 245 38 214 242 35 212 240 34 212 241 29 220 246 35 214 240 27 217 243 34 221 246 40 216 242 31 215 241 30 215 241 30 214 242 33 212 240 33 200 227 28 202 229 26 209 234 29 213 236 31 214 235 32 216 240 30 216 242 33 217 239 40 220 245 39 216 242 33 210 236 27 213 237 27 221 245 37 224 247 45 222 248 37 222 248 39 218 243 30 221 246 40 220 248 41 211 240 28 214 243 31 221 247 36 217 242 37 216 239 37 219 243 33 219 244 38 223 247 47 217 242 37 219 245 36 223 247 39 218 241 37 220 241 40 218 242 32 218 242 32 217 244 27 223 248 45 221 246 41 216 241 35 215 239 31 215 239 29 213 236 34 219 241 32 222 245 31 222 246 38 221 244 40 220 242 35 218 240 31 216 239 35 218 241 29 220 240 29 221 240 37 224 247 35 222 247 32 220 243 39 223 246 34 224 247 33 226 249 35 225 249 41 221 246 33 221 244 30 227 250 38 227 250 48 220 246 35 220 245 39 221 243 36 224 247 35 221 245 29 225 244 31 227 247 38 230 252 47 231 250 47 223 248 33 224 247 35 222 246 38 224 248 38 224 251 35 225 249 39 226 251 48 224 248 48 217 239 32 222 245 31 220 245 32 215 239 29 218 241 29 228 248 39 227 249 44 223 248 45 221 243 36 223 244 41 223 245 38 221 244 30 221 243 34 223 247 31 225 248 36 223 246 32 224 244 33 227 245 35 229 249 36 226 251 36 223 246 34 226 247 30 229 249 38 230 250 41 231 250 37 231 251 38 232 251 47 228 248 37 
223 247 29 221 246 23 220 241 22 219 241 19 225 245 26 225 245 26 224 244 23 223 243 22 225 245 23 226 246 27 230 248 26 230 248 26 227 249 18 225 244 14 225 247 16 228 249 24 227 246 17 226 246 11 227 246 17 230 247 19 227 246 14 228 246 14 227 245 9 230 249 19 231 248 22 230 249 17 231 249 23 229 245 22 
234 251 33 232 251 19 231 252 25 227 250 12 227 250 14 232 251 21 230 249 17 224 248 6 228 248 26 228 251 21 227 251 15 229 251 20 231 252 23 224 247 11 227 250 14 224 248 14 223 249 17 226 250 18 226 250 16 223 245 12 225 247 14 226 247 18 222 245 19 223 247 15 219 247 14 217 244 7 220 248 6 232 253 28 233 252 23 225 248 12 223 246 16 222 245 9 219 243 7 219 246 9 224 248 16 227 250 14 223 245 12 220 244 12 215 238 10 217 243 11 224 246 24 223 247 15 222 246 12 224 247 17 223 247 15 225 250 11 219 246 11 223 247 29 223 248 22 226 249 21 224 246 13 216 240 6 215 241 10 219 245 13 223 247 15 225 247 25 226 249 19 227 248 19 223 246 10 223 248 7 222 246 14 222 245 19 220 243 13 223 247 15 224 247 11 223 247 13 216 239 11 212 235 7 216 240 8 223 246 16 224 247 19 221 245 9 222 246 12 224 247 21 218 241 11 214 237 11 215 241 12 220 243 13 221 245 13 220 242 11 214 240 9 216 242 11 216 243 6 219 242 14 219 244 18 214 242 9 211 238 11 215 240 17 218 243 17 217 245 13 218 245 16 219 245 24 219 244 18 214 240 8 213 238 14 215 241 18 214 240 11 216 243 18 215 243 10 209 238 6 208 234 11 213 239 20 217 245 13 217 244 17 220 247 12 224 251 26 216 241 26 208 234 11 215 242 17 218 244 21 216 243 14 215 242 13 216 244 11 217 245 13 216 243 14 216 245 17 213 240 11 210 236 7 216 241 17 214 240 9 208 233 9 210 236 13 209 236 9 207 234 7 210 237 10 212 239 10 215 242 17 213 241 17 213 242 12 212 238 15 210 236 13 201 229 4 199 229 9 199 229 9 206 237 11 211 239 14 214 243 13 213 240 13 217 243 12 218 245 20 214 243 15 209 240 12 213 242 14 213 240 13 207 238 12 206 237 12 205 236 11 204 235 10 204 232 7 207 236 6 210 239 9 212 241 9 212 240 16 207 238 12 206 239 10 208 239 14 211 241 19 206 237 9 207 239 8 208 236 14 201 229 4 193 227 9 197 233 9 204 237 10 213 244 16 210 241 15 202 232 10 204 235 9 198 233 9 198 234 12 202 238 8 205 238 9 206 239 10 204 236 11 205 236 10 203 234 6 199 231 6 200 232 7 203 235 10 200 233 4 202 235 6 204 237 10 205 236 10 207 238 10 203 235 10 196 228 5 196 231 7 200 235 9 201 233 8 201 234 7 
206 239 12 205 238 9 207 236 8 202 230 8 201 229 5 203 231 7 207 235 10 208 237 9 200 228 4 199 227 3 203 231 6 205 234 6 206 237 9 207 238 13 202 234 11 195 227 6 199 231 8 206 237 11 209 236 9 204 236 11 202 237 11 206 241 14 201 236 10 189 225 3 191 225 4 201 233 8 206 237 9 205 235 13 203 234 16 199 231 8 198 234 4 203 236 9 201 233 10 201 234 7 202 235 8 205 236 10 208 239 14 209 242 15 208 241 12 203 241 8 197 235 10 198 233 9 204 235 9 202 232 10 210 241 15 213 244 16 204 237 10 197 233 9 193 227 9 201 229 4 208 236 14 207 239 8 206 237 9 211 241 19 208 239 14 206 239 10 207 238 12 212 240 16 212 241 9 210 239 9 207 236 6 204 232 7 204 235 10 205 236 11 206 237 12 207 238 12 213 240 13 213 242 14 209 240 12 214 243 15 218 245 20 217 243 12 213 240 13 214 243 13 211 239 14 206 237 11 199 229 9 199 229 9 201 229 4 210 236 13 212 238 15 213 242 12 213 241 17 215 242 17 212 239 10 210 237 10 207 234 7 209 236 9 210 236 13 208 233 9 214 240 9 216 241 17 210 236 7 213 240 11 216 245 17 216 243 14 217 245 13 216 244 11 215 242 13 216 243 14 218 244 21 215 242 17 208 234 11 216 241 26 224 251 26 220 247 12 217 244 17 217 245 13 213 239 20 208 234 11 209 238 6 215 243 10 216 243 18 214 240 11 215 241 18 213 238 14 214 240 8 219 244 18 219 245 24 218 245 16 217 245 13 218 243 17 215 240 17 211 238 11 214 242 9 219 244 18 219 242 14 216 243 6 216 242 11 214 240 9 220 242 11 221 245 13 220 243 13 215 241 12 214 237 11 218 241 11 224 247 21 222 246 12 221 245 9 224 247 19 223 246 16 216 240 8 212 235 7 216 239 11 223 247 13 224 247 11 223 247 15 220 243 13 222 245 19 222 246 14 223 248 7 223 246 10 227 248 19 226 249 19 225 247 25 223 247 15 219 245 13 215 241 10 216 240 6 224 246 13 226 249 21 223 248 22 223 247 29 219 246 11 225 250 11 223 247 15 224 247 17 222 246 12 223 247 15 224 246 24 217 243 11 215 238 10 220 244 12 223 245 12 227 250 14 224 248 16 219 246 9 219 243 7 222 245 9 223 246 16 225 248 12 233 252 22 231 252 27 221 246 5 217 244 7 219 247 14 223 247 15 223 244 19 225 246 19 225 247 14 223 246 10 
227 250 12 226 250 16 224 248 14 224 248 14 227 250 14 224 246 13 231 252 25 230 249 20 228 250 17 228 251 21 228 248 26 223 246 6 231 250 18 229 251 20 226 250 16 229 252 16 230 253 25 229 251 18 232 251 22 
233 249 39 229 248 19 227 250 12 225 250 8 225 250 11 230 251 22 231 250 21 223 246 10 224 246 13 225 251 19 226 249 21 223 245 14 223 246 10 227 246 16 227 249 18 224 248 12 219 246 11 224 248 16 228 251 13 229 249 14 225 248 8 217 241 5 214 241 6 217 245 10 218 246 13 222 249 14 222 247 5 228 250 19 230 248 16 224 245 4 222 246 10 223 247 13 222 248 16 226 250 18 227 249 26 223 245 14 224 243 13 221 244 16 215 242 13 225 249 15 229 250 23 228 251 21 227 250 24 229 251 29 225 250 11 221 246 7 222 247 6 221 245 11 219 246 7 221 245 11 222 246 10 216 243 8 213 239 10 213 239 8 216 243 6 221 247 16 226 249 19 224 244 9 222 242 5 222 244 13 216 241 15 215 240 14 214 240 11 220 243 15 218 242 6 216 240 8 212 237 11 213 240 13 220 246 15 219 245 14 220 246 15 226 249 19 222 244 11 213 236 8 211 237 8 212 239 14 214 239 15 218 244 15 222 246 14 220 244 12 211 236 12 208 235 6 213 241 9 216 241 18 219 241 18 219 243 11 218 244 13 220 248 16 219 244 20 215 243 10 216 244 12 214 239 15 213 239 8 217 240 14 220 241 24 219 244 21 223 244 25 217 243 14 216 242 11 212 240 8 215 243 11 220 247 20 218 246 13 219 248 10 222 246 10 219 245 16 213 238 12 215 242 17 216 243 14 214 240 11 217 241 23 217 242 19 214 242 10 214 241 12 213 241 8 208 237 9 205 231 8 214 239 15 219 243 27 207 233 14 206 231 5 207 234 9 207 234 7 209 235 12 211 238 13 207 234 7 210 237 10 213 242 12 217 246 14 215 242 15 210 237 10 210 238 13 211 243 10 206 237 9 208 237 9 213 241 17 216 244 9 212 240 8 213 238 14 214 241 14 211 240 10 209 241 8 210 239 11 206 233 8 207 237 15 204 235 10 207 237 15 211 241 23 212 240 16 215 243 21 212 241 11 213 243 7 207 240 9 207 240 13 206 239 12 204 237 8 208 241 14 205 237 14 206 238 13 207 238 10 207 237 3 198 230 5 207 238 13 215 242 23 207 239 16 196 231 7 203 234 8 211 239 14 214 244 24 209 241 18 203 234 8 203 234 8 204 237 8 206 237 12 209 237 12 205 238 9 202 235 8 195 227 2 197 229 6 196 228 5 199 230 5 202 233 7 200 231 6 197 227 5 201 233 8 199 231 6 197 232 6 200 235 11 201 233 10 197 229 4 202 234 9 
202 235 8 202 234 11 199 231 10 195 230 6 196 228 5 197 229 6 209 240 12 203 236 7 197 229 4 195 230 3 202 234 9 202 233 7 202 233 7 209 240 12 201 232 4 201 229 4 206 234 12 205 230 7 200 230 8 196 228 3 206 234 9 205 236 11 197 232 5 197 232 8 202 231 15 192 223 5 197 227 5 202 233 5 197 229 4 197 229 8 201 233 10 195 228 1 200 235 11 206 236 14 210 237 10 209 237 12 206 242 12 202 238 8 205 238 7 209 241 16 214 244 22 211 239 14 203 234 8 196 231 7 207 239 16 215 242 23 207 238 13 198 230 5 207 237 3 207 238 10 206 238 13 205 237 14 208 241 14 204 237 8 206 239 12 207 240 13 207 240 9 213 243 7 212 241 11 215 243 21 212 240 16 211 241 23 207 237 15 204 235 10 207 237 15 206 233 8 210 239 11 209 241 8 211 240 10 214 241 14 213 238 14 212 240 8 216 244 9 213 241 17 208 237 9 206 237 9 211 243 10 210 238 13 210 237 10 215 242 15 217 246 14 213 242 12 210 237 10 207 234 7 211 238 13 209 235 12 207 234 7 207 234 9 206 231 5 207 233 14 219 243 27 214 239 15 205 231 8 208 237 9 213 241 8 214 241 12 214 242 10 217 242 19 217 241 23 214 240 11 216 243 14 215 242 17 213 238 12 219 245 16 222 246 10 219 248 10 218 246 13 220 247 20 215 243 11 212 240 8 216 242 11 217 243 14 223 244 25 219 244 21 220 241 24 217 240 14 213 239 8 214 239 15 216 244 12 215 243 10 219 244 20 220 248 16 218 244 13 219 243 11 219 241 18 216 241 18 213 241 9 208 235 6 211 236 12 220 244 12 222 246 14 218 244 15 214 239 15 212 239 14 211 237 8 213 236 8 222 244 11 226 249 19 220 246 15 219 245 14 220 246 15 213 240 13 212 237 11 216 240 8 218 242 6 220 243 15 214 240 11 215 240 14 216 241 15 222 244 13 222 242 5 224 244 9 226 249 19 221 247 16 216 243 6 213 239 8 213 239 10 216 243 8 222 246 10 221 245 11 219 246 7 221 245 11 222 247 6 221 246 7 225 250 11 229 251 29 227 250 24 228 251 21 229 250 23 225 249 15 215 242 13 221 244 16 224 243 13 223 245 14 227 249 26 226 250 18 222 248 16 223 247 15 222 246 12 222 245 5 231 249 17 230 249 19 222 247 5 224 248 14 218 246 11 217 245 10 214 240 9 217 241 7 225 248 8 229 248 16 228 251 15 224 248 16 
219 246 11 221 248 11 227 249 18 225 247 16 224 247 11 223 245 12 226 249 19 225 251 19 224 248 12 223 246 8 231 250 20 229 251 20 225 250 11 226 250 8 227 251 9 227 249 18 231 247 27 
228 248 29 229 249 14 227 249 16 224 246 15 224 247 9 227 247 8 222 245 5 220 242 11 225 246 17 221 248 9 218 247 7 220 246 14 225 249 15 228 251 11 227 247 10 221 245 9 220 244 8 224 246 13 226 248 17 225 247 16 220 243 7 217 241 7 217 243 11 218 245 18 222 246 10 222 248 1 221 248 11 225 248 22 223 245 12 223 246 16 225 250 24 228 252 20 226 251 12 226 247 6 220 244 8 212 238 7 215 238 8 216 243 16 221 248 19 228 249 22 224 248 14 224 248 16 223 247 15 219 243 11 219 243 11 217 241 9 219 245 16 220 246 15 217 241 5 220 243 13 226 248 17 222 245 15 216 241 15 217 243 12 221 245 9 222 247 8 222 248 17 224 248 12 217 241 7 212 237 11 214 241 16 218 246 14 219 247 12 212 240 8 216 239 11 224 244 22 224 249 26 220 245 22 225 248 22 223 247 15 222 246 12 227 249 18 219 242 12 211 236 13 214 241 12 214 242 10 211 237 14 216 241 17 217 243 11 212 238 6 209 237 12 213 240 15 214 242 9 210 236 4 211 237 6 211 237 6 215 241 12 222 244 21 216 241 18 214 243 5 219 247 15 215 240 14 215 241 12 221 246 22 220 246 17 219 246 9 218 241 11 215 241 9 213 238 12 213 240 13 215 242 13 211 239 7 211 238 9 216 244 12 220 244 10 215 241 12 214 239 15 213 240 13 217 244 9 218 244 15 216 240 20 211 237 6 208 235 8 210 235 11 210 235 12 205 231 8 209 234 10 219 245 14 218 242 10 210 236 7 213 241 9 213 240 13 213 240 11 211 238 13 201 229 7 201 229 4 212 239 12 212 239 10 206 235 7 210 237 12 207 234 9 214 239 16 211 238 13 212 239 14 213 242 10 217 247 13 215 243 11 212 240 8 211 239 14 212 241 13 208 237 5 209 237 12 208 236 11 204 235 7 215 244 16 210 242 11 208 240 9 211 243 12 209 238 6 208 237 9 209 238 10 212 239 10 213 242 14 214 246 15 209 241 10 206 237 9 208 239 13 206 237 11 202 233 7 206 237 11 204 234 12 205 236 8 212 239 10 214 241 16 202 234 9 191 228 1 200 236 4 212 243 15 210 243 16 199 232 5 199 229 7 206 237 9 208 241 12 203 234 6 210 238 13 203 235 12 197 229 6 199 229 7 204 232 7 199 229 7 199 231 8 199 234 7 199 231 6 198 229 4 199 232 3 202 235 8 199 232 5 199 231 8 200 232 9 196 228 3 202 235 8 203 236 7 
203 234 9 197 229 4 193 228 2 191 225 4 192 222 4 204 235 10 207 238 12 201 233 8 199 231 8 196 228 5 199 229 7 195 225 5 197 227 9 198 229 3 202 233 5 202 234 11 205 236 8 204 235 10 196 228 3 198 230 5 200 232 9 198 233 9 199 234 8 200 233 6 195 229 10 193 228 4 196 231 4 198 233 7 199 231 10 203 231 9 197 228 3 193 228 4 200 235 11 211 240 12 207 235 10 208 241 14 206 239 12 197 227 7 201 232 6 210 241 13 212 243 15 200 236 4 191 228 1 202 234 9 214 241 16 212 239 10 205 236 8 204 234 12 206 237 11 202 233 7 206 237 11 208 239 13 206 237 9 209 241 10 214 246 15 213 242 14 212 239 10 209 238 10 208 237 9 209 238 6 211 243 12 208 240 9 210 242 11 215 244 16 204 235 7 208 236 11 209 237 12 208 237 5 212 241 13 211 239 14 212 240 8 215 243 11 217 247 13 213 242 10 212 239 14 211 238 13 214 239 16 207 234 9 210 237 12 206 235 7 212 239 10 212 239 12 201 229 4 201 229 7 211 238 13 213 240 11 213 240 13 213 241 9 210 236 7 218 242 10 219 245 14 209 234 10 205 231 8 210 235 12 210 235 11 208 235 8 211 237 6 216 240 20 218 244 15 217 244 9 213 240 13 214 239 15 215 241 12 220 244 10 216 244 12 211 238 9 211 239 7 215 242 13 213 240 13 213 238 12 215 241 9 218 241 11 219 246 9 220 246 17 221 246 22 215 241 12 215 240 14 219 247 15 214 243 5 216 241 18 222 244 21 215 241 12 211 237 6 211 237 6 210 236 4 214 242 9 213 240 15 209 237 12 212 238 6 217 243 11 216 241 17 211 237 14 214 242 10 214 241 12 211 236 13 219 242 12 227 249 18 222 246 12 223 247 15 225 248 22 220 245 22 224 249 26 224 244 22 216 239 11 212 240 8 219 247 12 218 246 14 214 241 16 212 237 11 217 241 7 224 248 12 222 248 17 222 247 8 221 245 9 217 243 12 216 241 15 222 245 15 226 248 17 220 243 13 217 241 5 220 246 15 219 245 16 217 241 9 219 243 11 219 243 11 223 247 15 224 248 16 224 248 14 228 249 22 221 248 19 216 243 16 215 238 8 212 238 7 220 244 8 226 247 6 226 251 12 228 252 18 225 250 24 223 246 16 223 247 11 225 248 20 223 247 11 222 248 1 222 246 10 217 244 15 217 243 12 217 241 7 221 244 6 225 247 16 227 249 18 225 248 12 220 244 10 
222 246 10 227 247 8 228 251 11 225 249 15 220 246 14 218 247 7 221 248 9 224 245 18 220 242 11 224 244 5 226 246 7 225 245 6 226 245 15 229 248 16 228 248 13 227 244 16 
227 247 36 228 250 19 229 251 20 223 245 12 224 244 9 226 246 7 218 240 7 215 242 7 222 243 16 217 243 12 219 246 11 223 250 15 228 253 12 224 248 6 227 246 16 225 249 17 225 249 13 223 247 11 223 247 15 219 243 9 220 242 11 226 249 19 223 246 16 224 247 17 223 245 12 220 244 8 220 247 10 216 245 7 217 243 11 221 247 15 222 249 14 226 248 15 223 242 10 220 243 13 211 234 4 208 233 7 212 241 11 222 249 24 227 247 25 220 246 14 215 239 7 219 242 14 220 244 12 217 240 14 216 242 10 215 241 10 213 239 7 215 241 9 211 239 7 219 245 14 220 246 14 213 240 11 212 240 8 214 242 9 214 241 12 217 244 17 223 247 15 222 245 17 219 245 16 214 239 13 220 246 17 222 249 14 212 239 2 211 238 9 217 243 12 219 241 18 225 246 27 221 246 23 217 238 11 216 239 11 218 244 15 218 241 11 206 230 10 210 235 9 211 238 11 213 238 12 219 242 14 220 242 19 219 241 18 214 240 11 216 244 11 216 243 16 218 244 13 218 244 13 213 238 14 208 235 6 217 243 12 218 241 13 216 241 15 216 242 11 218 243 17 216 242 13 217 243 14 218 243 17 213 239 7 212 240 8 214 239 13 213 240 13 212 239 14 210 237 10 212 239 14 210 238 6 210 237 8 216 244 12 214 240 9 209 234 11 214 240 19 214 241 14 214 242 9 215 242 15 215 242 17 213 241 8 213 242 10 213 241 8 214 241 14 212 241 9 216 244 9 219 247 14 215 243 10 210 239 7 213 240 15 215 242 17 211 238 9 208 235 6 207 234 7 213 240 11 217 244 17 212 239 10 208 237 9 210 237 10 208 234 11 213 238 15 212 237 13 207 234 5 210 237 8 210 238 6 208 236 4 209 238 10 218 246 21 218 246 21 206 235 5 209 238 10 215 243 19 210 241 15 213 242 10 213 242 14 209 238 10 205 234 4 205 234 6 206 235 5 211 238 11 216 243 18 218 246 13 216 245 17 206 237 9 209 239 5 212 242 8 210 241 15 202 233 8 204 235 7 213 242 14 213 246 17 212 242 20 213 241 17 201 231 9 191 226 2 200 233 6 207 240 11 204 236 11 198 230 5 198 228 6 206 239 10 206 238 13 203 234 8 203 232 4 195 230 6 197 232 5 198 230 7 199 230 5 201 232 7 196 231 7 195 230 6 198 230 7 202 233 7 201 232 6 201 234 7 201 234 7 197 229 6 197 229 6 196 228 3 203 234 8 202 233 7 
200 231 5 194 226 3 192 226 5 194 226 3 196 227 2 201 229 7 209 237 15 210 241 15 205 236 10 203 234 6 206 237 9 196 228 5 193 224 6 199 231 6 205 237 6 205 236 8 205 238 7 205 238 7 201 234 7 194 230 6 194 230 6 197 232 6 198 231 4 199 232 1 193 227 6 190 226 4 190 227 10 196 230 11 202 233 5 201 232 7 198 229 11 194 229 3 194 229 5 201 232 6 203 234 8 208 239 11 208 240 9 197 229 6 199 231 8 204 236 13 207 240 11 200 233 6 191 226 2 201 231 9 213 241 17 212 242 20 213 246 17 213 242 14 204 235 7 202 233 8 210 241 15 212 242 8 209 239 5 206 237 9 216 245 17 218 246 13 216 243 18 211 238 11 206 235 5 205 234 6 205 234 4 209 238 10 213 242 14 213 242 10 210 241 15 215 243 19 209 238 10 206 235 5 218 246 21 218 246 21 209 238 10 208 236 4 210 238 6 210 237 8 207 234 5 212 237 13 213 238 15 208 234 11 210 237 10 208 237 9 212 239 10 217 244 17 213 240 11 207 234 7 208 235 6 211 238 9 215 242 17 213 240 15 210 239 7 215 243 10 219 247 14 216 244 9 212 241 9 214 241 14 213 241 8 213 242 10 213 241 8 215 242 17 215 242 15 214 242 9 214 241 14 214 240 19 209 234 11 214 240 9 216 244 12 210 237 8 210 238 6 212 239 14 210 237 10 212 239 14 213 240 13 214 239 13 212 240 8 213 239 7 218 243 17 217 243 14 216 242 13 218 243 17 216 242 11 216 241 15 218 241 13 217 243 12 208 235 6 213 238 14 218 244 13 218 244 13 216 243 16 216 244 11 214 240 11 219 241 18 220 242 19 219 242 14 213 238 12 211 238 11 210 235 9 206 230 10 218 241 11 218 244 15 216 239 11 217 238 11 221 246 23 225 246 27 219 241 18 217 243 12 211 238 9 212 239 2 222 249 14 220 246 17 214 239 13 219 245 16 222 245 17 223 247 15 217 244 17 214 241 12 214 242 9 212 240 8 213 240 11 220 246 14 219 245 14 211 239 7 215 241 9 213 239 7 215 241 10 216 242 10 217 240 14 220 244 12 219 242 14 215 239 7 220 246 14 227 247 25 222 249 24 212 241 11 208 233 7 211 234 4 220 243 13 223 242 10 227 249 16 222 249 14 221 247 15 216 242 10 217 245 10 220 247 10 220 244 8 222 246 12 224 248 16 223 246 18 228 249 22 220 242 11 220 242 9 223 247 13 223 248 9 226 250 18 226 248 17 
228 247 17 225 249 7 228 253 12 225 249 15 219 246 11 217 243 12 222 243 16 216 242 10 217 239 8 224 247 7 223 246 8 224 244 9 229 250 21 228 251 21 223 244 19 
229 250 49 229 252 24 227 250 10 226 249 11 228 248 11 223 246 8 220 243 17 218 244 12 221 245 9 219 246 11 225 249 7 226 246 7 220 243 3 221 244 8 222 243 14 222 246 12 222 246 12 219 243 11 221 245 11 219 243 7 217 240 12 221 244 16 218 241 13 219 243 7 216 242 11 213 240 5 217 243 14 221 248 13 229 249 27 226 249 23 221 246 7 223 242 12 218 239 10 213 239 10 208 234 5 213 240 15 223 249 26 222 245 15 218 239 12 214 243 13 218 244 15 220 247 12 224 247 21 212 237 11 210 236 7 212 239 14 217 244 17 219 245 13 222 246 12 219 243 9 213 237 5 213 238 15 216 242 13 215 242 5 219 242 16 223 247 27 225 246 27 220 246 17 215 241 10 214 241 14 216 241 15 218 241 15 211 236 10 211 238 9 212 239 12 216 242 13 217 243 12 218 243 17 216 239 11 216 242 10 218 245 16 214 240 21 210 237 12 216 243 14 217 243 14 217 243 12 225 248 22 220 243 15 215 240 14 221 245 25 218 241 13 212 238 7 217 243 12 219 245 16 215 240 16 211 238 11 213 242 14 213 241 16 218 244 12 218 245 10 217 243 11 219 244 21 217 243 24 214 241 14 211 238 9 208 235 8 211 238 13 215 243 11 212 239 10 213 240 11 212 239 10 210 238 6 214 240 17 217 245 13 211 239 6 209 236 11 210 237 8 210 236 13 218 244 25 214 240 17 209 236 9 209 236 7 211 239 6 211 237 5 212 238 7 213 239 10 216 241 15 211 236 10 208 234 5 211 239 7 214 240 11 211 239 7 206 235 3 209 236 7 213 238 12 212 237 14 207 232 16 204 232 8 208 235 6 211 241 7 211 240 8 211 240 10 206 234 12 208 234 11 217 243 20 213 240 13 210 239 11 214 241 12 214 241 12 213 241 9 209 238 10 213 242 14 214 242 17 210 237 8 208 236 11 211 239 15 212 240 15 208 237 5 208 236 11 210 239 9 214 241 12 218 245 16 214 243 5 209 241 10 206 239 10 207 239 8 206 237 9 203 234 9 201 234 7 208 241 12 213 242 14 209 241 10 204 235 10 203 234 8 191 225 4 184 219 1 194 225 7 204 235 9 200 232 9 202 234 13 209 240 15 207 238 12 204 235 9 204 235 9 204 236 5 198 230 7 192 228 8 192 226 7 194 228 7 203 235 12 203 235 10 203 236 9 202 235 8 201 232 6 202 234 11 200 232 7 203 236 9 200 232 7 200 232 7 200 233 6 200 231 6 198 230 7 
201 233 10 197 232 6 196 231 5 196 231 4 199 232 3 196 227 2 203 234 9 207 238 12 208 241 12 202 235 8 201 233 8 199 231 6 196 231 5 201 234 5 204 235 7 203 232 4 195 230 4 198 231 4 199 231 6 198 230 9 198 230 5 201 234 7 197 229 4 199 229 9 196 230 9 194 231 3 201 236 9 207 240 13 203 236 7 190 225 7 185 219 8 193 227 8 200 231 6 204 233 5 205 236 11 204 235 9 210 241 15 206 241 14 200 235 9 201 232 7 204 235 9 194 225 7 184 219 1 191 225 4 203 234 8 204 235 10 209 241 10 213 242 14 208 241 12 201 234 7 203 234 9 206 237 9 207 239 8 206 239 10 209 241 10 214 243 5 218 245 16 214 241 12 210 239 9 208 236 11 208 237 5 212 240 15 211 239 15 208 236 11 210 237 8 214 242 17 213 242 14 209 238 10 213 241 9 214 241 12 214 241 12 210 239 11 213 240 13 217 243 20 208 234 11 206 234 12 211 240 10 211 240 8 211 241 7 208 235 6 204 232 8 207 232 16 212 237 14 213 238 12 209 236 7 206 235 3 211 239 7 214 240 11 211 239 7 208 234 5 211 236 10 216 241 15 213 239 10 212 238 7 211 237 5 211 239 6 209 236 7 209 236 9 214 240 17 218 244 25 210 236 13 210 237 8 209 236 11 211 239 6 217 245 13 214 240 17 210 238 6 212 239 10 213 240 11 212 239 10 215 243 11 211 238 13 208 235 8 211 238 9 214 241 14 217 243 24 219 244 21 217 243 11 218 245 10 218 244 12 213 241 16 213 242 14 211 238 11 215 240 16 219 245 16 217 243 12 212 238 7 218 241 13 221 245 25 215 240 14 220 243 15 225 248 22 217 243 12 217 243 14 216 243 14 210 237 12 214 240 21 218 245 16 216 242 10 216 239 11 218 243 17 217 243 12 216 242 13 212 239 12 211 238 9 211 236 10 218 241 15 216 241 15 214 241 14 215 241 10 220 246 17 225 246 27 223 247 27 219 242 16 215 242 5 216 242 13 213 238 15 213 237 5 219 243 9 222 246 12 219 245 13 217 244 17 212 239 14 210 236 7 212 237 11 224 247 21 220 247 12 218 244 15 214 243 13 218 239 12 222 245 15 223 249 26 213 240 15 208 234 5 213 239 10 218 239 10 224 242 16 220 244 8 227 249 26 229 249 27 222 249 14 216 242 11 213 240 3 215 241 9 220 244 8 218 241 15 220 243 17 217 240 12 218 242 6 220 244 10 220 242 11 224 246 15 223 247 15 
224 242 16 220 243 7 220 243 3 224 248 6 224 250 5 219 246 9 221 246 7 218 244 12 222 243 18 224 247 9 225 248 8 228 249 8 228 251 11 228 251 25 228 248 29 
229 250 31 221 244 8 226 245 13 232 251 21 226 246 7 226 245 5 229 249 10 223 245 14 222 247 6 223 247 13 226 246 11 220 239 7 214 236 5 222 243 14 225 246 21 226 249 21 224 246 13 223 246 10 223 246 6 216 240 4 213 236 8 213 239 10 219 245 16 221 249 17 218 244 13 221 244 16 222 248 16 224 248 12 224 246 13 223 247 11 220 246 15 220 244 8 220 243 13 220 243 17 219 244 18 219 246 17 224 246 24 218 241 13 218 244 15 221 246 20 219 244 18 216 242 10 222 246 12 216 238 15 217 241 23 224 248 32 223 249 20 218 244 13 217 243 11 213 239 10 208 233 7 214 240 21 217 244 19 213 240 5 212 238 7 216 244 12 217 244 19 214 240 9 213 239 16 213 239 18 209 236 7 215 241 12 216 240 20 215 241 18 219 242 12 221 246 22 223 246 20 224 248 16 220 243 15 218 241 11 217 243 11 214 240 11 214 243 13 217 245 10 218 244 13 215 241 9 215 241 12 210 238 6 212 240 8 222 249 24 215 241 20 212 237 11 218 241 13 214 237 9 210 237 8 211 243 12 210 239 9 213 240 11 216 243 8 216 242 11 214 239 13 216 241 17 216 243 14 215 242 13 214 240 17 211 238 13 216 244 11 215 242 13 213 240 13 212 239 12 209 236 11 210 237 8 211 238 13 214 242 17 213 239 16 210 237 10 213 241 9 213 241 8 216 243 16 213 239 16 209 236 7 212 239 14 209 236 7 209 236 9 216 243 14 213 240 15 208 234 11 206 233 6 209 236 9 206 234 12 205 230 4 202 229 4 201 229 5 205 233 9 213 238 15 203 227 9 194 219 6 194 224 2 206 233 6 215 244 16 212 241 9 212 242 8 209 238 8 214 242 10 219 247 14 216 243 18 214 241 16 211 238 11 209 236 9 212 239 14 211 240 12 212 240 16 210 239 11 199 227 5 202 230 6 205 233 9 205 232 13 210 238 14 208 236 12 208 236 12 213 242 14 210 237 8 206 234 2 210 237 10 209 237 12 197 227 5 195 224 8 202 232 10 209 240 14 209 240 15 209 237 13 198 231 4 201 231 9 205 235 13 193 229 5 191 229 4 206 238 13 210 241 15 209 240 12 208 241 14 204 236 5 207 235 10 207 238 12 208 241 14 197 229 4 187 221 2 185 220 6 191 227 3 198 233 6 207 240 11 208 241 14 201 232 7 197 228 3 197 227 7 199 231 10 200 233 6 202 235 6 200 233 6 204 237 10 204 237 8 200 233 6 199 231 8 
203 234 16 199 231 6 192 227 1 197 229 4 200 232 9 199 229 7 201 232 6 202 230 6 202 233 8 207 238 13 205 237 14 200 232 9 194 229 3 197 232 5 206 239 10 206 239 8 200 237 9 198 235 7 203 236 9 204 235 9 200 231 6 198 233 7 197 234 7 201 236 9 198 230 7 192 223 6 195 226 11 209 241 18 209 242 11 197 232 5 189 225 5 185 220 2 185 218 5 198 230 7 211 242 16 210 238 13 206 234 9 204 237 6 205 240 13 208 241 12 210 241 15 206 238 13 191 229 4 193 229 5 205 235 13 201 231 9 198 231 4 209 237 13 209 240 15 209 240 14 202 232 10 195 224 8 197 227 5 209 237 12 210 237 10 206 234 2 210 237 8 213 242 14 208 236 12 208 236 12 210 238 14 205 232 13 205 233 9 202 230 6 199 227 5 210 239 11 212 240 16 211 240 12 212 239 14 209 236 9 211 238 11 214 241 16 216 243 18 219 247 14 214 242 10 209 238 8 212 242 8 212 241 9 215 244 16 206 233 6 194 224 2 194 219 6 203 227 9 213 238 15 205 233 9 201 229 5 202 229 4 205 230 4 206 234 12 209 236 9 206 233 6 208 234 11 213 240 15 216 243 14 209 236 9 209 236 7 212 239 14 209 236 7 213 239 16 216 243 16 213 241 8 213 241 9 210 237 10 213 239 16 214 242 17 211 238 13 210 237 8 209 236 11 212 239 12 213 240 13 215 242 13 216 244 11 211 238 13 214 240 17 215 242 13 216 243 14 216 241 17 214 239 13 216 242 11 216 243 8 213 240 11 210 239 9 211 243 12 210 237 8 214 237 9 218 241 13 212 237 11 215 241 20 222 249 24 212 240 8 210 238 6 215 241 12 215 241 9 218 244 13 217 245 10 214 243 13 214 240 11 217 243 11 218 241 11 220 243 15 224 248 16 223 246 20 221 246 22 219 242 12 215 241 18 216 240 20 215 241 12 209 236 7 213 239 18 213 239 16 214 240 9 217 244 19 216 244 12 212 238 7 213 240 5 217 244 19 214 240 21 208 233 7 213 239 10 217 243 11 218 244 13 223 249 20 224 248 32 217 241 23 216 238 15 222 246 12 216 242 10 219 244 18 221 246 20 218 244 15 218 241 13 224 246 24 219 246 17 219 244 18 220 243 17 220 243 13 221 244 8 222 246 14 223 248 9 224 246 13 225 249 13 224 248 14 222 245 15 219 245 16 222 248 19 219 245 14 213 239 8 214 237 9 217 241 5 223 246 8 223 245 12 224 247 9 226 247 20 
224 245 20 223 244 15 214 235 6 220 239 7 223 246 10 223 247 13 222 247 8 223 245 12 229 249 10 225 245 6 224 248 6 231 250 18 224 246 13 221 244 8 227 247 12 
224 245 26 222 245 9 224 247 11 222 246 10 224 246 13 228 247 15 222 241 9 219 241 10 220 244 10 226 250 16 226 246 9 217 240 4 215 241 10 220 246 15 226 248 17 223 245 14 218 244 13 220 247 10 223 248 7 217 239 8 219 240 11 219 243 11 219 246 9 221 246 22 224 246 13 227 250 12 224 247 19 221 246 7 221 246 4 221 247 16 218 244 21 217 245 12 218 245 8 222 248 17 221 245 13 219 243 7 218 244 13 218 245 20 219 245 13 219 240 11 214 240 9 222 246 10 220 244 8 223 245 22 224 249 23 221 247 16 214 240 8 218 242 8 219 245 13 223 248 24 212 240 8 209 236 7 216 243 14 215 241 10 211 236 10 212 240 8 217 246 8 220 246 17 220 245 21 211 237 8 212 239 10 219 246 19 218 243 17 212 239 10 217 240 10 216 242 10 218 244 12 221 247 18 217 244 17 212 240 8 215 241 9 219 246 17 220 246 17 217 244 9 215 238 8 213 239 7 212 239 10 211 238 9 219 245 14 221 247 15 216 245 13 213 242 10 213 240 11 211 237 6 211 237 8 212 239 12 209 236 7 213 239 7 212 239 10 212 238 7 212 238 7 209 235 6 214 241 16 215 241 20 208 234 15 209 234 10 215 241 9 212 239 14 210 237 8 208 235 6 206 233 6 213 240 11 213 242 14 214 242 20 210 236 13 208 235 8 210 237 10 214 242 10 214 242 10 210 237 10 208 235 8 211 238 11 210 237 12 210 237 10 209 236 9 206 233 8 210 237 12 207 233 10 207 235 10 203 235 4 200 228 3 199 226 7 208 236 14 209 237 12 210 239 11 206 234 12 206 236 16 207 238 13 212 240 16 214 241 16 205 231 8 208 232 16 207 232 9 210 235 11 213 240 13 208 237 9 205 230 6 205 232 7 207 236 8 210 239 11 209 237 13 203 231 6 198 229 4 195 229 8 207 239 8 208 237 9 212 239 22 213 241 19 208 237 5 212 241 13 211 240 10 211 237 16 202 232 10 208 236 11 209 238 8 198 230 5 195 231 11 202 237 11 207 239 8 202 233 8 197 229 8 195 231 7 200 234 13 202 232 14 199 229 7 200 232 11 209 240 15 211 242 14 209 240 15 204 239 12 202 235 6 210 238 13 204 234 12 195 230 3 193 227 8 193 227 8 195 232 5 201 234 7 205 235 13 203 234 8 201 233 8 196 231 7 200 232 7 201 232 7 201 233 12 202 234 9 198 233 6 197 232 6 201 233 8 204 237 10 204 237 8 198 230 5 199 235 5 
201 233 8 195 226 8 194 226 5 195 227 6 198 228 6 201 229 4 200 226 5 197 228 3 204 237 6 203 239 7 200 237 9 201 239 8 204 240 8 210 241 13 207 235 10 198 233 7 203 235 10 209 240 14 211 242 17 203 235 10 199 234 7 200 235 8 203 235 14 204 235 9 199 230 5 192 223 5 199 230 13 204 236 11 206 237 11 201 233 10 194 233 5 190 225 7 192 226 5 197 230 1 207 238 13 210 241 13 205 236 8 207 238 12 212 241 13 211 242 14 209 240 15 200 232 11 199 229 7 202 232 14 200 234 13 195 231 7 197 229 8 202 233 8 207 239 8 202 237 11 195 231 11 198 230 5 209 238 8 208 236 11 202 232 10 211 237 16 211 240 10 212 241 13 208 237 5 213 241 19 212 239 22 208 237 9 207 239 8 195 229 8 198 229 4 203 231 6 209 237 13 210 239 11 207 236 8 205 232 7 205 230 6 208 237 9 213 240 13 210 235 11 207 232 9 208 232 16 205 231 8 214 241 16 212 240 16 207 238 13 206 236 16 206 234 12 210 239 11 209 237 12 208 236 14 199 226 7 200 228 3 203 235 4 207 235 10 207 233 10 210 237 12 206 233 8 209 236 9 210 237 10 210 237 12 211 238 11 208 235 8 210 237 10 214 242 10 214 242 10 210 237 10 208 235 8 210 236 13 214 242 20 213 242 14 213 240 11 206 233 6 208 235 6 210 237 8 212 239 14 215 241 9 209 234 10 208 234 15 215 241 20 214 241 16 209 235 6 212 238 7 212 238 7 212 239 10 213 239 7 209 236 7 212 239 12 211 237 8 211 237 6 213 240 11 213 242 10 216 245 13 221 247 15 219 245 14 211 238 9 212 239 10 213 239 7 215 238 8 217 244 9 220 246 17 219 246 17 215 241 9 212 240 8 217 244 17 221 247 18 218 244 12 216 242 10 217 240 10 212 239 10 218 243 17 219 246 19 212 239 10 211 237 8 220 245 21 220 246 17 217 246 8 212 240 8 211 236 10 215 241 10 216 243 14 209 236 7 212 240 8 223 248 24 219 245 13 218 242 8 214 240 8 221 247 16 224 249 23 223 245 22 220 244 8 222 246 10 214 240 9 219 240 11 219 245 13 218 245 20 218 244 13 219 243 7 221 245 13 222 248 17 218 245 8 217 243 14 218 244 21 221 247 16 221 246 5 221 245 9 225 248 18 228 251 11 224 246 13 221 246 23 219 246 9 220 244 12 218 241 13 215 239 7 223 248 9 220 247 10 218 244 13 225 244 14 226 248 17 
221 247 16 215 241 10 217 240 4 224 247 9 226 250 16 219 243 9 219 241 8 222 241 9 226 248 15 223 247 13 222 245 9 224 247 11 222 245 7 224 241 13 
226 247 30 225 248 8 222 243 14 222 244 13 228 250 17 228 250 17 221 243 10 220 242 11 225 248 12 219 244 5 224 244 7 220 239 10 213 236 10 219 242 12 223 245 14 223 247 11 221 245 13 216 243 4 219 245 14 216 239 11 219 243 9 214 240 8 215 241 12 215 241 9 215 243 8 216 243 4 218 242 10 220 243 13 219 245 16 218 244 13 216 242 13 211 237 6 214 242 7 216 243 4 220 243 17 218 241 11 216 239 11 213 239 10 217 241 9 221 245 11 221 247 18 215 241 12 216 242 13 218 243 19 217 241 9 212 238 6 216 243 14 218 246 13 220 247 18 217 242 19 208 235 8 208 237 9 214 239 13 214 240 9 215 243 10 217 243 11 224 247 17 219 245 16 212 239 10 210 238 6 213 242 12 219 248 20 213 242 10 211 238 11 212 240 15 216 244 9 218 245 10 222 248 19 219 245 14 213 238 12 217 242 16 222 248 19 220 243 15 211 237 8 208 235 6 214 240 11 216 243 8 215 243 11 220 244 26 218 241 13 211 239 7 213 240 15 207 232 8 210 235 9 211 237 6 208 232 14 209 236 9 219 247 25 220 246 23 210 238 6 211 237 14 214 242 10 219 246 19 214 241 16 208 235 8 212 238 17 214 242 10 214 243 15 206 234 9 209 236 9 213 239 16 212 239 10 211 238 9 215 243 18 210 237 12 211 238 13 211 238 13 213 241 9 212 240 8 214 239 13 214 239 13 212 238 7 203 229 6 195 220 7 199 224 8 207 234 5 215 242 13 209 237 13 205 233 11 204 232 7 201 228 11 208 234 11 214 242 10 211 239 7 206 233 6 210 236 13 206 234 9 210 241 16 213 241 16 206 235 7 206 234 10 206 236 16 204 237 10 206 234 10 211 237 14 201 234 7 197 228 3 203 231 7 211 238 11 209 238 8 200 231 5 202 230 8 202 230 6 202 232 10 211 237 14 212 240 15 214 242 10 219 246 21 214 241 12 206 233 4 205 234 4 210 239 11 209 240 15 209 240 14 205 240 14 196 233 6 201 237 7 208 240 6 205 233 8 199 227 5 195 224 10 189 223 4 192 226 7 199 231 6 202 231 3 204 232 10 209 237 13 207 234 9 195 230 4 204 235 7 212 241 11 207 238 10 198 230 7 198 230 9 193 227 6 193 227 6 201 234 7 202 233 7 200 231 6 195 227 6 192 227 3 197 229 6 198 228 6 199 230 5 199 233 12 205 236 10 204 237 6 201 236 9 200 235 11 202 232 12 202 232 10 193 230 3 195 230 4 
201 233 8 200 230 8 195 225 3 189 219 9 196 226 14 200 230 8 202 230 6 201 229 7 194 224 6 196 226 6 197 227 7 195 225 7 201 231 9 203 234 8 201 229 4 197 229 4 205 235 15 208 236 14 206 237 12 205 237 14 197 232 6 201 236 10 208 239 24 207 235 11 199 230 5 193 227 8 193 228 2 197 229 4 204 234 14 205 234 6 202 233 7 193 225 4 194 225 8 197 228 13 199 231 10 212 241 11 214 242 10 207 236 8 197 229 6 207 234 9 209 237 13 204 232 10 202 231 3 199 231 6 192 226 7 189 223 4 195 224 10 199 227 5 205 233 8 208 240 6 201 237 7 196 233 6 205 240 14 209 240 14 209 240 15 210 239 11 205 234 4 206 233 4 214 241 12 219 246 21 214 242 10 212 240 15 211 237 14 202 232 10 202 230 6 202 230 8 200 231 5 209 238 8 211 238 11 203 231 7 197 228 3 201 234 7 211 237 14 206 234 10 204 237 10 206 236 16 206 234 10 206 235 7 213 241 16 210 241 16 206 234 9 210 236 13 206 233 6 211 239 7 214 242 10 208 234 11 201 228 11 204 232 7 205 233 11 209 237 13 215 242 13 207 234 5 199 224 8 195 220 7 203 229 6 212 238 7 214 239 13 214 239 13 212 240 8 213 241 9 211 238 13 211 238 13 210 237 12 215 243 18 211 238 9 212 239 10 213 239 16 209 236 9 206 234 9 214 243 15 214 242 10 212 238 17 208 235 8 214 241 16 219 246 19 214 242 10 211 237 14 210 238 6 220 246 23 219 247 25 209 236 9 208 232 14 211 237 6 210 235 9 207 232 8 213 240 15 211 239 7 218 241 13 220 244 26 215 243 11 216 243 8 214 240 11 208 235 6 211 237 8 220 243 15 222 248 19 217 242 16 213 238 12 219 245 14 222 248 19 218 245 10 216 244 9 212 240 15 211 238 11 213 242 10 219 248 20 213 242 12 210 238 6 212 239 10 219 245 16 224 247 17 217 243 11 215 243 10 214 240 9 214 239 13 208 237 9 208 235 8 217 242 19 220 247 18 218 246 13 216 243 14 212 238 6 217 241 9 218 243 19 216 242 13 215 241 12 221 247 18 221 245 11 217 241 9 213 239 10 216 239 11 218 241 11 220 243 17 216 243 4 214 242 7 211 237 6 216 242 13 218 244 13 219 245 16 220 243 13 218 242 10 216 243 4 215 243 8 215 241 9 215 241 12 214 240 8 219 243 9 216 239 11 219 245 14 216 243 4 221 245 13 223 247 11 223 245 14 
219 242 12 213 236 10 220 239 10 224 244 7 219 244 5 225 248 12 220 242 11 220 243 7 227 249 18 228 250 17 222 243 14 221 243 12 225 249 5 226 244 18 
224 248 30 221 245 11 221 240 11 223 246 8 221 246 7 215 242 3 219 243 7 223 246 6 216 243 8 217 243 12 220 243 7 219 242 6 214 240 11 216 242 11 223 247 11 222 246 12 219 245 13 215 241 9 215 242 7 216 240 4 216 240 8 215 240 16 215 241 12 212 238 6 215 243 11 215 243 10 216 243 16 215 243 19 215 243 8 218 245 6 215 241 10 210 237 12 215 240 14 219 245 14 224 248 14 214 237 9 206 230 10 213 239 10 218 244 12 220 246 15 215 241 12 214 240 8 213 238 12 209 236 9 208 235 6 213 238 15 213 239 10 211 236 13 211 237 6 210 236 5 212 239 12 215 243 11 216 243 8 214 240 8 216 242 11 222 245 17 219 247 14 214 241 6 214 241 16 214 241 16 213 240 15 214 242 10 208 235 6 211 240 12 217 243 12 219 245 14 224 247 17 226 248 25 220 247 12 216 243 6 214 240 8 217 241 9 211 236 10 204 231 4 213 239 8 219 242 14 216 238 15 216 242 11 214 241 12 214 240 9 215 241 9 211 238 11 207 235 3 210 238 13 213 241 8 212 240 7 214 242 9 215 241 12 210 238 5 209 236 9 209 236 7 213 240 13 215 242 15 211 238 11 212 239 10 213 240 11 214 241 14 213 240 11 209 236 9 209 237 5 217 244 15 206 232 9 208 235 18 209 238 10 212 239 10 214 241 14 208 234 13 210 237 10 210 237 10 206 232 11 207 234 9 205 232 7 200 226 5 196 224 2 202 230 6 205 233 8 208 235 10 202 230 5 192 224 3 191 224 9 199 230 12 206 237 12 209 238 10 204 232 10 202 229 10 202 230 6 198 226 4 205 233 9 210 239 11 206 237 11 204 237 6 201 234 5 208 239 11 206 233 14 203 229 8 204 229 6 199 226 1 202 229 12 206 233 14 200 226 5 204 230 9 200 226 3 205 233 8 205 234 4 207 236 8 210 237 12 209 234 10 214 240 21 208 236 14 195 225 3 205 233 8 211 240 12 209 240 14 208 236 11 206 235 7 206 237 11 204 236 11 197 228 11 190 224 5 192 226 7 196 226 4 201 233 8 202 238 8 199 234 7 198 234 4 195 228 1 196 227 10 197 230 15 198 233 6 200 233 6 202 230 8 195 225 7 191 222 7 194 228 10 191 225 6 191 224 9 193 227 8 197 229 8 200 232 9 196 231 7 194 228 7 195 227 2 198 229 4 199 228 12 200 230 12 199 230 5 197 229 4 201 233 10 201 233 8 205 236 8 201 232 6 191 225 4 195 226 8 204 235 10 
200 230 10 200 230 8 193 224 6 193 224 6 192 223 5 193 225 2 195 227 4 192 221 5 187 218 1 184 219 1 190 221 4 196 228 5 196 228 3 193 224 6 198 230 9 205 236 11 201 231 9 196 227 2 203 236 9 195 230 4 194 229 3 202 234 13 202 231 15 194 226 5 189 223 4 194 231 4 198 235 7 202 234 11 199 231 10 191 224 9 188 221 8 188 222 4 195 228 13 191 220 8 196 223 6 203 231 6 199 232 3 199 234 7 197 230 15 196 227 10 195 228 1 198 234 4 199 234 7 202 238 8 201 233 8 196 226 4 192 226 7 190 224 5 197 228 11 204 236 11 206 237 11 206 235 7 208 236 11 209 240 14 211 240 12 205 233 8 195 225 3 208 236 14 214 240 21 209 234 10 210 237 12 207 236 8 205 234 4 205 233 8 200 226 3 204 230 9 200 226 5 206 233 14 202 229 12 199 226 1 204 229 6 203 229 8 206 233 14 208 239 11 201 234 5 204 237 6 206 237 11 210 239 11 205 233 9 198 226 4 202 230 6 202 229 10 204 232 10 209 238 10 206 237 12 199 230 12 191 224 9 192 224 3 202 230 5 208 235 10 205 233 8 202 230 6 196 224 2 200 226 5 205 232 7 207 234 9 206 232 11 210 237 10 210 237 10 208 234 13 214 241 14 212 239 10 209 238 10 208 235 18 206 232 9 217 244 15 209 237 5 209 236 9 213 240 11 214 241 14 213 240 11 212 239 10 211 238 11 215 242 15 213 240 13 209 236 7 209 236 9 210 238 5 215 241 12 214 242 9 212 240 7 213 241 8 210 238 13 207 235 3 211 238 11 215 241 9 214 240 9 214 241 12 216 242 11 216 238 15 219 242 14 213 239 8 204 231 4 211 236 10 217 241 9 214 240 8 216 243 6 220 247 12 226 248 25 224 247 17 219 245 14 217 243 12 211 240 12 208 235 6 214 242 10 213 240 15 214 241 16 214 241 16 214 241 6 219 247 14 222 245 17 216 242 11 214 240 8 216 243 8 215 243 11 212 239 12 210 236 5 211 237 6 211 236 13 213 239 10 213 238 15 208 235 6 209 236 9 213 238 12 214 240 8 215 241 12 220 246 15 218 244 12 213 239 10 206 230 10 214 237 9 224 248 14 219 245 14 215 240 14 210 237 12 215 241 10 218 245 6 215 243 8 215 243 19 216 243 16 215 243 10 215 243 11 212 238 6 215 241 12 215 240 16 216 240 8 216 240 4 215 242 7 215 241 9 219 245 13 222 246 12 223 247 11 216 242 11 214 240 11 219 242 6 
220 243 7 217 243 12 216 243 8 224 244 5 219 244 5 216 243 6 221 246 5 222 245 9 219 240 11 222 245 7 223 244 17 
216 239 25 213 239 7 220 244 12 228 249 20 225 249 13 223 247 13 222 249 12 219 246 7 217 245 12 219 247 15 219 243 9 217 241 9 221 246 22 221 247 16 219 244 3 216 242 10 217 243 12 218 243 20 216 242 10 214 241 6 211 237 8 213 239 10 213 238 12 212 240 7 224 247 17 222 248 16 219 247 12 219 246 17 218 245 10 220 244 8 218 243 4 213 239 10 221 243 12 224 248 16 220 246 14 212 240 7 209 237 12 215 242 15 223 248 25 224 245 16 220 244 8 212 238 6 207 234 7 206 234 9 207 235 11 210 236 15 212 238 9 215 240 14 216 242 13 213 239 8 212 238 15 211 237 14 208 234 5 207 232 6 204 231 6 208 233 7 210 238 6 213 239 8 210 235 11 210 237 12 211 239 4 215 241 12 216 240 20 216 245 15 221 247 18 223 247 15 220 243 17 216 238 15 212 238 7 208 233 7 206 231 5 211 236 13 209 236 7 211 238 13 211 236 10 216 239 9 216 238 15 211 237 8 208 235 6 210 236 13 213 240 15 209 236 11 209 238 8 212 241 13 215 244 12 212 239 12 212 239 10 211 238 9 208 236 11 211 237 16 216 242 13 214 240 9 214 241 12 210 237 12 210 237 8 212 237 13 212 239 10 209 236 11 211 238 13 213 240 15 211 237 16 203 230 5 205 232 7 214 242 10 221 247 16 211 238 9 205 232 3 211 238 9 209 236 9 204 231 6 204 230 7 198 223 8 199 226 7 198 228 6 197 230 1 201 231 9 208 234 13 209 235 12 199 228 12 192 223 8 198 230 9 209 241 10 210 241 13 203 234 9 206 237 12 210 239 11 207 236 8 210 238 16 209 234 8 210 237 12 203 234 8 194 224 2 203 234 8 206 237 9 206 238 5 211 239 7 209 236 11 206 237 11 202 234 3 204 232 7 204 230 9 203 231 9 205 235 13 203 231 9 200 232 7 209 237 15 203 231 7 201 232 6 195 226 1 196 223 6 204 230 9 209 236 7 206 237 9 204 232 10 198 225 9 199 226 7 190 219 3 191 225 7 196 233 5 199 239 5 206 239 8 214 245 20 207 238 12 197 231 10 195 230 4 198 231 4 196 227 9 198 230 7 197 232 6 193 225 4 193 225 4 202 232 12 198 229 12 189 222 9 189 222 7 197 228 10 198 233 7 200 232 9 198 230 5 194 229 5 189 223 5 192 226 7 192 224 3 190 220 8 188 218 6 186 219 8 185 220 6 189 223 4 194 229 3 197 232 6 201 233 10 198 230 9 195 225 7 197 229 6 196 228 7 
198 228 6 200 230 8 194 226 5 192 226 5 191 227 5 197 232 6 197 232 8 190 224 6 180 214 3 181 217 5 195 227 6 196 227 2 194 229 11 202 237 11 200 232 11 192 223 6 187 220 7 190 226 6 190 226 2 191 226 10 190 224 6 191 224 9 191 225 4 188 223 5 188 223 5 199 235 3 206 239 10 202 234 11 198 233 9 195 228 13 187 222 6 190 225 9 200 231 14 202 232 14 193 224 6 192 226 5 197 232 5 198 230 7 196 227 9 198 231 4 195 230 4 197 231 10 207 238 12 214 245 20 206 239 8 199 239 5 196 233 5 191 225 7 190 219 3 199 226 7 198 225 9 204 232 10 206 237 9 209 236 7 204 230 9 196 223 6 195 226 1 201 232 6 203 231 7 209 237 15 200 232 7 203 231 9 205 235 13 203 231 9 204 230 9 204 232 7 202 234 3 206 237 11 209 236 11 211 239 7 206 238 5 206 237 9 203 234 8 194 224 2 203 234 8 210 237 12 209 234 8 210 238 16 207 236 8 210 239 11 206 237 12 203 234 9 210 241 13 209 241 10 198 230 9 192 223 8 199 228 12 209 235 12 208 234 13 201 231 9 197 230 1 198 228 6 199 226 7 198 223 8 204 230 7 204 231 6 209 236 9 211 238 9 205 232 3 211 238 9 221 247 16 214 242 10 205 232 7 203 230 5 211 237 16 213 240 15 211 238 13 209 236 11 212 239 10 212 237 13 210 237 8 210 237 12 214 241 12 214 240 9 216 242 13 211 237 16 208 236 11 211 238 9 212 239 10 212 239 12 215 244 12 212 241 13 209 238 8 209 236 11 213 240 15 210 236 13 208 235 6 211 237 8 216 238 15 216 239 9 211 236 10 211 238 13 209 236 7 211 236 13 206 231 5 208 233 7 212 238 7 216 238 15 220 243 17 223 247 15 221 247 18 216 245 15 216 240 20 215 241 12 211 239 4 210 237 12 210 235 11 213 239 8 210 238 6 208 233 7 204 231 6 207 232 6 208 234 5 211 237 14 212 238 15 213 239 8 216 242 13 215 240 14 212 238 9 210 236 15 207 235 11 206 234 9 207 234 7 212 238 6 220 244 8 224 245 16 223 248 25 215 242 15 209 237 12 212 240 7 220 246 14 224 248 16 221 243 12 213 239 10 218 243 4 220 244 8 218 245 10 219 246 17 219 247 12 222 248 16 224 247 17 212 240 7 213 238 12 213 239 10 211 237 8 214 241 6 216 242 10 218 243 20 217 243 12 216 242 10 219 244 3 221 247 16 221 246 22 217 241 9 219 243 9 
219 247 15 217 245 12 218 246 4 222 249 12 223 247 13 226 249 11 228 249 22 220 244 12 215 239 5 213 235 13 
215 240 27 217 242 16 223 250 15 225 249 17 223 246 8 221 245 13 214 240 9 213 241 9 220 247 10 222 249 14 225 250 11 221 245 9 224 248 16 218 245 10 214 240 8 213 240 5 216 243 14 221 244 16 221 244 16 222 248 17 216 242 10 217 240 10 216 242 11 218 246 11 223 246 16 219 246 11 220 246 14 216 241 15 216 242 10 220 244 10 213 237 5 213 238 12 218 242 10 213 239 8 211 237 8 210 236 13 216 243 16 216 243 14 220 247 12 223 248 7 222 247 6 216 242 10 210 237 10 210 239 7 214 243 13 219 246 21 218 245 8 217 244 9 218 244 15 214 241 16 214 241 12 212 239 10 205 231 8 205 231 10 208 234 15 214 240 21 216 244 9 214 240 9 214 240 8 213 242 12 213 241 8 218 244 15 219 242 16 211 239 6 217 243 14 217 243 14 210 235 9 204 228 8 210 235 11 208 234 11 210 237 12 213 240 11 212 239 10 211 238 9 212 239 12 216 244 12 210 237 10 210 237 8 214 241 16 213 239 18 213 241 8 210 237 10 208 235 8 210 237 12 213 240 11 205 231 10 206 234 10 211 240 8 210 237 12 213 240 11 219 245 14 213 239 10 204 230 7 203 229 8 211 239 6 214 240 8 209 239 5 211 238 13 215 243 10 217 245 12 213 239 18 210 235 12 215 241 12 218 244 13 214 240 11 205 231 0 211 238 9 214 241 16 212 239 12 208 235 10 199 224 8 199 226 10 203 231 9 200 231 6 199 232 3 206 237 11 210 239 11 209 236 9 206 232 9 205 232 5 210 240 4 212 242 8 212 241 9 209 237 13 213 241 19 210 238 13 206 233 6 207 235 10 213 240 11 214 242 10 205 234 6 199 227 5 210 237 10 211 240 10 208 240 9 210 237 12 211 240 12 208 239 11 206 238 13 206 236 14 212 240 16 213 242 14 206 237 9 199 229 9 201 229 7 212 239 12 210 239 11 201 234 7 202 234 9 207 235 11 208 237 9 200 232 7 200 227 8 198 228 8 197 228 13 200 231 13 195 226 9 197 229 6 202 237 11 201 236 10 208 239 13 207 235 10 208 237 7 205 235 15 201 232 14 199 231 8 191 220 4 198 228 8 197 231 12 191 225 4 195 227 4 201 233 10 194 226 5 183 218 2 189 222 7 199 229 9 203 233 11 200 230 8 197 229 6 195 229 10 186 219 8 185 218 7 186 221 3 189 224 6 191 226 10 187 224 7 186 223 4 188 224 2 188 224 4 191 224 9 194 225 8 192 222 2 196 228 7 
205 237 12 204 236 13 201 232 7 202 230 6 199 229 7 195 227 4 194 229 5 201 234 7 198 233 6 202 234 13 198 232 13 192 227 9 194 225 7 196 223 4 193 227 8 201 233 8 203 235 10 194 229 2 190 224 3 189 225 3 192 228 6 196 229 14 198 232 14 184 217 6 181 215 7 182 216 7 189 219 7 199 229 7 203 234 8 202 232 12 203 233 13 201 232 7 188 223 7 182 216 5 191 225 7 203 235 12 195 229 8 190 224 3 199 230 12 198 228 8 191 220 4 199 231 8 201 232 14 205 235 15 208 237 7 207 235 10 208 239 13 201 236 10 202 237 11 197 229 6 195 226 9 200 231 13 197 228 13 198 228 8 200 227 8 200 232 7 208 237 9 207 235 11 202 234 9 201 234 7 210 239 11 212 239 12 201 229 7 199 229 9 206 237 9 213 242 14 212 240 16 206 236 14 206 238 13 208 239 11 211 240 12 210 237 12 208 240 9 211 240 10 210 237 10 199 227 5 205 234 6 214 242 10 213 240 11 207 235 10 206 233 6 210 238 13 213 241 19 209 237 13 212 241 9 212 242 8 210 240 4 205 232 5 206 232 9 209 236 9 210 239 11 206 237 11 199 232 3 200 231 6 203 231 9 199 226 10 199 224 8 208 235 10 212 239 12 214 241 16 211 238 9 205 231 0 214 240 11 218 244 13 215 241 12 210 235 12 213 239 18 217 245 12 215 243 10 211 238 13 209 239 5 214 240 8 211 239 6 203 229 8 204 230 7 213 239 10 219 245 14 213 240 11 210 237 12 211 240 8 206 234 10 205 231 10 213 240 11 210 237 12 208 235 8 210 237 10 213 241 8 213 239 18 214 241 16 210 237 8 210 237 10 216 244 12 212 239 12 211 238 9 212 239 10 213 240 11 210 237 12 208 234 11 210 235 11 204 228 8 210 235 9 217 243 14 217 243 14 211 239 6 219 242 16 218 244 15 213 241 8 213 242 12 214 240 8 214 240 9 216 244 9 214 240 21 208 234 15 205 231 10 205 231 8 212 239 10 214 241 12 214 241 16 218 244 15 217 244 9 218 245 8 219 246 21 214 243 13 210 239 7 210 237 10 216 242 10 222 247 6 223 248 7 220 247 12 216 243 14 216 243 16 210 236 13 211 237 8 213 239 8 218 242 10 213 238 12 213 237 5 220 244 10 216 242 10 216 241 15 220 246 14 219 246 11 223 246 16 218 246 11 216 242 11 217 240 10 216 242 10 222 248 17 221 244 16 221 244 16 216 243 14 213 240 5 214 240 8 
218 245 10 224 248 16 221 245 9 225 250 11 222 249 14 220 247 10 213 241 9 213 239 8 220 244 12 224 247 7 226 247 18 223 249 17 217 243 14 214 236 14 
221 246 31 221 247 15 222 247 8 219 244 5 218 243 19 217 243 12 214 241 6 225 249 13 226 250 16 223 246 16 223 246 10 218 241 11 216 239 9 212 238 6 218 243 20 213 241 9 209 236 9 223 247 15 223 246 20 219 242 16 215 241 10 221 244 18 224 247 21 220 248 15 219 245 16 224 247 19 228 251 25 223 246 18 218 244 15 216 242 11 212 237 13 213 239 18 213 240 11 217 243 12 215 241 9 215 241 10 217 242 18 213 239 8 215 241 10 216 242 13 214 240 11 212 238 15 211 238 13 213 241 9 215 242 13 210 236 13 207 233 2 214 240 9 218 243 19 214 241 12 216 244 12 216 243 14 212 239 10 216 243 16 216 242 21 217 246 18 214 241 12 214 239 13 213 239 8 216 244 11 217 244 17 217 240 12 211 233 10 209 236 9 216 241 15 214 239 15 209 234 10 209 235 12 216 243 14 213 240 11 209 238 10 205 234 6 206 232 9 209 236 7 211 238 11 206 234 9 204 231 6 214 242 10 211 239 7 208 235 6 210 235 12 207 231 11 209 236 9 204 230 7 201 227 6 195 220 5 190 216 5 204 232 8 211 238 11 210 238 6 211 237 8 207 232 8 207 234 9 209 236 9 209 236 9 216 240 22 213 241 9 218 246 14 216 244 9 208 236 3 209 236 9 213 240 13 215 240 16 207 232 8 210 234 14 209 236 7 210 238 6 209 236 7 204 231 6 199 227 2 199 227 3 197 223 10 203 229 10 201 228 3 206 232 9 207 235 11 209 238 10 208 237 9 205 232 5 207 234 7 207 236 8 207 233 12 207 233 10 206 235 5 207 236 8 205 231 8 202 228 5 208 235 10 219 246 17 213 238 12 206 233 6 203 231 6 205 232 5 209 235 12 213 241 16 211 240 12 209 236 7 212 239 10 208 236 11 206 234 9 207 234 7 204 229 5 205 231 8 196 223 6 199 229 9 208 239 11 206 237 11 202 235 8 206 237 11 211 238 9 212 238 9 199 227 5 204 230 11 204 235 10 203 236 7 199 231 8 200 232 7 200 232 7 202 234 9 199 230 5 206 234 9 203 234 8 206 238 7 199 230 2 195 227 2 188 223 5 187 222 8 197 232 6 200 232 9 196 231 5 193 227 6 195 227 6 199 231 10 190 223 8 187 220 5 201 232 7 202 232 14 201 231 9 202 233 7 193 225 4 186 219 6 187 221 3 192 226 5 189 224 6 192 226 5 192 226 7 193 227 9 187 222 8 188 223 5 193 227 6 193 224 6 188 218 8 189 222 7 198 230 7 199 229 9 
204 231 12 205 233 8 197 227 7 190 219 3 198 228 8 199 231 10 199 227 3 198 230 9 201 236 12 198 228 8 182 210 4 182 212 4 198 225 8 195 225 7 197 228 2 201 232 6 202 233 5 198 231 4 204 236 13 205 236 10 208 239 14 197 231 12 189 224 6 184 219 5 185 212 11 196 222 13 200 232 7 198 230 7 202 229 10 201 231 13 183 216 3 188 223 5 200 235 8 198 230 5 194 229 5 196 231 5 201 233 8 197 232 6 187 222 8 188 223 5 195 227 2 199 230 2 206 238 7 203 234 8 206 234 9 199 230 5 202 234 9 200 232 7 200 232 7 199 231 8 203 236 7 204 235 10 204 230 11 199 227 5 212 238 9 211 238 9 206 237 11 202 235 8 206 237 11 208 239 11 199 229 9 196 223 6 205 231 8 204 229 5 207 234 7 206 234 9 208 236 11 212 239 10 209 236 7 211 240 12 213 241 16 209 235 12 205 232 5 203 231 6 206 233 6 213 238 12 219 246 17 208 235 10 202 228 5 205 231 8 207 236 8 206 235 5 207 233 10 207 233 12 207 236 8 207 234 7 205 232 5 208 237 9 209 238 10 207 235 11 206 232 9 201 228 3 203 229 10 197 223 10 199 227 3 199 227 2 204 231 6 209 236 7 210 238 6 209 236 7 210 234 14 207 232 8 215 240 16 213 240 13 209 236 9 208 236 3 216 244 9 218 246 14 213 241 9 216 240 22 209 236 9 209 236 9 207 234 9 207 232 8 211 237 8 210 238 6 211 238 11 204 232 8 190 216 5 195 220 5 201 227 6 204 230 7 209 236 9 207 231 11 210 235 12 208 235 6 211 239 7 214 242 10 204 231 6 206 234 9 211 238 11 209 236 7 206 232 9 205 234 6 209 238 10 213 240 11 216 243 14 209 235 12 209 234 10 214 239 15 216 241 15 209 236 9 211 233 10 217 240 12 217 244 17 216 244 11 213 239 8 214 239 13 214 241 12 217 246 18 216 242 21 216 243 16 212 239 10 216 243 14 216 244 12 214 241 12 218 243 19 214 240 9 207 233 2 210 236 13 215 242 13 213 241 9 211 238 13 212 238 15 214 240 11 216 242 13 215 241 10 213 239 8 217 242 18 215 241 10 215 241 9 217 243 12 213 240 11 213 239 18 212 237 13 216 242 11 218 244 15 223 246 18 228 251 25 224 247 19 219 245 16 220 248 15 224 247 21 221 244 18 215 241 10 219 242 16 223 246 20 223 247 15 209 236 9 213 241 9 218 243 20 212 238 6 216 239 9 218 241 11 223 246 10 
223 246 16 226 250 16 225 249 13 214 240 8 217 243 12 220 242 19 218 242 6 222 247 8 224 248 14 219 242 14 
224 243 30 218 243 4 212 238 6 215 242 13 220 248 16 219 247 5 220 244 8 225 247 14 222 244 11 222 245 7 221 242 15 216 240 8 217 241 9 215 240 14 217 245 10 214 241 12 216 244 12 220 246 15 220 243 15 217 240 12 217 243 11 215 241 10 219 242 12 219 243 7 219 245 16 222 245 19 220 241 14 214 238 6 210 235 11 209 234 8 214 241 14 213 240 11 217 242 18 215 240 17 219 245 14 220 246 15 216 243 6 222 246 12 218 244 12 217 243 11 213 240 13 207 233 10 212 240 7 212 239 10 211 236 12 213 238 12 213 241 9 217 245 13 220 245 21 216 242 19 216 241 17 213 239 10 215 242 17 219 245 22 214 240 11 211 238 13 213 241 16 217 242 16 219 244 20 220 246 17 216 242 10 212 235 9 205 229 13 205 233 8 214 240 9 210 235 9 207 233 10 211 237 14 212 239 10 212 239 14 209 236 7 209 238 10 209 237 13 209 237 12 206 233 6 209 236 9 214 241 12 218 244 13 211 239 7 209 238 6 217 241 9 216 241 15 207 234 7 203 230 3 202 229 4 200 228 6 204 232 8 212 241 9 211 239 7 211 239 7 208 235 6 212 240 7 211 239 4 212 238 15 216 244 12 216 244 9 220 242 19 217 240 10 208 233 7 202 228 9 199 227 5 203 231 7 200 228 4 198 224 5 207 233 12 205 232 13 199 227 5 196 223 4 202 229 13 203 230 11 200 228 6 198 225 6 200 230 8 206 233 14 208 234 13 206 232 13 208 234 13 202 230 5 196 223 4 198 225 8 203 234 6 208 237 7 207 235 11 206 234 9 205 234 6 206 232 9 206 231 5 209 236 9 212 237 11 205 226 9 204 230 11 201 231 11 195 225 3 206 234 10 213 242 10 206 238 5 202 230 5 203 230 5 203 229 6 204 232 10 200 228 4 206 233 8 205 231 10 204 232 8 206 233 16 209 236 11 211 238 11 207 238 10 198 228 6 199 227 5 204 232 8 209 237 13 217 245 20 211 239 14 202 230 5 204 231 12 201 231 11 196 228 5 196 228 7 204 232 7 207 237 15 198 230 9 188 219 2 193 223 5 200 230 8 194 228 7 195 229 10 197 229 8 202 234 9 194 229 5 190 224 5 192 223 5 192 226 8 184 216 8 187 220 9 200 232 9 197 232 8 199 231 10 203 235 10 199 231 6 197 229 8 197 229 6 198 230 5 192 226 5 194 225 8 193 225 4 196 228 7 185 220 6 186 221 7 189 225 5 191 227 7 191 227 13 198 230 9 201 232 6 200 228 6 
203 230 11 208 239 13 205 235 13 200 232 9 201 234 7 198 229 3 193 223 5 189 223 2 197 230 17 207 237 17 195 227 4 184 216 11 191 220 6 195 225 5 202 233 7 203 234 9 200 231 6 200 231 3 197 228 3 202 233 8 207 238 13 199 234 10 194 231 4 191 227 5 195 225 13 197 229 6 197 234 6 198 234 14 200 235 11 205 237 12 188 221 8 186 219 6 199 230 12 196 228 7 191 225 4 195 230 4 199 234 7 197 229 8 195 229 10 194 228 7 200 230 8 193 223 5 188 219 2 198 230 9 207 237 15 204 232 7 196 228 7 196 228 5 201 231 11 204 231 12 202 230 5 211 239 14 217 245 20 209 237 13 204 232 8 199 227 5 198 228 6 207 238 10 211 238 11 209 236 11 206 233 16 204 232 8 205 231 10 206 233 8 200 228 4 204 232 10 203 229 6 203 230 5 202 230 5 206 238 5 213 242 10 206 234 10 195 225 3 201 231 11 204 230 11 205 226 9 212 237 11 209 236 9 206 231 5 206 232 9 205 234 6 206 234 9 207 235 11 208 237 7 203 234 6 198 225 8 196 223 4 202 230 5 208 234 13 206 232 13 208 234 13 206 233 14 200 230 8 198 225 6 200 228 6 203 230 11 202 229 13 196 223 4 199 227 5 205 232 13 207 233 12 198 224 5 200 228 4 203 231 7 199 227 5 202 228 9 208 233 7 217 240 10 220 242 19 216 244 9 216 244 12 212 238 15 211 239 4 212 240 7 208 235 6 211 239 7 211 239 7 212 241 9 204 232 8 200 228 6 202 229 4 203 230 3 207 234 7 216 241 15 217 241 9 209 238 6 211 239 7 218 244 13 214 241 12 209 236 9 206 233 6 209 237 12 209 237 13 209 238 10 209 236 7 212 239 14 212 239 10 211 237 14 207 233 10 210 235 9 214 240 9 205 233 8 205 229 13 212 235 9 216 242 10 220 246 17 219 244 20 217 242 16 213 241 16 211 238 13 214 240 11 219 245 22 215 242 17 213 239 10 216 241 17 216 242 19 220 245 21 217 245 13 213 241 9 213 238 12 211 236 12 212 239 10 212 240 7 207 233 10 213 240 13 217 243 11 218 244 12 222 246 12 216 243 6 220 246 15 219 245 14 215 240 17 217 242 18 213 240 11 214 241 14 209 234 8 210 235 11 214 238 6 220 241 14 222 245 19 219 245 16 219 243 7 219 242 12 215 241 10 217 243 11 217 240 12 220 243 15 220 246 15 216 244 12 214 241 12 217 245 10 215 240 14 217 241 9 216 240 8 
221 242 15 222 245 7 222 244 11 225 247 14 220 244 10 219 247 5 221 247 16 216 242 13 212 238 6 219 242 4 221 240 11 
225 244 30 217 242 3 214 241 12 221 248 23 223 250 13 222 246 10 222 244 11 220 244 8 223 247 15 226 247 20 220 243 15 213 239 7 218 242 10 215 240 14 211 238 11 207 234 7 205 231 8 204 231 4 210 235 11 214 240 11 215 241 9 211 237 5 214 241 4 217 241 7 212 238 7 211 237 6 207 232 6 206 233 8 212 239 14 213 240 13 216 243 14 213 241 9 215 242 13 219 247 15 220 246 14 223 247 15 223 246 10 216 240 8 209 234 8 213 239 16 208 235 10 207 234 7 212 239 12 210 237 10 213 238 12 220 245 21 217 243 11 217 244 17 219 244 21 215 241 18 214 239 15 212 238 9 215 242 17 214 240 19 208 232 12 207 233 14 211 238 11 214 242 9 216 242 13 218 239 20 217 241 9 212 238 9 207 234 7 215 244 14 216 241 15 211 236 13 211 238 9 212 239 10 215 241 10 216 242 13 209 236 9 210 239 7 209 238 8 214 240 17 213 240 11 216 243 14 216 244 11 211 237 8 210 235 11 214 242 17 216 242 13 208 233 10 199 224 8 209 235 12 213 240 13 206 232 9 211 238 11 215 241 18 213 238 12 210 237 8 202 230 5 205 232 7 210 236 15 218 242 26 215 242 17 210 237 18 214 238 18 208 233 7 203 228 4 203 229 10 197 227 9 188 216 7 198 225 8 203 231 9 200 228 3 196 223 6 199 226 7 205 233 11 210 239 11 209 237 15 209 235 22 205 234 4 202 233 7 206 233 14 204 231 6 207 233 12 209 235 14 201 228 1 202 229 10 210 238 16 210 241 13 210 239 9 204 233 3 205 233 9 206 234 10 206 233 4 207 234 5 212 240 8 206 235 5 194 224 4 198 228 8 199 229 7 196 227 2 205 231 8 206 233 6 205 231 8 198 225 9 207 233 10 209 236 7 206 234 9 201 232 7 201 231 9 202 232 12 210 238 13 203 234 9 206 235 3 211 240 8 199 227 3 191 217 6 195 222 5 206 232 13 210 236 15 209 237 13 199 229 7 196 223 4 209 235 12 203 231 7 199 232 3 201 234 7 207 238 10 202 233 5 200 232 9 195 226 8 203 234 9 208 237 7 207 236 8 201 228 9 197 227 9 201 236 9 199 231 6 197 229 4 194 229 5 195 229 10 191 225 7 195 229 8 194 229 5 191 227 5 191 224 9 193 226 11 194 228 7 196 228 7 202 232 12 200 232 7 196 231 4 200 232 7 194 229 5 196 231 5 199 234 10 187 222 4 180 219 6 178 217 4 185 221 7 196 228 5 196 228 7 192 223 5 
197 227 9 200 230 8 202 232 10 204 235 7 203 236 9 201 231 11 188 219 4 182 211 7 186 219 8 194 231 4 202 237 10 191 222 7 174 205 6 181 213 6 186 219 8 198 232 13 195 229 8 200 232 9 202 234 9 198 230 7 202 234 9 198 233 7 204 237 22 194 228 10 193 228 2 194 230 6 193 228 12 195 230 16 194 230 8 199 235 5 202 237 10 197 232 8 195 229 8 197 231 10 198 233 9 196 231 5 201 236 9 197 227 9 201 228 9 207 236 8 208 237 7 203 234 9 195 226 8 200 232 9 202 233 5 207 238 10 201 234 7 199 232 3 203 231 7 209 235 12 196 223 4 199 229 7 209 237 13 210 236 15 206 232 13 195 222 5 191 217 6 199 227 3 211 240 8 206 235 3 203 234 9 210 238 13 202 232 12 201 231 9 201 232 7 206 234 9 209 236 7 207 233 10 198 225 9 205 231 8 206 233 6 205 231 8 196 227 2 199 229 7 198 228 8 194 224 4 206 235 5 212 240 8 207 234 5 206 233 4 206 234 10 205 233 9 204 233 3 210 239 9 210 241 13 210 238 16 202 229 10 201 228 1 209 235 14 207 233 12 204 231 6 206 233 14 202 233 7 205 234 4 209 235 22 209 237 15 210 239 11 205 233 11 199 226 7 196 223 6 200 228 3 203 231 9 198 225 8 188 216 7 197 227 9 203 229 10 203 228 4 208 233 7 214 238 18 210 237 18 215 242 17 218 242 26 210 236 15 205 232 7 202 230 5 210 237 8 213 238 12 215 241 18 211 238 11 206 232 9 213 240 13 209 235 12 199 224 8 208 233 10 216 242 13 214 242 17 210 235 11 211 237 8 216 244 11 216 243 14 213 240 11 214 240 17 209 238 8 210 239 7 209 236 9 216 242 13 215 241 10 212 239 10 211 238 9 211 236 13 216 241 15 215 244 14 207 234 7 212 238 9 217 241 9 218 239 20 216 242 13 214 242 9 211 238 11 207 233 14 208 232 12 214 240 19 215 242 17 212 238 9 214 239 15 215 241 18 219 244 21 217 244 17 217 243 11 220 245 21 213 238 12 210 237 10 212 239 12 207 234 7 208 235 10 213 239 16 209 234 8 216 240 8 223 246 10 223 247 15 220 246 14 219 247 15 215 242 13 213 241 9 216 243 14 213 240 13 212 239 14 206 233 8 207 232 6 211 237 6 212 238 7 217 241 7 214 241 4 211 237 5 215 241 9 214 240 11 210 235 11 204 231 4 205 231 8 207 234 7 211 238 11 215 240 14 218 242 10 213 239 7 220 243 15 
226 247 20 223 247 15 220 245 6 220 244 10 222 246 10 226 250 14 222 249 24 214 241 12 216 240 4 223 241 9 
221 244 30 218 242 6 220 244 10 221 245 11 220 244 8 221 245 11 220 244 8 221 245 13 221 245 13 220 244 12 209 234 10 207 234 5 211 234 6 206 231 8 208 235 10 202 228 5 205 232 15 211 240 12 216 244 9 215 241 10 220 246 15 217 246 8 219 246 11 223 246 10 220 242 9 221 244 16 211 237 8 210 237 10 212 237 11 209 232 4 212 236 4 212 235 9 217 240 12 215 241 9 214 240 9 210 235 9 209 234 8 205 229 9 210 236 5 211 238 13 206 232 3 203 230 5 213 239 18 218 245 18 213 241 8 220 246 15 216 242 10 211 236 12 215 239 19 211 239 14 211 238 9 209 234 8 204 231 4 202 229 4 207 232 9 210 240 6 219 244 18 218 243 19 214 239 13 216 242 11 213 237 17 209 235 12 210 237 8 212 239 14 205 229 9 203 229 8 214 240 17 214 241 16 216 241 15 208 234 11 204 231 4 208 237 7 211 238 9 214 239 13 209 237 4 212 240 15 212 241 9 209 234 10 213 238 15 214 239 13 207 235 11 206 233 8 209 236 11 219 244 21 212 236 20 205 230 7 210 237 8 205 234 6 209 234 8 211 237 14 209 237 12 209 238 8 207 233 12 210 236 7 203 230 5 204 232 8 208 235 18 204 233 5 200 228 6 193 220 4 197 227 7 196 225 9 210 239 11 213 241 8 206 233 6 196 224 2 196 224 2 200 228 4 203 231 7 204 231 6 206 233 8 206 232 9 203 227 7 203 229 6 204 231 6 208 234 11 205 231 12 201 229 7 203 232 2 201 233 2 203 231 9 204 230 7 203 230 5 207 236 6 207 235 10 200 227 8 200 227 8 203 230 11 197 227 7 191 224 9 207 237 19 213 240 13 207 236 4 206 234 9 207 236 8 210 239 9 212 239 10 209 236 9 202 228 9 201 227 6 202 230 6 198 230 9 200 230 8 205 232 7 206 232 11 206 234 9 203 234 8 200 228 4 199 225 6 207 234 7 211 239 15 205 236 10 204 235 10 197 232 8 196 231 7 203 234 9 199 227 2 200 230 8 206 238 13 200 229 13 196 226 4 205 236 11 206 237 11 205 236 11 208 236 12 206 232 9 198 225 8 195 226 8 196 231 4 188 219 4 194 224 12 191 227 7 189 224 6 191 225 6 194 228 7 192 228 8 192 226 5 191 225 4 195 229 10 193 227 8 196 228 7 198 229 11 195 229 10 191 228 1 198 230 7 195 231 11 193 228 4 200 233 6 193 224 7 176 211 7 173 208 4 186 219 6 191 225 7 186 220 2 185 220 4 192 225 10 201 232 6 
199 227 5 202 230 6 198 229 4 194 226 5 196 227 9 193 224 7 195 232 5 193 229 5 202 236 17 208 240 19 198 234 12 192 226 5 186 219 4 191 225 6 199 231 10 199 231 10 201 234 7 199 232 5 197 228 10 196 233 5 203 236 9 201 233 8 190 225 7 188 223 9 198 229 12 196 228 5 193 229 5 200 235 8 199 234 8 190 225 7 188 225 8 190 225 7 189 222 9 188 218 6 198 230 5 195 226 8 198 225 8 206 232 9 208 236 12 205 236 11 206 237 11 205 236 11 196 226 4 200 229 13 206 238 13 200 230 8 199 227 2 203 234 9 196 231 7 197 232 8 204 235 10 205 236 10 211 239 15 207 234 7 199 225 6 200 228 4 203 234 8 206 234 9 206 232 11 205 232 7 200 230 8 198 230 9 202 230 6 201 227 6 202 228 9 209 236 9 212 239 10 210 239 9 207 236 8 206 234 9 207 236 4 213 240 13 207 237 19 191 224 9 197 227 7 203 230 11 200 227 8 200 227 8 207 235 10 207 236 6 203 230 5 204 230 7 203 231 9 201 233 2 203 232 2 201 229 7 205 231 12 208 234 11 204 231 6 203 229 6 203 227 7 206 232 9 206 233 8 204 231 6 203 231 7 200 228 4 196 224 2 196 224 2 206 233 6 213 241 8 210 239 11 196 225 9 197 227 7 193 220 4 200 228 6 204 233 5 208 235 18 204 232 8 203 230 5 210 236 7 207 233 12 209 238 8 209 237 12 211 237 14 209 234 8 205 234 6 210 237 8 205 230 7 212 236 20 219 244 21 209 236 11 206 233 8 207 235 11 214 239 13 213 238 15 209 234 10 212 241 9 212 240 15 209 237 4 214 239 13 211 238 9 208 237 7 204 231 4 208 234 11 216 241 15 214 241 16 214 240 17 203 229 8 205 229 9 212 239 14 210 237 8 209 235 12 213 237 17 216 242 11 214 239 13 218 243 19 219 244 18 210 240 6 207 232 9 202 229 4 204 231 4 209 234 8 211 238 9 211 239 14 215 239 19 211 236 12 216 242 10 220 246 15 213 241 8 218 245 18 213 239 18 203 230 5 206 232 3 211 238 13 210 236 5 205 229 9 209 234 8 210 235 9 214 240 9 215 241 9 217 240 12 212 235 9 212 236 4 209 232 4 212 237 11 210 237 10 211 237 8 221 244 16 220 242 9 223 246 10 219 246 11 217 246 8 220 246 15 215 241 10 216 244 9 211 240 12 205 232 15 202 228 5 208 235 10 206 231 8 211 234 6 207 234 5 209 234 10 220 244 12 221 245 13 222 246 14 219 244 5 
221 245 9 221 244 8 222 245 9 220 244 10 217 241 9 219 241 10 
223 244 27 218 241 11 209 234 8 205 232 5 207 233 12 218 241 13 220 243 13 220 242 19 218 239 14 212 238 7 214 239 15 217 240 14 215 241 12 209 236 7 210 237 10 215 243 11 215 242 17 215 242 5 221 245 11 213 236 8 210 235 11 211 238 11 215 240 14 221 244 16 219 242 4 212 234 11 204 231 4 207 236 8 213 242 14 213 241 9 215 241 12 219 242 14 218 244 12 211 236 10 206 231 5 211 238 11 218 244 15 217 243 11 211 237 8 207 234 7 204 232 7 210 236 15 217 243 12 219 242 12 211 236 10 208 234 5 203 229 6 205 231 8 205 231 8 212 238 15 211 238 11 206 235 7 204 232 10 210 237 12 214 242 10 213 240 13 211 240 12 212 237 11 210 235 9 214 241 14 216 242 11 211 237 8 207 234 9 208 236 4 209 237 5 213 240 15 214 241 12 210 237 8 207 235 10 200 231 5 202 233 8 213 239 16 212 239 10 208 235 8 206 231 5 211 237 8 211 236 10 210 235 11 208 235 10 206 233 6 210 235 11 209 234 10 204 231 6 204 230 7 199 226 7 203 230 11 198 228 6 198 228 8 208 235 8 212 238 15 214 241 12 208 236 11 201 229 5 205 232 5 199 226 1 206 233 8 208 236 11 199 227 5 195 222 3 207 234 17 213 241 19 205 233 8 208 236 11 205 234 4 197 224 5 187 216 4 195 226 8 207 236 8 211 238 9 205 234 6 199 227 3 201 227 4 201 229 7 210 237 12 208 236 12 200 228 6 197 225 3 200 228 6 197 224 5 189 215 6 192 218 5 198 226 4 198 224 5 197 223 4 197 224 5 194 221 5 201 228 11 196 226 8 193 223 3 204 231 14 210 236 17 213 241 6 210 239 9 210 240 6 212 239 12 216 239 9 209 237 5 202 228 9 203 231 7 207 236 8 198 226 4 195 226 1 197 227 5 205 233 8 211 238 9 205 235 15 201 233 8 201 232 4 206 234 9 206 237 11 204 235 7 201 231 9 201 232 7 202 233 7 202 233 7 199 231 6 195 230 4 197 229 4 195 225 7 192 221 9 196 227 9 205 237 12 200 231 6 208 236 11 206 233 4 198 225 8 194 225 8 193 224 6 193 227 6 188 223 9 192 225 10 196 227 9 191 225 7 192 226 5 198 233 7 189 225 5 188 221 6 195 227 6 196 231 7 197 232 6 199 234 7 199 231 8 193 224 6 191 225 7 195 230 6 195 230 4 196 229 2 198 230 9 197 232 8 189 227 6 185 220 4 188 218 8 186 221 5 186 221 3 190 221 6 193 222 8 201 231 13 
200 230 8 197 228 3 194 229 3 194 231 4 196 227 10 193 222 6 195 230 6 203 236 5 194 225 0 191 217 8 195 225 7 192 223 5 190 221 4 189 219 9 189 224 8 193 228 4 197 228 11 196 228 7 195 230 6 191 227 7 194 229 2 202 235 6 201 236 10 197 235 14 202 237 11 195 227 6 187 221 2 193 232 3 203 238 12 196 228 7 188 221 6 191 226 10 188 223 7 187 220 5 194 225 7 193 224 6 194 225 8 198 225 8 206 233 4 208 236 11 200 231 6 205 237 12 196 227 9 192 221 9 195 225 7 197 229 4 195 230 4 199 231 6 202 233 7 202 233 7 201 232 7 201 231 9 204 235 7 206 237 11 206 234 9 201 232 4 201 233 8 205 235 15 211 238 9 205 233 8 197 227 5 195 226 1 198 226 4 207 236 8 203 231 7 202 228 9 209 237 5 216 239 9 212 239 12 210 240 6 210 239 9 213 241 6 210 236 17 204 231 14 193 223 3 196 226 8 201 228 11 194 221 5 197 224 5 197 223 4 198 224 5 198 226 4 192 218 5 189 215 6 197 224 5 200 228 6 197 225 3 200 228 6 208 236 12 210 237 12 201 229 7 201 227 4 199 227 3 205 234 6 211 238 9 207 236 8 195 226 8 187 216 4 197 224 5 205 234 4 208 236 11 205 233 8 213 241 19 207 234 17 195 222 3 199 227 5 208 236 11 206 233 8 199 226 1 205 232 5 201 229 5 208 236 11 214 241 12 212 238 15 208 235 8 198 228 8 198 228 6 203 230 11 199 226 7 204 230 7 204 231 6 209 234 10 210 235 11 206 233 6 208 235 10 210 235 11 211 236 10 211 237 8 206 231 5 208 235 8 212 239 10 213 239 16 202 233 8 200 231 5 207 235 10 210 237 8 214 241 12 213 240 15 209 237 5 208 236 4 207 234 9 211 237 8 216 242 11 214 241 14 210 235 9 212 237 11 211 240 12 213 240 13 214 242 10 210 237 12 204 232 10 206 235 7 211 238 11 212 238 15 205 231 8 205 231 8 203 229 6 208 234 5 211 236 10 219 242 12 217 243 12 210 236 15 204 232 7 207 234 7 211 237 8 217 243 11 218 244 15 211 238 11 206 231 5 211 236 10 218 244 12 219 242 14 215 241 12 213 241 9 213 242 14 207 236 8 204 231 4 212 234 11 219 242 4 221 244 16 215 240 14 211 238 11 210 235 11 213 236 8 221 245 11 215 242 5 215 242 17 215 243 11 210 237 10 209 236 7 215 241 12 217 240 14 214 239 15 212 238 7 218 239 14 217 242 16 220 241 12 
217 240 12 208 234 13 206 233 8 209 235 6 218 242 10 220 239 9 
218 238 25 205 230 6 207 232 9 211 238 11 216 241 17 224 247 17 222 246 10 214 237 7 211 238 3 210 236 5 211 237 8 212 237 14 210 235 12 213 238 12 220 246 15 219 246 11 215 241 10 213 239 8 214 238 6 212 238 9 214 242 7 212 239 10 217 242 19 214 240 9 208 232 12 209 235 14 209 237 4 213 241 9 216 241 17 215 240 14 222 245 17 224 249 10 221 244 16 212 240 8 215 242 13 221 247 16 216 240 8 210 235 11 209 234 8 208 232 14 203 231 7 215 242 17 218 244 15 213 239 8 208 233 7 201 226 10 208 233 17 210 236 13 205 232 5 209 235 12 208 234 11 205 233 9 208 236 12 216 243 14 212 239 10 204 229 13 209 235 14 212 238 19 215 240 24 217 243 24 210 236 7 205 231 10 197 224 7 212 238 15 217 242 16 216 241 15 211 237 8 212 239 12 207 233 10 206 234 9 209 238 10 215 242 17 212 237 13 215 240 24 215 241 22 207 235 3 203 230 11 205 233 9 201 229 5 200 228 4 205 229 13 198 223 10 195 219 9 197 224 7 202 230 6 205 233 11 199 229 9 201 232 7 207 233 10 210 237 8 209 238 10 205 233 8 209 237 15 203 230 11 202 229 4 210 237 10 205 232 5 199 222 10 205 229 9 216 243 14 206 237 11 200 233 6 207 238 12 204 232 8 200 228 4 204 235 7 210 241 13 211 238 13 210 237 10 203 234 8 200 227 8 208 233 7 215 243 10 215 243 11 203 230 3 200 228 6 192 219 2 197 222 6 194 220 7 191 220 6 206 234 10 208 236 12 200 227 11 195 225 3 196 226 6 200 230 12 201 229 4 199 227 5 204 234 12 206 235 7 208 235 10 209 234 8 209 235 12 206 233 6 205 232 5 207 232 6 206 228 6 206 231 7 205 232 7 198 226 2 195 225 5 200 230 12 201 230 14 204 232 8 208 235 8 197 227 9 196 227 9 202 230 6 203 230 3 194 224 6 190 219 5 201 228 12 203 234 8 201 232 4 199 229 7 194 224 6 189 218 4 192 223 6 202 234 9 204 235 10 203 235 10 204 236 13 206 236 16 207 236 4 205 234 6 201 232 7 196 231 5 196 231 5 199 234 8 203 236 9 206 239 12 202 234 13 194 228 7 200 233 6 203 236 9 194 230 6 191 225 4 194 226 3 197 229 8 193 227 8 197 229 8 196 228 5 195 225 7 189 220 3 193 224 9 193 224 7 193 224 6 192 223 6 193 228 4 192 228 6 188 224 4 189 222 7 180 216 6 187 221 2 192 222 2 190 219 3 
199 229 9 208 239 13 201 232 7 199 232 3 194 228 7 192 223 8 186 219 8 187 220 9 196 230 9 202 232 10 192 221 5 188 219 1 192 223 6 194 231 4 190 226 4 192 226 5 193 224 6 193 227 8 191 225 6 190 221 4 192 223 6 196 228 5 196 229 2 196 231 7 200 236 12 200 235 8 195 227 6 189 224 6 197 233 11 205 238 11 199 231 6 194 228 9 202 236 15 207 240 13 204 237 8 196 233 6 196 231 5 196 231 5 201 232 7 205 234 6 207 236 4 206 236 16 204 236 13 203 235 10 204 235 10 202 234 9 192 223 6 189 218 4 194 224 6 199 229 7 201 232 4 203 234 8 201 228 12 190 219 5 194 224 6 203 230 3 202 230 6 196 227 9 197 227 9 208 235 8 204 232 8 201 230 14 200 230 12 195 225 5 198 226 2 205 232 7 206 231 7 206 228 6 207 232 6 205 232 5 206 233 6 209 235 12 209 234 8 208 235 10 206 235 7 204 234 12 199 227 5 201 229 4 200 230 12 196 226 6 195 225 3 200 227 11 208 236 12 206 234 10 191 220 6 194 220 7 197 222 6 192 219 2 200 228 6 203 230 3 215 243 11 215 243 10 208 233 7 200 227 8 203 234 8 210 237 10 211 238 13 210 241 13 204 235 7 200 228 4 204 232 8 207 238 12 200 233 6 206 237 11 216 243 14 205 229 9 199 222 10 205 232 5 210 237 10 202 229 4 203 230 11 209 237 15 205 233 8 209 238 10 210 237 8 207 233 10 201 232 7 199 229 9 205 233 11 202 230 6 197 224 7 195 219 9 198 223 10 205 229 13 200 228 4 201 229 5 205 233 9 203 230 11 207 235 3 215 241 22 215 240 24 212 237 13 215 242 17 209 238 10 206 234 9 207 233 10 212 239 12 211 237 8 216 241 15 217 242 16 212 238 15 197 224 7 205 231 10 210 236 7 217 243 24 215 240 24 212 238 19 209 235 14 204 229 13 212 239 10 216 243 14 208 236 12 205 233 9 208 234 11 209 235 12 205 232 5 210 236 13 208 233 17 201 226 10 208 233 7 213 239 8 218 244 15 215 242 17 203 231 7 208 232 14 209 234 8 210 235 11 216 240 8 221 247 16 215 242 13 212 240 8 221 244 16 224 249 10 222 245 17 215 240 14 216 241 17 213 241 9 209 237 4 209 235 14 208 232 12 214 240 9 217 242 19 212 239 10 214 242 7 212 238 9 214 238 6 213 239 8 215 241 10 219 246 11 220 246 15 213 238 12 210 235 12 212 237 14 211 237 8 210 236 5 211 238 3 
215 238 10 223 246 10 222 248 16 216 243 18 211 238 9 205 232 7 207 229 7 216 233 7 
212 234 29 205 232 5 213 240 13 215 241 10 213 239 8 212 237 11 213 238 15 209 234 11 208 235 8 213 239 10 212 238 6 210 237 12 215 243 11 216 243 8 216 242 10 216 243 18 216 240 8 212 235 7 216 240 22 220 246 25 214 243 3 216 244 9 215 243 11 212 238 9 216 242 19 218 245 16 215 242 5 215 241 12 222 245 19 221 245 11 220 243 13 215 237 15 209 233 13 209 235 6 211 235 17 214 241 16 215 240 14 217 242 19 217 243 14 212 238 7 209 237 13 216 242 21 214 240 9 210 235 9 207 232 8 204 230 7 208 235 10 209 235 12 210 237 10 214 240 19 212 239 12 209 239 3 212 241 9 211 238 13 204 231 6 205 232 7 208 235 8 209 236 11 204 232 8 205 231 8 214 240 11 209 235 14 208 237 9 212 239 12 217 243 14 216 244 11 209 236 9 211 237 16 206 234 12 209 238 10 207 236 4 206 234 10 211 236 10 214 241 14 205 233 9 194 224 6 191 220 4 197 226 10 201 228 9 201 230 2 198 225 6 203 231 9 206 234 10 207 236 8 216 243 14 212 239 10 212 237 11 214 239 13 216 242 13 215 243 11 207 236 8 207 234 9 207 234 7 203 231 6 204 232 7 213 241 9 206 237 12 207 234 5 211 236 10 205 230 6 201 229 5 206 234 10 213 240 13 208 233 9 203 228 5 205 230 7 205 230 6 205 230 6 205 234 6 201 232 4 200 228 3 205 232 3 213 239 7 202 226 10 200 224 8 201 226 10 196 223 6 203 229 6 199 227 3 195 225 7 208 236 11 207 236 8 204 233 5 204 232 7 209 237 15 206 236 14 207 236 8 207 236 8 208 236 11 209 238 10 211 238 9 209 235 6 211 237 8 214 241 14 207 234 15 201 229 5 203 229 10 203 231 6 195 222 6 195 221 10 197 227 7 199 230 5 194 220 7 201 227 8 205 234 6 196 226 6 194 224 6 196 223 7 192 219 3 189 218 6 192 221 7 194 223 9 197 227 7 198 230 5 199 230 2 204 231 6 202 230 8 198 230 9 197 229 8 200 230 8 206 234 9 207 238 10 207 238 12 204 232 7 203 234 8 197 227 7 194 226 5 197 229 4 196 227 9 195 224 8 194 225 10 194 225 8 196 226 6 196 226 6 199 230 12 195 226 9 198 230 9 199 231 8 195 226 8 191 222 7 193 224 7 194 224 4 196 226 8 191 222 7 186 214 5 192 221 5 192 221 5 189 220 5 197 229 6 200 232 9 190 224 5 179 212 7 179 212 7 189 222 11 192 225 14 197 229 6 198 226 2 
199 226 9 197 227 5 193 224 6 202 231 15 194 225 8 183 215 10 180 212 7 192 223 8 206 236 14 203 234 9 192 223 5 186 217 2 190 225 7 191 227 7 194 226 3 188 219 4 188 223 5 189 224 8 185 215 7 184 217 2 188 224 4 190 224 3 194 228 10 199 233 12 202 234 9 203 233 13 193 226 13 193 227 9 203 235 10 197 229 6 195 227 6 193 224 7 194 224 14 194 225 8 194 229 5 197 229 4 194 226 5 197 227 7 203 234 8 204 232 7 207 238 12 207 238 10 206 234 9 200 230 8 197 229 8 198 230 9 202 230 8 204 231 6 199 230 2 198 230 5 197 227 7 194 223 9 192 221 7 189 218 6 192 219 3 196 223 7 194 224 6 196 226 6 205 234 6 201 227 8 194 220 7 199 230 5 197 227 7 195 221 10 195 222 6 203 231 6 203 229 10 201 229 5 207 234 15 214 241 14 211 237 8 209 235 6 211 238 9 209 238 10 208 236 11 207 236 8 207 236 8 206 236 14 209 237 15 204 232 7 204 233 5 207 236 8 208 236 11 195 225 7 199 227 3 203 229 6 196 223 6 201 226 10 200 224 8 202 226 10 213 239 7 205 232 3 200 228 3 201 232 4 205 234 6 205 230 6 205 230 6 205 230 7 203 228 5 208 233 9 213 240 13 206 234 10 201 229 5 205 230 6 211 236 10 207 234 5 206 237 12 213 241 9 204 232 7 203 231 6 207 234 7 207 234 9 207 236 8 215 243 11 216 242 13 214 239 13 212 237 11 212 239 10 216 243 14 207 236 8 206 234 10 203 231 9 198 225 6 201 230 2 201 228 9 197 226 10 191 220 4 194 224 6 205 233 9 214 241 14 211 236 10 206 234 10 207 236 4 209 238 10 206 234 12 211 237 16 209 236 9 216 244 11 217 243 14 212 239 12 208 237 9 209 235 14 214 240 11 205 231 8 204 232 8 209 236 11 208 235 8 205 232 7 204 231 6 211 238 13 212 241 9 209 239 3 212 239 12 214 240 19 210 237 10 209 235 12 208 235 10 204 230 7 207 232 8 210 235 9 214 240 9 216 242 21 209 237 13 212 238 7 217 243 14 217 242 19 215 240 14 214 241 16 211 235 17 209 235 6 209 233 13 215 237 15 220 243 13 221 245 11 222 245 19 215 241 12 215 242 5 218 245 16 216 242 19 212 238 9 215 243 11 216 244 9 214 243 3 220 246 25 216 240 22 212 235 7 216 240 8 216 243 18 216 242 10 216 243 8 215 243 11 210 237 12 212 238 6 213 239 10 208 235 8 207 233 10 
213 238 14 212 238 9 215 238 8 217 240 12 214 241 14 205 232 7 209 229 8 
218 243 28 213 242 12 211 240 10 209 234 8 217 240 12 213 238 12 209 236 7 215 240 14 214 240 11 214 237 7 211 236 12 211 237 18 211 238 9 205 231 8 203 230 5 211 237 16 213 235 13 206 231 7 207 233 10 213 240 13 213 240 13 211 236 10 209 233 13 209 236 9 215 242 5 216 242 13 216 242 11 217 240 10 212 235 7 203 228 4 203 229 10 211 237 16 214 239 13 205 230 7 204 228 8 210 237 10 211 237 16 210 232 10 205 227 4 201 225 5 202 228 9 206 232 9 210 236 4 212 237 14 211 236 12 208 235 10 209 236 7 211 238 9 211 237 16 211 237 18 214 241 16 215 243 11 211 238 11 209 236 11 208 235 10 208 237 9 208 235 8 200 228 4 205 235 17 217 245 21 216 243 8 208 236 12 204 231 14 212 237 13 219 246 11 213 241 6 209 239 5 210 239 7 210 237 12 211 239 14 209 238 8 208 237 7 212 238 9 212 240 8 207 235 10 202 233 8 197 227 7 204 235 9 206 234 12 208 236 14 211 238 11 208 236 3 207 234 5 207 233 10 207 234 7 214 239 13 215 240 14 215 241 12 211 237 8 204 231 6 201 227 6 204 231 6 208 235 8 200 227 8 197 224 5 200 228 3 198 231 4 201 232 6 204 232 8 206 233 6 208 234 11 214 239 16 213 239 7 207 232 8 198 224 5 199 222 8 198 224 3 200 228 4 195 225 5 197 225 3 199 225 6 195 221 8 203 230 5 202 226 8 202 228 7 194 219 3 194 220 7 203 229 8 205 234 6 199 230 5 200 228 6 202 230 6 205 231 10 205 232 7 212 241 13 205 233 9 206 235 7 209 238 8 205 231 10 204 232 7 206 233 14 199 225 6 202 226 6 205 231 8 198 225 6 189 218 4 190 219 5 194 224 6 195 225 7 199 225 12 196 222 11 191 220 4 189 218 4 194 223 7 197 226 10 201 229 7 201 232 7 198 229 11 200 232 11 204 232 10 202 230 6 203 235 10 205 236 8 207 239 16 203 234 9 206 235 7 209 238 10 197 229 6 195 226 9 201 231 9 203 229 6 205 234 6 201 231 9 195 224 10 199 230 5 196 228 5 196 226 8 194 220 7 187 215 6 182 212 4 182 214 6 189 218 6 195 221 8 194 225 7 190 223 8 191 219 13 194 225 7 198 228 6 195 225 3 196 226 6 195 225 5 191 221 3 195 224 8 200 231 14 200 230 8 195 222 6 192 221 5 185 215 5 193 223 3 200 228 4 192 221 9 183 215 8 179 213 4 182 214 6 190 219 13 195 226 11 197 224 5 
194 223 7 193 224 6 197 224 5 203 229 10 203 234 8 188 221 6 179 210 8 187 217 5 196 225 9 197 226 10 196 228 5 187 217 5 191 221 3 196 226 6 190 220 8 191 225 6 193 227 6 195 231 9 189 225 5 182 214 6 183 214 12 186 214 5 189 220 3 192 226 5 193 227 6 198 230 5 194 228 10 186 215 9 189 222 7 196 227 12 191 219 10 184 213 7 177 210 5 181 213 6 187 215 9 194 220 7 196 226 8 196 228 5 199 230 5 195 224 10 201 231 9 205 234 6 203 229 6 201 231 9 195 226 9 197 229 6 209 238 10 206 235 7 203 234 9 207 239 16 205 236 8 203 235 10 202 230 6 204 232 10 200 232 11 198 229 11 201 232 7 201 229 7 197 226 10 194 223 7 189 218 4 191 220 4 196 222 11 199 225 12 195 225 7 194 224 6 190 219 5 189 218 4 198 225 6 205 231 8 202 226 6 199 225 6 206 233 14 204 232 7 205 231 10 209 238 8 206 235 7 205 233 9 212 241 13 205 232 7 205 231 10 202 230 6 200 228 6 199 230 5 205 234 6 203 229 8 194 220 7 194 219 3 202 228 7 202 226 8 203 230 5 195 221 8 199 225 6 197 225 3 195 225 5 200 228 4 198 224 3 199 222 8 198 224 5 207 232 8 213 239 7 214 239 16 208 234 11 206 233 6 204 232 8 201 232 6 198 231 4 200 228 3 197 224 5 200 227 8 208 235 8 204 231 6 201 227 6 204 231 6 211 237 8 215 241 12 215 240 14 214 239 13 207 234 7 207 233 10 207 234 5 208 236 3 211 238 11 208 236 14 206 234 12 204 235 9 197 227 7 202 233 8 207 235 10 212 240 8 212 238 9 208 237 7 209 238 8 211 239 14 210 237 12 210 239 7 209 239 5 213 241 6 219 246 11 212 237 13 204 231 14 208 236 12 216 243 8 217 245 21 205 235 17 200 228 4 208 235 8 208 237 9 208 235 10 209 236 11 211 238 11 215 243 11 214 241 16 211 237 18 211 237 16 211 238 9 209 236 7 208 235 10 211 236 12 212 237 14 210 236 4 206 232 9 202 228 9 201 225 5 205 227 4 210 232 10 211 237 16 210 237 10 204 228 8 205 230 7 214 239 13 211 237 16 203 229 10 203 228 4 212 235 7 217 240 10 216 242 11 216 242 13 215 242 5 209 236 9 209 233 13 211 236 10 213 240 13 213 240 13 207 233 10 206 231 7 213 235 13 211 237 16 203 230 5 205 231 8 211 238 9 211 237 18 211 236 12 214 237 7 214 240 11 214 240 11 210 236 7 
213 238 14 215 240 14 209 234 10 211 240 10 213 242 12 216 237 10 
216 238 29 210 238 6 212 239 12 216 241 17 221 245 11 216 242 11 213 238 12 216 241 17 217 240 14 214 240 11 214 240 11 212 237 14 208 234 5 205 231 10 208 235 10 210 236 7 212 235 9 210 235 9 210 237 8 213 241 8 215 242 13 212 238 9 209 234 10 208 234 5 212 235 9 212 237 13 208 233 9 201 225 7 194 219 4 196 221 6 202 228 9 209 238 10 210 235 12 205 231 10 204 232 8 204 230 7 206 231 5 203 227 7 198 222 4 203 227 9 204 230 7 202 228 5 206 232 9 206 231 8 211 236 10 206 231 15 202 228 5 209 235 12 207 235 11 212 238 15 213 240 13 212 239 12 210 237 12 208 235 10 209 236 7 210 239 7 210 239 9 205 236 10 202 232 12 203 231 7 207 232 8 207 235 11 218 245 28 219 243 23 211 234 6 206 231 8 207 234 7 206 231 7 203 227 7 204 229 5 205 232 7 204 229 13 203 229 10 201 228 11 203 230 11 206 235 7 208 236 11 211 240 8 212 239 12 218 244 21 212 239 12 209 235 12 207 234 9 204 231 6 208 232 12 211 236 12 214 240 11 202 228 5 200 226 7 201 227 4 204 232 0 202 228 7 201 226 11 207 233 12 202 229 12 190 219 3 201 228 11 209 237 13 208 236 11 205 232 3 208 236 4 203 229 6 200 227 10 193 220 3 187 218 3 191 222 7 192 224 3 191 225 4 197 227 5 205 231 8 202 228 9 193 223 3 204 232 7 210 237 10 195 222 5 192 218 7 204 231 12 212 239 12 206 233 8 191 217 4 200 225 9 201 228 3 199 227 5 198 228 6 201 231 9 197 225 3 201 227 4 211 237 14 211 236 10 203 231 6 195 225 3 195 222 6 194 218 8 202 229 10 191 217 6 182 209 6 198 223 10 201 228 11 197 224 8 198 225 6 200 231 6 199 231 6 193 227 8 193 227 6 200 230 10 212 240 16 214 243 15 204 235 9 199 230 5 200 227 8 201 229 5 205 236 11 209 241 10 205 236 11 195 224 8 197 227 9 201 233 12 194 224 6 201 231 9 199 230 5 197 227 5 204 234 12 210 240 18 202 232 10 197 228 11 197 232 6 194 226 5 190 220 10 182 211 5 180 212 5 187 220 9 188 218 6 194 223 7 194 228 9 188 224 4 192 221 5 198 228 10 199 226 7 197 227 7 198 228 6 195 225 3 192 222 4 190 221 4 194 228 9 198 230 7 197 227 5 194 225 10 184 213 7 187 216 2 199 226 7 197 227 7 187 217 5 182 217 3 183 216 5 181 213 5 194 225 7 196 223 4 
189 218 4 201 233 10 210 239 9 206 233 6 205 235 13 200 236 6 190 221 3 189 217 8 190 219 7 179 208 4 184 214 4 195 226 11 207 231 21 204 230 7 197 229 4 190 224 5 202 233 16 196 228 7 185 220 4 189 222 9 185 217 9 188 219 4 193 223 5 194 228 7 194 230 6 198 230 5 196 227 10 189 219 7 191 225 7 197 231 12 190 219 5 187 217 7 186 220 9 179 211 6 183 211 5 190 220 10 194 226 5 197 232 6 197 228 11 202 232 10 210 240 18 204 234 12 197 227 5 199 230 5 201 231 9 194 224 6 201 233 12 197 227 9 195 224 8 205 236 11 209 241 10 205 236 11 201 229 5 200 227 8 199 230 5 204 235 9 214 243 15 212 240 16 200 230 10 193 227 6 193 227 8 199 231 6 200 231 6 198 225 6 197 224 8 201 228 11 198 223 10 182 209 6 191 217 6 202 229 10 194 218 8 195 222 6 195 225 3 203 231 6 211 236 10 211 237 14 201 227 4 197 225 3 201 231 9 198 228 6 199 227 5 201 228 3 200 225 9 191 217 4 206 233 8 212 239 12 204 231 12 192 218 7 195 222 5 210 237 10 204 232 7 193 223 3 202 228 9 205 231 8 197 227 5 191 225 4 192 224 3 191 222 7 187 218 3 193 220 3 200 227 10 203 229 6 208 236 4 205 232 3 208 236 11 209 237 13 201 228 11 190 219 3 202 229 12 207 233 12 201 226 11 202 228 7 204 232 0 201 227 4 200 226 7 202 228 5 214 240 11 211 236 12 208 232 12 204 231 6 207 234 9 209 235 12 212 239 12 218 244 21 212 239 12 211 240 8 208 236 11 206 235 7 203 230 11 201 228 11 203 229 10 204 229 13 205 232 7 204 229 5 203 227 7 206 231 7 207 234 7 206 231 8 211 234 6 219 243 23 218 245 28 207 235 11 207 232 8 203 231 7 202 232 12 205 236 10 210 239 9 210 239 7 209 236 7 208 235 10 210 237 12 212 239 12 213 240 13 212 238 15 207 235 11 209 235 12 202 228 5 206 231 15 211 236 10 206 231 8 206 232 9 202 228 5 204 230 7 203 227 9 198 222 4 203 227 7 206 231 5 204 230 7 204 232 8 205 231 10 210 235 12 209 238 10 202 228 9 196 221 6 194 219 4 201 225 7 208 233 9 212 237 13 212 235 9 208 234 5 209 234 10 212 238 9 215 242 13 213 241 8 210 237 8 210 235 9 212 235 9 210 236 7 208 235 10 205 231 10 208 234 5 212 237 14 214 240 11 214 240 11 217 240 14 216 241 17 213 238 14 
216 242 11 219 246 11 215 240 16 211 240 8 210 238 6 213 233 12 
220 239 33 215 241 10 215 241 10 213 238 12 213 236 10 212 234 11 213 235 12 215 236 19 213 239 8 215 242 13 211 239 6 211 236 12 208 233 10 205 229 9 211 236 13 216 238 15 206 231 8 206 233 6 212 239 10 209 236 7 207 232 6 214 239 16 216 242 11 213 238 12 212 238 9 212 238 9 205 232 7 206 232 9 207 233 10 206 232 9 206 233 8 209 236 7 210 237 8 206 233 8 204 233 5 212 239 10 220 246 15 219 244 18 216 242 13 214 240 8 213 239 10 213 239 18 210 236 15 209 236 11 215 241 12 210 234 16 203 229 8 209 235 14 208 237 9 209 236 9 212 239 12 215 242 17 213 240 15 210 237 8 209 236 9 206 234 12 201 231 9 205 235 13 202 233 8 209 236 17 220 242 35 215 242 13 211 241 7 211 237 8 202 228 9 201 226 10 201 227 6 201 225 7 198 222 6 201 227 8 207 233 14 208 234 13 203 231 7 207 235 10 209 237 13 207 233 10 214 241 12 210 237 10 210 237 12 213 240 11 211 238 19 207 235 11 206 234 9 208 236 11 214 241 14 213 240 11 205 232 5 202 228 5 204 230 9 206 232 9 208 235 8 206 235 5 207 235 11 204 230 9 200 226 3 198 228 10 205 233 11 209 238 10 209 235 12 204 229 13 201 228 9 198 228 10 199 229 11 203 234 9 199 227 3 191 222 4 196 227 9 201 232 7 205 232 5 204 232 10 198 227 11 200 232 7 205 236 10 197 225 1 196 223 7 203 231 9 209 238 10 207 233 10 192 217 2 185 210 5 194 220 9 189 214 8 190 216 3 202 229 10 203 233 11 202 230 6 203 231 7 213 241 17 210 235 9 198 226 4 191 220 6 196 227 2 203 230 11 204 232 10 200 228 4 210 238 13 217 243 14 205 232 7 201 228 9 207 235 11 198 229 4 199 231 8 203 234 9 204 232 8 210 237 10 217 245 21 210 238 13 202 228 5 202 228 9 200 227 10 202 230 5 210 237 12 204 234 12 195 225 5 191 220 4 196 227 9 194 225 7 194 224 4 201 231 9 200 230 8 195 227 6 202 233 7 206 234 12 204 230 11 205 233 8 200 232 7 186 219 6 191 224 9 189 222 7 189 223 2 191 225 7 187 220 7 194 225 8 191 223 2 191 222 4 193 224 6 197 227 5 200 227 8 197 227 9 196 226 6 197 229 6 195 226 8 195 226 9 192 226 5 193 227 9 194 228 7 189 223 5 187 220 5 188 222 4 187 217 5 192 223 5 191 222 4 186 219 8 179 212 7 177 210 5 193 225 2 
196 226 6 194 223 11 194 226 3 201 232 7 200 228 6 196 226 6 194 225 7 196 230 11 196 228 3 192 223 6 184 212 13 175 206 6 191 225 7 202 233 8 198 226 4 191 222 5 189 219 7 202 232 12 200 231 6 190 224 6 190 223 10 181 217 3 179 213 4 186 216 6 197 228 11 202 234 13 203 233 11 203 233 11 196 228 3 197 229 4 194 229 5 193 226 11 188 222 4 196 228 3 192 223 5 189 223 5 191 224 9 186 219 6 200 232 7 205 233 8 204 230 11 206 234 12 202 233 7 195 227 6 200 230 8 201 231 9 194 224 4 194 225 7 196 227 9 191 220 4 195 225 5 204 234 12 210 237 12 202 230 5 200 227 10 202 228 9 202 228 5 210 238 13 217 245 21 210 237 10 204 232 8 203 234 9 199 231 8 198 229 4 207 235 11 201 228 9 205 232 7 217 243 14 210 238 13 200 228 4 204 232 10 203 230 11 196 227 2 191 220 6 198 226 4 210 235 9 213 241 17 203 231 7 202 230 6 203 233 11 202 229 10 190 216 3 189 214 8 194 220 9 185 210 5 192 217 2 207 233 10 209 238 10 203 231 9 196 223 7 197 225 1 205 236 10 200 232 7 198 227 11 204 232 10 205 232 5 201 232 7 196 227 9 191 222 4 199 227 3 203 234 9 199 229 11 198 228 10 201 228 9 204 229 13 209 235 12 209 238 10 205 233 11 198 228 10 200 226 3 204 230 9 207 235 11 206 235 5 208 235 8 206 232 9 204 230 9 202 228 5 205 232 5 213 240 11 214 241 14 208 236 11 206 234 9 207 235 11 211 238 19 213 240 11 210 237 12 210 237 10 214 241 12 207 233 10 209 237 13 207 235 10 203 231 7 208 234 13 207 233 14 201 227 8 198 222 6 201 225 7 201 227 6 201 226 10 202 228 9 211 237 8 211 241 7 215 242 13 220 242 35 209 236 17 202 233 8 205 235 13 201 231 9 206 234 12 209 236 9 210 237 8 213 240 15 215 242 17 212 239 12 209 236 9 208 237 9 209 235 14 203 229 8 210 234 16 215 241 12 209 236 11 210 236 15 213 239 18 213 239 10 214 240 8 216 242 13 219 244 18 220 246 15 212 239 10 204 233 5 206 233 8 210 237 8 209 236 7 206 233 8 206 232 9 207 233 10 206 232 9 205 232 7 212 238 9 212 238 9 213 238 12 216 242 11 214 239 16 207 232 6 209 236 7 212 239 10 206 233 6 206 231 8 216 238 15 211 236 13 205 229 9 208 233 10 211 236 12 211 239 6 215 242 13 213 239 8 
212 236 20 213 235 12 212 235 9 213 235 12 215 238 12 214 242 10 214 241 12 215 235 13 
224 243 39 217 240 10 209 235 6 206 233 6 207 232 8 215 237 14 219 241 18 215 238 10 210 238 6 214 241 14 210 237 10 209 234 8 208 233 7 208 233 7 211 236 12 213 239 10 210 235 12 211 236 10 216 243 6 213 239 8 213 239 10 213 239 10 214 239 15 208 234 13 206 233 6 208 235 8 207 234 9 213 240 15 213 240 11 207 234 7 203 229 6 208 234 13 212 241 11 211 239 7 206 232 9 214 241 12 220 247 18 213 234 15 204 228 12 200 226 5 207 233 10 214 241 14 208 235 8 211 238 13 209 236 7 206 231 7 206 232 9 210 237 8 211 240 10 213 240 11 216 243 14 214 241 12 206 233 8 205 231 10 208 236 14 210 239 11 205 236 10 210 239 9 210 239 11 214 242 17 218 243 20 214 241 12 204 233 5 204 230 7 205 235 13 200 227 11 202 228 15 209 235 16 204 230 7 198 225 8 199 226 10 201 229 4 197 224 8 197 224 5 202 229 13 203 231 9 211 237 16 205 232 7 203 229 8 207 233 10 204 230 7 204 230 9 202 228 7 204 230 9 205 233 9 203 232 4 208 237 9 206 234 12 207 233 14 204 229 13 200 227 2 207 233 10 206 232 9 206 233 8 199 224 8 198 225 6 200 230 10 204 231 12 206 231 16 203 229 8 211 238 13 210 238 14 205 233 9 207 233 10 201 226 3 193 219 10 194 223 9 204 229 6 210 235 11 200 227 10 188 217 5 197 227 9 193 219 6 184 209 3 191 217 6 204 232 10 205 233 9 198 224 5 196 221 6 195 218 13 188 217 3 199 227 5 206 234 9 209 236 7 206 233 8 205 233 8 207 236 4 206 235 5 205 231 10 196 223 7 194 223 7 201 229 7 200 228 3 204 233 5 207 236 8 210 237 8 208 235 8 203 232 4 199 226 9 198 228 8 201 231 9 197 225 3 201 227 6 209 235 6 216 242 11 213 241 9 208 235 10 201 225 7 200 227 2 202 233 8 203 233 11 205 231 10 197 228 3 193 222 6 197 227 7 206 237 12 202 233 7 206 236 14 204 234 16 206 234 9 195 224 8 196 226 8 207 234 7 207 233 12 199 227 5 192 221 5 191 222 7 192 223 5 191 225 6 193 227 8 187 218 3 190 224 6 193 228 2 200 230 8 201 231 13 197 229 6 201 232 7 204 234 12 195 225 5 192 224 3 197 229 6 195 225 5 194 225 7 195 227 6 186 219 4 191 224 9 191 226 2 187 220 7 188 221 6 187 220 5 188 221 8 195 227 6 190 224 6 184 218 7 182 215 4 185 215 7 186 216 6 
185 218 5 184 214 4 193 219 8 196 227 9 195 226 8 194 224 14 197 228 13 198 230 5 196 228 7 183 216 5 177 212 6 187 220 7 197 229 8 189 217 8 185 215 5 189 223 5 193 224 6 194 225 7 195 226 9 197 229 6 183 218 2 182 214 9 192 223 8 194 226 3 198 230 9 203 235 14 204 237 8 206 237 11 208 239 13 198 230 5 190 226 4 190 224 6 187 218 3 193 224 9 191 227 5 192 223 5 191 222 7 192 221 5 199 227 5 207 233 12 207 234 7 196 226 8 195 224 8 206 234 9 204 234 16 206 236 14 202 233 7 206 237 12 197 227 7 193 222 6 197 228 3 205 231 10 203 233 11 202 233 8 200 227 2 201 225 7 208 235 10 213 241 9 216 242 11 209 235 6 201 227 6 197 225 3 201 231 9 198 228 8 199 226 9 203 232 4 208 235 8 210 237 8 207 236 8 204 233 5 200 228 3 201 229 7 194 223 7 196 223 7 205 231 10 206 235 5 207 236 4 205 233 8 206 233 8 209 236 7 206 234 9 199 227 5 188 217 3 195 218 13 196 221 6 198 224 5 205 233 9 204 232 10 191 217 6 184 209 3 193 219 6 197 227 9 188 217 5 200 227 10 210 235 11 204 229 6 194 223 9 193 219 10 201 226 3 207 233 10 205 233 9 210 238 14 211 238 13 203 229 8 206 231 16 204 231 12 200 230 10 198 225 6 199 224 8 206 233 8 206 232 9 207 233 10 200 227 2 204 229 13 207 233 14 206 234 12 208 237 9 203 232 4 205 233 9 204 230 9 202 228 7 204 230 9 204 230 7 207 233 10 203 229 8 205 232 7 211 237 16 203 231 9 202 229 13 197 224 5 197 224 8 201 229 4 199 226 10 198 225 8 204 230 7 209 235 16 202 228 15 200 227 11 205 235 13 204 230 7 204 233 5 214 241 12 218 243 20 214 242 17 210 239 11 210 239 9 205 236 10 210 239 11 208 236 14 205 231 10 206 233 8 214 241 12 216 243 14 213 240 11 211 240 10 210 237 8 206 232 9 206 231 7 209 236 7 211 238 13 208 235 8 214 241 14 207 233 10 200 226 5 204 228 12 213 234 15 220 247 18 214 241 12 206 232 9 211 239 7 212 241 11 208 234 13 203 229 6 207 234 7 213 240 11 213 240 15 207 234 9 208 235 8 206 233 6 208 234 13 214 239 15 213 239 10 213 239 10 213 239 8 216 243 6 211 236 10 210 235 12 213 239 10 211 236 12 208 233 7 208 233 7 209 234 8 210 237 10 214 241 14 210 238 6 216 239 11 221 242 17 
213 238 14 206 232 9 206 233 8 208 235 6 214 240 11 221 239 17 
218 240 33 208 233 10 201 227 8 207 235 11 216 244 22 218 243 17 218 241 15 210 236 7 206 233 8 209 235 4 209 234 10 202 228 9 201 227 6 206 231 7 204 231 6 206 235 7 211 236 13 213 239 10 216 242 13 217 243 11 213 239 8 209 236 9 207 234 9 206 233 6 206 232 9 210 237 12 212 238 15 211 237 14 210 236 7 213 241 9 212 239 10 209 238 8 207 234 5 202 230 8 204 230 9 211 236 10 213 236 6 205 230 7 205 230 6 210 234 16 215 241 20 207 234 5 209 237 12 210 237 10 210 237 10 214 241 16 211 238 9 210 237 10 212 240 15 213 240 15 206 232 11 195 220 7 193 217 7 198 223 8 199 226 7 199 230 5 203 230 11 207 234 5 212 239 10 217 244 17 212 237 13 207 233 10 199 227 2 205 236 11 207 237 15 200 228 6 210 237 12 215 241 9 206 233 6 200 228 3 204 233 5 206 232 13 199 227 5 203 231 7 204 232 7 204 236 5 204 232 7 199 226 9 206 231 16 204 230 7 207 234 7 203 230 13 192 218 7 202 227 11 204 231 4 208 235 10 209 234 18 204 230 11 199 224 9 196 222 9 203 231 7 208 234 15 205 231 12 197 225 1 196 222 9 203 230 5 205 233 11 206 233 16 205 233 8 211 238 9 213 241 9 210 235 9 210 235 19 200 227 8 188 218 6 187 218 3 198 228 6 207 234 9 207 233 10 203 230 11 197 226 10 194 224 6 202 230 6 207 234 9 208 235 6 201 229 5 203 229 10 205 232 5 203 230 5 200 225 9 203 230 5 208 235 10 203 230 5 205 231 8 206 233 8 206 233 8 208 234 11 208 233 7 205 234 6 201 229 7 196 223 7 192 216 8 203 229 8 209 237 12 210 237 10 204 231 6 203 230 5 199 227 2 199 226 7 204 232 7 206 234 9 200 231 5 205 234 6 214 241 16 214 240 17 203 229 8 195 220 5 200 225 10 204 232 7 199 230 5 197 227 7 197 224 7 198 229 4 197 230 3 201 232 6 205 234 6 209 238 10 208 239 11 203 236 9 199 227 5 194 224 4 198 228 6 200 230 10 192 222 4 191 222 5 188 222 4 185 214 8 181 209 3 184 213 7 189 222 7 189 223 4 193 224 6 189 223 5 196 226 8 200 227 11 192 221 7 191 220 4 198 228 10 195 225 7 191 222 5 192 223 8 190 219 7 185 213 4 191 220 6 188 221 6 188 221 6 185 218 5 187 217 5 187 221 3 187 222 8 190 224 5 197 228 3 196 228 3 191 229 6 193 229 7 194 225 8 185 215 7 180 212 4 
189 219 9 181 209 3 183 216 5 196 225 9 196 226 4 196 228 7 200 232 9 200 232 7 187 220 7 180 216 6 193 228 4 206 237 11 200 230 10 189 223 4 191 226 8 185 217 9 188 221 8 188 222 14 184 218 9 178 212 4 178 209 9 194 223 11 196 228 7 196 231 4 202 232 10 203 228 12 200 226 13 205 232 13 196 226 8 190 221 4 194 228 9 188 222 4 189 222 7 181 213 6 181 209 3 185 214 8 188 222 4 191 222 5 192 222 4 200 230 10 198 228 6 194 224 4 199 227 5 203 236 9 208 239 11 209 238 10 205 234 6 201 232 6 197 230 3 198 229 4 197 224 7 197 227 7 199 230 5 204 232 7 200 225 10 195 220 5 203 229 8 214 240 17 214 241 16 205 234 6 200 231 5 206 234 9 204 232 7 199 226 7 199 227 2 203 230 5 204 231 6 210 237 10 209 237 12 203 229 8 192 216 8 196 223 7 201 229 7 205 234 6 208 233 7 208 234 11 206 233 8 206 233 8 205 231 8 203 230 5 208 235 10 203 230 5 200 225 9 203 230 5 205 232 5 203 229 10 201 229 5 208 235 6 207 234 9 202 230 6 194 224 6 197 226 10 203 230 11 207 233 10 207 234 9 198 228 6 187 218 3 188 218 6 200 227 8 210 235 19 210 235 9 213 241 9 211 238 9 205 233 8 206 233 16 205 233 11 203 230 5 196 222 9 197 225 1 205 231 12 208 234 15 203 231 7 196 222 9 199 224 9 204 230 11 209 234 18 208 235 10 204 231 4 202 227 11 192 218 7 203 230 13 207 234 7 204 230 7 206 231 16 199 226 9 204 232 7 204 236 5 204 232 7 203 231 7 199 227 5 206 232 13 204 233 5 200 228 3 206 233 6 215 241 9 210 237 12 200 228 6 207 237 15 205 236 11 199 227 2 207 233 10 212 237 13 217 244 17 212 239 10 207 234 5 203 230 11 199 230 5 199 226 7 198 223 8 193 217 7 195 220 7 206 232 11 213 240 15 212 240 15 210 237 10 211 238 9 214 241 16 210 237 10 210 237 10 209 237 12 207 234 5 215 241 20 210 234 16 205 230 6 205 230 7 213 236 6 211 236 10 204 230 9 202 230 8 207 234 5 209 238 8 212 239 10 213 241 9 210 236 7 211 237 14 212 238 15 210 237 12 206 232 9 206 233 6 207 234 9 209 236 9 213 239 8 217 243 11 216 242 13 213 239 10 211 236 13 206 235 7 204 231 6 206 231 7 201 227 6 202 228 9 209 234 10 209 235 4 206 233 8 209 236 7 218 240 17 217 242 16 216 244 22 
207 235 13 201 227 8 208 233 10 216 236 17 
215 237 30 218 241 13 213 238 14 212 238 15 221 244 14 214 237 9 207 231 11 207 232 8 208 235 10 212 239 10 212 240 8 209 236 9 204 230 11 197 223 4 200 227 2 204 228 8 204 232 7 207 234 9 210 237 8 213 239 7 208 235 6 197 222 6 203 229 8 206 233 6 202 228 5 200 227 10 200 228 6 202 230 5 208 235 6 209 237 5 205 232 7 202 228 5 205 230 6 209 235 14 207 235 13 201 229 5 202 229 10 203 230 11 206 232 9 207 234 9 201 231 11 203 231 9 211 237 18 216 241 15 216 242 13 211 238 9 203 229 8 200 227 10 207 234 9 207 236 6 198 229 4 193 224 7 198 229 12 201 230 14 195 225 5 202 232 12 201 229 7 195 222 3 198 225 9 207 234 9 205 229 13 201 225 5 206 234 9 207 238 12 205 231 10 205 232 7 203 228 12 201 227 4 201 227 6 206 234 10 210 238 13 205 235 17 206 233 8 211 238 9 207 233 10 207 234 17 208 236 12 209 236 7 204 230 7 206 233 8 209 233 13 204 229 6 202 228 9 210 237 10 206 232 9 207 233 10 204 228 12 193 216 4 199 223 5 207 231 11 208 235 10 208 235 10 198 222 4 198 223 8 198 223 7 198 225 8 200 226 13 209 238 8 214 241 14 210 236 13 209 236 7 207 233 10 202 230 5 193 223 3 188 218 6 200 227 10 201 227 6 205 232 3 205 233 8 200 227 8 203 231 7 208 235 8 210 236 13 207 233 10 204 229 5 211 236 12 209 236 9 207 236 8 199 225 2 195 221 2 201 227 6 204 230 9 205 230 7 210 235 9 208 234 13 202 228 9 205 231 8 199 225 6 199 224 8 203 231 9 187 215 6 185 213 7 202 229 10 206 234 9 206 232 11 196 221 5 192 219 3 199 225 4 204 230 11 204 232 7 198 229 4 203 234 9 210 239 7 206 233 6 202 228 7 202 228 15 201 231 9 205 233 8 201 228 9 200 227 8 202 228 7 207 232 9 200 230 12 200 227 10 205 232 5 207 235 10 204 232 10 206 233 14 198 225 6 196 226 8 198 229 11 195 226 11 189 219 7 190 220 8 199 230 13 197 229 6 195 229 8 189 224 6 185 218 7 194 225 10 195 225 3 192 221 5 194 223 7 196 225 9 196 226 6 191 220 8 198 227 11 200 229 13 194 224 4 192 221 5 190 221 4 196 228 7 196 227 9 196 228 7 192 228 4 198 230 7 192 226 7 189 222 7 191 219 10 186 216 6 188 222 4 189 220 5 185 218 5 184 217 4 186 216 4 197 227 7 203 231 6 201 229 4 
200 231 5 197 228 10 193 224 6 193 222 6 194 224 4 192 223 5 191 225 7 194 225 8 192 220 13 192 221 7 193 227 8 199 231 6 200 232 11 195 225 7 190 221 4 193 227 8 194 226 3 187 217 5 185 217 9 181 213 8 176 207 7 174 206 0 193 224 7 198 230 5 208 239 14 205 235 17 194 223 9 197 229 6 199 229 11 195 226 8 190 224 6 195 230 4 195 226 9 188 218 6 189 224 6 195 229 8 197 229 6 199 230 13 190 220 8 189 219 7 195 226 11 198 229 11 196 226 8 198 225 6 206 233 14 204 232 10 207 235 10 205 232 5 200 227 10 200 230 12 207 232 9 202 228 7 200 227 8 201 228 9 205 233 8 201 231 9 202 228 15 202 228 7 206 233 6 210 239 7 203 234 9 198 229 4 204 232 7 204 230 11 199 225 4 192 219 3 196 221 5 206 232 11 206 234 9 202 229 10 185 213 7 187 215 6 203 231 9 199 224 8 199 225 6 205 231 8 202 228 9 208 234 13 210 235 9 205 230 7 204 230 9 201 227 6 195 221 2 199 225 2 207 236 8 209 236 9 211 236 12 204 229 5 207 233 10 210 236 13 208 235 8 203 231 7 200 227 8 205 233 8 205 232 3 201 227 6 200 227 10 188 218 6 193 223 3 202 230 5 207 233 10 209 236 7 210 236 13 214 241 14 209 238 8 200 226 13 198 225 8 198 223 7 198 223 8 198 222 4 208 235 10 208 235 10 207 231 11 199 223 5 193 216 4 204 228 12 207 233 10 206 232 9 210 237 10 202 228 9 204 229 6 209 233 13 206 233 8 204 230 7 209 236 7 208 236 12 207 234 17 207 233 10 211 238 9 206 233 8 205 235 17 210 238 13 206 234 10 201 227 6 201 227 4 203 228 12 205 232 7 205 231 10 207 238 12 206 234 9 201 225 5 205 229 13 207 234 9 198 225 9 195 222 3 201 229 7 202 232 12 195 225 5 201 230 14 198 229 12 193 224 7 198 229 4 207 236 6 207 234 9 200 227 10 203 229 8 211 238 9 216 242 13 216 241 15 211 237 18 203 231 9 201 231 11 207 234 9 206 232 9 203 230 11 202 229 10 201 229 5 207 235 13 209 235 14 205 230 6 202 228 5 205 232 7 209 237 5 208 235 6 202 230 5 200 228 6 200 227 10 202 228 5 206 233 6 203 229 8 197 222 6 208 235 6 213 239 7 210 237 8 207 234 9 204 232 7 204 228 8 200 227 2 197 223 4 204 230 11 209 236 9 212 240 8 212 239 10 208 235 10 206 232 11 206 232 9 213 236 6 221 244 16 
212 238 15 212 239 14 219 242 14 213 234 15 
213 236 32 219 245 16 221 248 13 218 243 17 218 242 10 210 231 12 202 228 7 200 228 3 200 227 11 206 233 14 210 239 7 203 231 6 199 226 7 195 222 3 199 224 9 207 234 7 207 234 7 213 238 22 215 242 15 209 236 7 198 225 8 197 224 7 203 233 11 202 233 8 195 226 0 203 231 9 211 238 13 209 236 9 209 236 9 206 233 8 201 227 4 203 229 8 209 236 11 209 235 12 198 225 6 199 226 9 205 233 11 209 238 10 209 238 10 207 233 14 206 237 11 215 241 18 217 240 14 215 237 14 207 233 12 199 226 9 191 220 4 194 223 7 203 231 7 203 231 7 205 233 8 208 236 12 208 235 18 210 238 14 209 240 15 209 242 13 207 235 11 209 237 15 212 238 15 211 239 7 205 231 12 202 230 8 203 231 7 205 236 11 209 235 14 199 226 9 195 221 8 195 222 5 197 226 10 206 236 18 204 232 10 205 233 11 214 242 10 212 238 15 214 239 24 211 238 22 205 232 7 203 230 1 204 230 7 205 229 11 203 229 8 202 228 9 202 228 5 208 235 10 206 232 9 213 240 13 208 235 10 201 227 4 203 230 5 203 230 5 200 226 3 201 227 6 199 225 4 199 224 9 198 225 9 199 227 5 202 230 6 212 239 10 207 233 12 203 230 5 198 224 1 192 216 6 197 225 3 198 228 8 199 227 5 206 232 11 207 231 11 206 231 8 204 231 6 199 227 2 207 235 11 211 237 14 203 230 5 200 226 3 205 230 7 207 231 11 197 222 6 194 219 6 195 220 7 200 224 6 207 233 12 208 234 11 210 235 9 207 234 7 203 229 6 201 227 6 206 232 11 197 223 4 203 229 8 203 229 10 198 226 1 202 230 8 204 230 9 204 231 6 204 230 11 201 227 8 201 229 4 207 234 7 207 234 9 206 234 9 206 237 9 208 239 13 201 229 5 192 217 2 201 227 4 209 235 12 206 234 9 201 229 5 197 222 6 199 226 9 204 230 11 203 229 10 199 223 13 196 223 4 206 233 8 206 232 11 201 227 6 190 216 3 192 218 7 201 229 7 207 237 19 209 237 31 197 227 9 200 231 5 206 237 9 205 236 8 199 231 6 196 232 2 202 234 13 203 235 12 198 228 6 194 224 4 200 230 8 189 218 4 186 214 5 192 221 5 197 227 9 198 228 6 192 222 4 189 218 6 193 222 8 194 226 5 200 232 7 200 231 6 198 231 4 196 226 6 196 227 10 197 229 6 195 227 4 193 225 4 198 230 7 200 232 7 196 228 7 191 222 5 186 216 8 186 220 1 191 226 2 
197 229 8 207 238 10 206 234 9 204 235 9 205 236 10 200 230 8 190 221 6 183 216 5 185 215 5 190 220 8 195 225 7 194 223 9 188 217 5 189 223 5 197 234 7 194 230 6 193 229 7 200 232 11 189 219 7 180 214 5 186 221 7 186 219 6 186 219 6 190 221 6 190 220 0 201 229 7 205 233 11 196 223 6 187 217 5 192 223 8 201 231 9 195 225 7 203 230 11 207 235 13 202 234 11 196 232 2 199 231 6 205 236 8 206 237 9 200 231 5 197 227 9 209 237 31 207 237 19 201 229 7 192 218 7 190 216 3 201 227 6 206 232 11 206 233 8 196 223 4 199 223 13 203 229 10 204 230 11 199 226 9 197 222 6 201 229 5 206 234 9 209 235 12 201 227 4 192 217 2 201 229 5 208 239 13 206 237 9 206 234 9 207 234 9 207 234 7 201 229 4 201 227 8 204 230 11 204 231 6 204 230 9 202 230 8 198 226 1 203 229 10 203 229 8 197 223 4 206 232 11 201 227 6 203 229 6 207 234 7 210 235 9 208 234 11 207 233 12 200 224 6 195 220 7 194 219 6 197 222 6 207 231 11 205 230 7 200 226 3 203 230 5 211 237 14 207 235 11 199 227 2 204 231 6 206 231 8 207 231 11 206 232 11 199 227 5 198 228 8 197 225 3 192 216 6 198 224 1 203 230 5 207 233 12 212 239 10 202 230 6 199 227 5 198 225 9 199 224 9 199 225 4 201 227 6 200 226 3 203 230 5 203 230 5 201 227 4 208 235 10 213 240 13 206 232 9 208 235 10 202 228 5 202 228 9 203 229 8 205 229 11 204 230 7 203 230 1 205 232 7 211 238 22 214 239 24 212 238 15 214 242 10 205 233 11 204 232 10 206 236 18 197 226 10 195 222 5 195 221 8 199 226 9 209 235 14 205 236 11 203 231 7 202 230 8 205 231 12 211 239 7 212 238 15 209 237 15 207 235 11 209 242 13 209 240 15 210 238 14 208 235 18 208 236 12 205 233 8 203 231 7 203 231 7 194 223 7 191 220 4 199 226 9 207 233 12 215 237 14 217 240 14 215 241 18 206 237 11 207 233 14 209 238 10 209 238 10 205 233 11 199 226 9 198 225 6 209 235 12 209 236 11 203 229 8 201 227 4 206 233 8 209 236 9 209 236 9 211 238 13 203 231 9 195 226 0 202 233 8 203 233 11 197 224 7 198 225 8 209 236 7 215 242 15 213 238 22 207 234 7 207 234 7 199 224 9 195 222 3 199 226 7 203 231 6 210 239 7 206 233 14 200 227 11 201 229 5 201 227 8 
210 232 10 218 242 10 217 242 16 222 249 14 219 245 16 210 233 19 
215 241 32 211 238 13 207 233 12 202 227 4 198 224 5 199 223 7 197 221 13 194 220 7 190 216 5 205 233 9 210 238 14 199 226 9 199 227 5 197 228 3 199 229 9 202 233 8 204 237 10 211 240 12 210 236 15 210 235 19 205 237 6 205 236 8 207 235 11 202 228 9 199 229 11 211 242 16 213 242 14 214 241 14 215 241 12 209 236 9 205 233 9 196 226 6 202 229 4 198 223 7 196 223 6 208 236 14 209 237 13 202 230 5 207 234 7 213 240 13 217 245 13 211 238 9 206 235 7 206 233 16 199 229 11 193 222 6 191 220 4 199 228 12 206 233 14 211 238 13 209 237 5 207 234 7 209 236 11 210 237 10 210 237 10 208 237 9 209 236 9 213 240 13 211 238 13 205 231 8 192 218 7 192 222 4 198 228 8 203 234 8 205 231 8 198 225 8 202 232 14 195 225 7 195 224 8 200 230 12 204 232 8 209 236 9 209 236 11 207 233 12 204 229 13 195 221 2 199 225 6 206 233 8 208 234 5 197 220 6 186 209 5 193 218 5 208 234 13 204 230 7 205 232 5 205 231 8 197 222 9 192 216 6 193 219 10 198 223 8 204 230 7 201 227 6 194 220 7 189 215 6 189 215 4 204 229 13 210 237 8 204 231 4 199 225 6 197 223 4 194 219 3 202 228 9 209 238 10 211 240 12 208 234 13 206 232 9 214 239 13 205 231 12 202 227 11 200 228 4 199 226 7 197 222 6 195 220 5 191 215 7 196 221 8 189 211 2 188 211 6 196 221 8 197 222 6 202 226 10 205 231 8 205 232 5 210 237 12 199 224 8 200 226 7 208 235 6 209 236 7 202 228 5 195 220 5 191 215 7 198 226 4 203 229 8 205 231 12 207 232 8 203 229 8 207 234 9 208 236 14 207 235 10 201 227 6 200 228 6 209 238 8 209 238 6 202 230 8 205 231 12 208 237 9 207 236 8 206 234 10 200 228 6 198 226 4 202 233 7 202 233 5 197 228 3 196 223 4 193 223 3 195 225 3 191 217 6 190 218 9 190 220 8 194 225 8 198 228 10 201 232 7 198 228 10 187 215 9 197 224 8 205 234 6 202 233 7 201 232 6 199 231 10 198 228 8 201 232 7 193 223 5 189 219 9 192 223 6 187 217 5 181 210 4 182 212 4 185 215 7 187 215 6 193 222 8 189 218 6 188 216 9 188 216 9 191 220 8 190 219 3 199 226 7 195 224 8 191 222 5 189 219 7 187 217 7 191 222 5 199 229 9 197 227 5 201 232 6 199 230 4 187 217 5 182 214 6 189 223 12 189 224 8 198 230 7 
196 222 9 180 207 6 189 218 6 201 231 9 199 230 5 193 224 6 187 220 9 189 219 9 196 228 7 197 227 5 187 217 5 173 207 6 184 220 6 204 240 20 198 232 14 207 235 13 196 222 11 169 200 1 183 214 12 184 217 4 191 222 4 196 227 10 191 221 11 187 217 7 189 220 5 180 212 5 176 208 3 183 213 3 192 221 7 192 220 11 192 222 4 201 232 6 197 229 6 199 231 10 201 232 6 202 233 7 205 234 6 197 224 8 187 215 9 198 228 10 201 232 7 198 228 10 194 225 8 190 220 8 190 218 9 191 217 6 195 225 3 193 223 3 196 223 4 197 228 3 202 233 5 202 233 7 198 226 4 200 228 6 206 234 10 207 236 8 208 237 9 205 231 12 202 230 8 209 238 6 209 238 8 200 228 6 201 227 6 207 235 10 208 236 14 207 234 9 203 229 8 207 232 8 205 231 12 203 229 8 198 226 4 191 215 7 195 220 5 202 228 5 209 236 7 208 235 6 200 226 7 199 224 8 210 237 12 205 232 5 205 231 8 202 226 10 197 222 6 196 221 8 188 211 6 189 211 2 196 221 8 191 215 7 195 220 5 197 222 6 199 226 7 200 228 4 202 227 11 205 231 12 214 239 13 206 232 9 208 234 13 211 240 12 209 238 10 202 228 9 194 219 3 197 223 4 199 225 6 204 231 4 210 237 8 204 229 13 189 215 4 189 215 6 194 220 7 201 227 6 204 230 7 198 223 8 193 219 10 192 216 6 197 222 9 205 231 8 205 232 5 204 230 7 208 234 13 193 218 5 186 209 5 197 220 6 208 234 5 206 233 8 199 225 6 195 221 2 204 229 13 207 233 12 209 236 11 209 236 9 204 232 8 200 230 12 195 224 8 195 225 7 202 232 14 198 225 8 205 231 8 203 234 8 198 228 8 192 222 4 192 218 7 205 231 8 211 238 13 213 240 13 209 236 9 208 237 9 210 237 10 210 237 10 209 236 11 207 234 7 209 237 5 211 238 13 206 233 14 199 228 12 191 220 4 193 222 6 199 229 11 206 233 16 206 235 7 211 238 9 217 245 13 213 240 13 207 234 7 202 230 5 209 237 13 208 236 14 196 223 6 198 223 7 202 229 4 196 226 6 205 233 9 209 236 9 215 241 12 214 241 14 213 242 14 211 242 16 199 229 11 202 228 9 207 235 11 205 236 8 205 237 6 210 235 19 210 236 15 211 240 12 204 237 10 202 233 8 199 229 9 197 228 3 199 227 5 199 226 9 210 238 14 205 233 9 190 216 5 194 220 7 198 222 14 199 222 8 199 223 7 202 229 4 
207 233 12 211 238 13 211 235 17 
214 237 32 207 235 11 198 226 2 194 220 9 196 226 6 207 235 11 208 235 8 203 230 11 202 232 10 210 241 13 212 240 15 208 237 9 210 239 7 207 235 11 208 235 19 207 234 15 210 239 11 210 238 5 213 238 12 209 234 19 201 231 11 191 221 13 193 222 8 204 231 12 197 226 12 199 229 7 208 239 14 213 242 12 210 238 6 200 225 9 189 215 4 190 219 5 191 215 7 192 219 3 204 232 8 205 234 6 200 226 5 204 230 11 214 240 17 212 239 12 211 233 11 204 231 6 197 224 8 199 225 14 206 234 12 203 229 6 200 226 7 206 231 15 206 231 15 206 232 9 203 230 5 201 229 5 202 230 5 205 231 8 209 234 8 211 237 14 207 234 9 203 229 6 204 231 6 201 229 7 192 221 5 197 229 4 199 229 11 201 227 14 205 230 15 207 233 12 203 230 11 198 224 11 200 228 3 205 233 8 211 238 13 213 241 9 210 236 13 206 233 8 200 226 5 198 224 5 204 230 9 202 227 11 202 227 12 196 221 6 199 226 7 208 236 12 206 232 9 201 227 4 204 231 4 200 225 10 197 224 8 195 222 5 191 217 4 198 225 9 205 231 10 203 230 5 197 225 3 200 227 8 205 233 8 213 240 13 216 243 16 211 238 11 205 232 7 207 233 12 210 235 19 207 234 9 204 230 7 203 229 6 207 233 10 201 227 8 199 225 4 199 225 6 203 230 14 195 222 6 197 224 7 205 232 7 204 231 6 200 226 3 196 221 6 191 214 9 200 225 9 202 228 7 194 221 5 199 226 7 201 227 4 207 233 12 202 227 11 184 209 3 187 213 4 198 225 6 201 229 7 199 225 4 193 220 4 193 220 4 200 228 6 205 231 8 204 230 9 198 223 7 199 224 8 206 235 7 201 228 9 195 222 5 199 225 4 203 230 5 206 234 9 205 234 6 201 229 4 209 235 16 202 230 8 205 233 9 206 234 12 208 236 11 207 236 6 206 235 7 206 237 9 195 227 4 189 220 5 197 226 10 199 228 12 189 222 9 187 221 2 195 227 4 193 225 2 188 222 4 196 226 6 198 228 8 192 221 7 191 216 10 195 225 7 195 225 3 194 225 8 193 224 7 194 225 7 191 222 4 191 222 5 189 222 11 193 227 9 193 227 9 191 222 7 186 216 6 189 219 7 194 224 14 199 229 11 190 219 5 182 211 7 180 208 9 179 208 6 188 217 5 192 222 4 191 222 5 190 221 4 182 212 4 178 207 5 185 215 7 191 220 4 197 227 7 196 228 7 197 229 8 200 230 12 189 219 7 182 214 7 184 217 6 
195 226 8 197 228 10 182 212 4 178 207 3 191 222 5 198 228 8 198 229 11 191 224 9 181 213 5 191 220 8 202 233 8 194 226 3 180 213 10 183 215 10 195 224 8 198 227 13 196 220 10 190 215 10 176 209 8 179 212 7 184 216 8 181 213 5 184 217 4 196 227 10 196 227 12 191 221 9 182 216 5 187 222 6 194 225 8 189 220 5 185 218 5 188 221 6 191 222 4 194 225 8 193 224 7 194 225 8 195 225 3 195 225 7 191 216 10 192 221 7 198 228 8 196 226 6 188 222 4 193 225 2 195 227 4 187 221 2 189 222 9 199 228 12 197 226 10 189 220 5 195 227 4 206 237 9 206 235 7 207 236 6 208 236 11 206 234 12 205 233 9 202 230 8 209 235 16 201 229 4 205 234 6 206 234 9 203 230 5 199 225 4 195 222 5 201 228 9 206 235 7 199 224 8 198 223 7 204 230 9 205 231 8 200 228 6 193 220 4 193 220 4 199 225 4 201 229 7 198 225 6 187 213 4 184 209 3 202 227 11 207 233 12 201 227 4 199 226 7 194 221 5 202 228 7 200 225 9 191 214 9 196 221 6 200 226 3 204 231 6 205 232 7 197 224 7 195 222 6 203 230 14 199 225 6 199 225 4 201 227 8 207 233 10 203 229 6 204 230 7 207 234 9 210 235 19 207 233 12 205 232 7 211 238 11 216 243 16 213 240 13 205 233 8 200 227 8 197 225 3 203 230 5 205 231 10 198 225 9 191 217 4 195 222 5 197 224 8 200 225 10 204 231 4 201 227 4 206 232 9 208 236 12 199 226 7 196 221 6 202 227 12 202 227 11 204 230 9 198 224 5 200 226 5 206 233 8 210 236 13 213 241 9 211 238 13 205 233 8 200 228 3 198 224 11 203 230 11 207 233 12 205 230 15 201 227 14 199 229 11 197 229 4 192 221 5 201 229 7 204 231 6 203 229 6 207 234 9 211 237 14 209 234 8 205 231 8 202 230 5 201 229 5 203 230 5 206 232 9 206 231 15 206 231 15 200 226 7 203 229 6 206 234 12 199 225 14 197 224 8 204 231 6 211 233 11 212 239 12 214 240 17 204 230 11 200 226 5 205 234 6 204 232 8 192 219 3 191 215 7 190 219 5 189 215 4 200 225 9 210 238 6 213 242 12 208 239 14 199 229 7 197 226 12 204 231 12 193 222 8 191 221 13 201 231 11 209 234 19 213 238 12 210 238 5 210 239 11 207 234 15 208 235 19 207 235 11 210 239 7 208 237 9 212 240 15 210 241 13 202 232 10 204 231 12 208 235 6 206 234 12 196 226 8 
193 219 6 198 226 2 208 236 14 208 232 12 
205 228 23 206 234 12 205 231 10 201 229 7 202 233 7 205 234 4 199 223 3 193 219 8 203 235 10 203 234 9 204 232 10 208 234 11 206 233 8 205 231 10 212 236 18 211 235 15 207 232 9 199 225 6 198 226 2 203 231 9 202 229 12 191 217 8 190 219 5 195 227 2 199 227 5 210 238 16 218 244 21 210 237 10 198 226 4 196 222 9 202 228 7 203 229 8 201 227 6 207 234 9 210 237 8 203 230 5 206 232 13 210 236 15 210 237 12 205 232 7 204 234 12 207 236 8 200 225 10 207 233 14 212 239 12 203 231 6 197 224 5 196 223 6 202 228 7 201 227 8 201 226 11 206 233 14 206 231 15 213 238 15 218 243 17 211 236 12 208 235 8 206 233 8 203 230 3 201 229 5 196 225 9 197 227 7 205 233 11 215 242 17 217 244 19 208 235 10 205 232 7 205 231 10 208 235 8 211 238 11 209 236 9 205 232 7 198 224 3 205 232 5 207 234 7 201 228 3 197 225 1 196 223 4 205 232 13 208 237 7 211 239 14 210 237 12 208 235 8 212 239 14 207 233 14 199 224 9 204 230 7 200 227 10 202 230 6 206 232 11 217 243 24 213 239 18 206 234 9 207 235 11 208 235 10 217 243 11 223 249 18 209 235 6 203 229 10 204 230 9 210 236 15 206 233 8 205 231 10 202 228 7 199 226 7 195 220 5 195 220 5 201 227 4 203 230 5 200 226 3 210 237 12 214 241 14 207 234 7 202 228 9 200 226 3 208 235 8 210 236 13 204 232 8 205 233 11 201 228 9 193 218 3 196 221 15 190 216 7 180 208 1 186 214 7 197 226 10 200 227 10 196 222 9 202 230 5 197 225 1 204 231 14 210 238 14 202 229 2 204 230 9 205 230 15 196 223 6 194 221 5 199 225 4 202 228 5 206 233 8 207 234 9 199 225 6 195 220 4 202 228 7 207 234 15 204 230 7 204 230 7 206 232 9 206 232 9 206 232 11 204 230 7 198 228 6 194 224 4 199 226 9 205 232 13 196 227 10 195 227 6 196 226 6 199 230 5 201 233 10 203 234 8 199 230 5 195 221 10 193 219 8 194 224 6 199 229 11 193 224 6 185 215 7 187 217 7 191 221 9 194 228 9 190 224 5 195 227 6 199 231 10 197 229 8 192 223 6 194 225 8 196 225 9 197 228 2 192 223 5 187 217 9 185 214 8 180 209 5 183 212 6 188 218 8 191 219 12 193 224 9 185 215 7 182 209 6 184 213 7 180 212 4 186 216 6 195 224 8 187 215 8 188 217 5 192 221 5 188 216 7 
183 213 1 194 225 7 196 230 9 195 227 6 181 213 6 180 212 4 187 215 9 187 216 10 197 231 12 204 236 13 199 229 9 197 225 3 198 225 8 197 227 5 198 226 4 196 223 4 203 231 7 202 230 6 195 227 4 195 230 6 190 224 5 187 220 5 190 223 10 192 225 10 196 228 7 198 230 9 195 226 8 193 224 6 198 233 9 199 234 10 192 226 7 189 225 5 193 227 9 192 222 10 185 218 7 185 215 7 193 224 6 199 229 11 194 224 6 193 219 8 195 221 10 199 230 5 203 234 8 201 233 10 199 230 5 196 226 6 195 227 6 196 227 10 205 232 13 199 226 9 194 224 4 198 228 6 204 230 7 206 232 11 206 232 9 206 232 9 204 230 7 204 230 7 207 234 15 202 228 7 195 220 4 199 225 6 207 234 9 206 233 8 202 228 5 199 225 4 194 221 5 196 223 6 205 230 15 204 230 9 202 229 2 210 238 14 204 231 14 197 225 1 202 230 5 196 222 9 200 227 10 197 226 10 186 214 7 180 208 1 190 216 7 196 221 15 193 218 3 201 228 9 205 233 11 204 232 8 210 236 13 208 235 8 200 226 3 202 228 9 207 234 7 214 241 14 210 237 12 200 226 3 203 230 5 201 227 4 195 220 5 195 220 5 199 226 7 202 228 7 205 231 10 206 233 8 210 236 15 204 230 9 203 229 10 209 235 6 223 249 18 217 243 11 208 235 10 207 235 11 206 234 9 213 239 18 217 243 24 206 232 11 202 230 6 200 227 10 204 230 7 199 224 9 207 233 14 212 239 14 208 235 8 210 237 12 211 239 14 208 237 7 205 232 13 196 223 4 197 225 1 201 228 3 207 234 7 205 232 5 198 224 3 205 232 7 209 236 9 211 238 11 208 235 8 205 231 10 205 232 7 208 235 10 217 244 19 215 242 17 205 233 11 197 227 7 196 225 9 201 229 5 203 230 3 206 233 8 208 235 8 211 236 12 218 243 17 213 238 15 206 231 15 206 233 14 201 226 11 201 227 8 202 228 7 196 223 6 197 224 5 203 231 6 212 239 12 207 233 14 200 225 10 207 236 8 204 234 12 205 232 7 210 237 12 210 236 15 206 232 13 203 230 5 210 237 8 207 234 9 201 227 6 203 229 8 202 228 7 196 222 9 198 226 4 210 237 10 218 244 21 210 238 16 199 227 5 195 227 2 190 219 5 191 217 8 202 229 12 203 231 9 198 226 2 199 225 6 207 232 9 211 235 15 212 236 18 205 231 10 206 233 8 208 234 11 204 232 10 203 234 9 203 235 10 193 219 8 198 224 5 
206 235 5 201 232 4 201 229 7 205 232 15 205 233 11 200 225 2 
205 230 27 206 232 11 207 232 8 205 229 9 208 234 15 211 237 16 205 232 7 204 232 7 212 239 10 211 238 9 213 238 12 216 241 15 212 239 14 208 234 13 200 226 7 195 220 5 192 217 11 190 218 9 194 223 7 198 229 4 201 229 7 205 231 8 202 230 8 204 232 10 215 243 8 211 239 7 209 236 7 206 233 8 204 230 9 206 232 9 208 233 9 206 230 14 205 231 8 203 229 8 200 226 7 201 226 10 199 223 13 199 224 11 204 230 7 206 234 2 207 232 8 205 231 8 201 226 11 206 231 8 201 226 3 199 225 6 199 226 9 198 225 8 197 224 8 207 235 13 212 239 14 211 238 13 212 239 10 215 241 9 202 228 7 196 223 7 198 223 7 189 213 3 191 215 7 201 228 11 203 231 9 204 231 12 211 237 18 210 237 8 203 232 0 203 232 2 212 238 15 209 236 11 210 237 10 209 236 11 206 234 10 205 233 9 208 234 15 209 235 16 207 234 7 199 227 5 193 219 6 198 225 9 209 237 15 209 238 10 205 232 7 202 228 5 206 233 6 203 229 8 197 222 6 204 230 7 205 232 5 211 238 13 213 241 16 210 237 8 206 233 6 200 226 7 200 225 10 200 225 9 208 234 11 215 241 12 207 231 11 195 219 3 197 222 7 195 220 4 202 228 9 203 229 10 199 224 8 197 223 2 198 224 5 202 228 9 193 218 3 198 224 5 207 233 10 207 232 8 207 232 8 200 224 6 194 217 5 201 224 10 200 226 7 204 230 7 203 229 6 203 229 8 201 228 11 191 217 6 186 210 10 187 212 7 192 219 3 188 217 3 186 214 7 195 224 10 201 229 7 203 231 7 206 232 9 199 225 6 199 226 7 200 226 7 199 225 4 203 227 7 197 223 4 197 223 4 202 229 4 208 235 8 208 234 11 205 231 12 197 222 9 185 208 4 188 211 6 196 221 5 201 229 7 206 232 9 205 232 7 204 231 6 200 226 3 201 226 3 202 228 5 196 223 6 197 224 7 197 223 10 207 237 15 205 233 8 200 227 8 198 228 6 206 238 4 211 239 17 203 233 11 198 228 6 198 225 6 201 229 7 199 230 5 201 231 11 193 224 7 189 219 9 187 217 9 194 225 7 193 225 4 186 216 6 189 218 6 197 227 9 195 225 3 196 225 9 189 217 8 186 214 5 196 225 9 195 226 9 188 218 6 188 218 6 189 220 5 186 216 4 189 217 8 195 219 9 197 227 7 195 227 6 193 219 6 187 217 7 182 216 5 183 216 3 192 218 7 187 215 6 186 216 6 189 220 5 191 219 12 190 218 9 192 222 4 
193 224 7 200 232 11 190 221 6 188 219 4 186 216 4 176 205 3 184 213 7 194 225 7 194 224 6 186 215 3 183 210 7 196 227 10 195 225 7 194 219 13 193 222 10 194 221 4 191 220 4 197 227 5 194 224 4 193 224 9 193 223 11 192 223 8 200 231 13 197 229 6 195 227 6 204 232 10 200 231 6 199 229 11 184 214 4 180 212 4 192 226 7 195 225 7 188 216 7 189 219 9 193 224 7 201 231 11 199 230 5 201 229 7 198 225 6 198 228 6 203 233 11 211 239 17 206 238 4 198 228 6 200 227 8 205 233 8 207 237 15 197 223 10 197 224 7 196 223 6 202 228 5 201 226 3 200 226 3 204 231 6 205 232 7 206 232 9 201 229 7 196 221 5 188 211 6 185 208 4 197 222 9 205 231 12 208 234 11 208 235 8 202 229 4 197 223 4 197 223 4 203 227 7 199 225 4 200 226 7 199 226 7 199 225 6 206 232 9 203 231 7 201 229 7 195 224 10 186 214 7 188 217 3 192 219 3 187 212 7 186 210 10 191 217 6 201 228 11 203 229 8 203 229 6 204 230 7 200 226 7 201 224 10 194 217 5 200 224 6 207 232 8 207 232 8 207 233 10 198 224 5 193 218 3 202 228 9 198 224 5 197 223 2 199 224 8 203 229 10 202 228 9 195 220 4 197 222 7 195 219 3 207 231 11 215 241 12 208 234 11 200 225 9 200 225 10 200 226 7 206 233 6 210 237 8 213 241 16 211 238 13 205 232 5 204 230 7 197 222 6 203 229 8 206 233 6 202 228 5 205 232 7 209 238 10 209 237 15 198 225 9 193 219 6 199 227 5 207 234 7 209 235 16 208 234 15 205 233 9 206 234 10 209 236 11 210 237 10 209 236 11 212 238 15 203 232 2 203 232 0 210 237 8 211 237 18 204 231 12 203 231 9 201 228 11 191 215 7 189 213 3 198 223 7 196 223 7 202 228 7 215 241 9 212 239 10 211 238 13 212 239 14 207 235 13 197 224 8 198 225 8 199 226 9 199 225 6 201 226 3 206 231 8 201 226 11 205 231 8 207 232 8 206 234 2 204 230 7 199 224 11 199 223 13 201 226 10 200 226 7 203 229 8 205 231 8 206 230 14 208 233 9 206 232 9 204 230 9 206 233 8 209 236 7 211 239 7 215 243 8 204 232 10 202 230 8 205 231 8 201 229 7 198 229 4 194 223 7 190 218 9 192 217 11 195 220 5 200 226 7 208 234 13 212 239 14 216 241 15 213 238 12 211 238 9 212 239 10 206 233 8 204 231 6 211 237 16 208 234 15 204 228 10 
206 232 9 207 233 12 201 225 9 
209 234 29 209 235 16 204 228 8 198 224 5 202 228 7 208 234 15 208 235 10 206 234 2 211 236 13 213 239 10 211 237 6 208 232 14 203 228 13 198 226 4 197 225 1 203 231 9 199 225 6 206 232 9 206 232 9 202 230 5 203 231 7 207 238 10 205 234 6 199 226 10 207 232 8 207 233 10 210 238 14 210 237 12 207 233 4 203 228 4 197 222 6 200 227 10 199 224 8 189 213 3 190 214 6 204 229 14 209 235 12 208 235 6 209 236 7 209 235 12 194 217 5 188 214 5 189 219 7 194 225 8 196 223 6 200 226 7 199 226 7 197 227 5 208 235 16 217 244 19 205 232 7 205 231 12 212 239 10 205 230 6 198 223 8 202 229 13 204 231 6 200 225 9 204 231 14 204 232 7 201 229 5 198 223 7 198 224 5 207 234 9 208 235 10 200 225 9 200 227 8 204 232 10 197 224 7 198 226 4 200 228 6 202 228 9 204 229 13 206 231 18 201 226 10 200 228 6 203 231 9 204 232 10 207 233 10 210 237 10 205 231 10 200 226 7 207 233 12 205 232 7 206 233 8 206 232 9 206 232 13 207 234 7 210 237 8 205 232 7 200 226 5 194 219 6 197 221 13 205 230 15 212 237 14 208 233 10 202 225 11 200 223 9 203 230 5 201 228 3 199 225 6 199 224 8 200 225 9 201 227 8 195 220 5 190 215 2 196 221 6 204 230 9 204 229 5 200 224 6 193 216 4 185 207 0 194 218 10 205 230 15 195 219 11 195 219 9 206 230 12 207 231 13 196 222 3 195 222 6 201 227 8 201 227 8 202 230 8 202 230 6 196 226 6 203 231 9 211 240 12 210 238 6 205 232 7 203 229 10 201 227 6 197 222 6 202 227 11 206 231 8 203 228 5 200 226 7 204 230 9 203 230 3 200 226 5 194 218 8 196 221 6 196 221 6 194 219 6 201 228 3 207 238 12 205 231 12 197 223 2 201 229 5 203 231 6 206 233 6 206 234 9 199 229 9 200 227 8 198 228 6 202 233 8 205 233 9 206 234 10 206 236 14 206 237 11 202 229 12 191 221 13 185 213 4 191 220 6 194 223 7 191 220 4 191 222 4 193 224 7 191 223 2 194 223 11 196 227 9 193 224 6 189 218 4 198 228 6 204 232 10 196 225 9 185 215 7 179 208 4 182 211 5 196 225 11 195 227 6 192 223 6 193 224 6 196 228 7 196 227 9 194 221 5 192 217 4 198 225 8 202 233 5 202 230 8 193 221 12 189 219 7 192 222 4 196 223 6 194 220 7 187 216 4 186 216 4 190 221 6 194 223 7 
195 225 5 196 223 6 197 227 9 201 230 14 192 222 4 190 221 4 185 215 7 182 211 5 187 217 7 185 215 7 181 214 9 184 213 9 183 215 8 191 220 8 195 224 10 189 217 8 191 217 4 200 227 8 204 234 12 195 226 9 190 221 6 193 224 6 192 224 3 194 225 10 186 214 8 182 209 6 190 219 3 201 231 9 206 234 10 201 228 9 184 217 6 190 224 6 197 226 10 193 222 10 191 223 2 193 224 7 191 222 4 191 220 4 194 223 7 191 220 6 185 213 4 191 221 13 202 229 12 206 237 11 206 236 14 206 234 10 205 233 9 202 233 8 198 228 6 200 227 8 199 229 9 206 234 9 206 233 6 203 231 6 201 229 5 197 223 2 205 231 12 207 238 12 201 228 3 194 219 6 196 221 6 196 221 6 194 218 8 200 226 5 203 230 3 204 230 9 200 226 7 203 228 5 206 231 8 202 227 11 197 222 6 201 227 6 203 229 10 205 232 7 210 238 6 211 240 12 203 231 9 196 226 6 202 230 6 202 230 8 201 227 8 201 227 8 195 222 6 196 222 3 207 231 13 206 230 12 195 219 9 195 219 11 205 230 15 194 218 10 185 207 0 193 216 4 200 224 6 204 229 5 204 230 9 196 221 6 190 215 2 195 220 5 201 227 8 200 225 9 199 224 8 199 225 6 201 228 3 203 230 5 200 223 9 202 225 11 208 233 10 212 237 14 205 230 15 197 221 13 194 219 6 200 226 5 205 232 7 210 237 8 207 234 7 206 232 13 206 232 9 206 233 8 205 232 7 207 233 12 200 226 7 205 231 10 210 237 10 207 233 10 204 232 10 203 231 9 200 228 6 201 226 10 206 231 18 204 229 13 202 228 9 200 228 6 198 226 4 197 224 7 204 232 10 200 227 8 200 225 9 208 235 10 207 234 9 198 224 5 198 223 7 201 229 5 204 232 7 204 231 14 200 225 9 204 231 6 202 229 13 198 223 8 205 230 6 212 239 10 205 231 12 205 232 7 217 244 19 208 235 16 197 227 5 199 226 7 200 226 7 196 223 6 194 225 8 189 219 7 188 214 5 194 217 5 209 235 12 209 236 7 208 235 6 209 235 12 204 229 14 190 214 6 189 213 3 199 224 8 200 227 10 197 222 6 203 228 4 207 233 4 210 237 12 210 238 14 207 233 10 207 232 8 199 226 10 205 234 6 207 238 10 203 231 7 202 230 5 206 232 9 206 232 9 199 225 6 203 231 9 197 225 1 198 226 4 203 228 13 208 232 14 211 237 6 213 239 10 211 236 13 205 232 3 209 236 9 207 233 14 203 227 9 
198 224 5 204 228 8 210 234 16 205 231 12 
208 234 25 216 241 17 207 234 9 199 227 3 202 230 5 202 230 5 203 231 7 204 230 7 201 229 5 207 235 10 201 226 10 197 223 4 202 228 5 205 231 12 209 234 8 205 230 6 198 223 7 199 225 6 200 229 1 202 230 8 210 237 10 212 238 17 205 230 7 201 226 3 202 233 8 208 236 14 208 234 11 200 226 5 198 223 7 201 226 10 197 224 5 202 231 3 206 232 13 199 225 6 208 234 11 211 238 13 210 237 12 205 231 8 202 228 7 196 221 6 186 211 5 191 220 8 205 236 11 203 233 15 205 233 9 208 236 11 211 237 16 203 229 8 205 231 8 201 227 4 200 225 10 204 232 7 205 234 4 202 228 9 205 230 15 209 236 9 204 231 6 204 231 4 201 229 4 204 232 7 201 227 4 197 222 7 205 231 10 210 238 13 210 235 12 199 225 2 204 231 6 200 227 8 196 223 7 204 231 12 201 225 15 197 222 9 194 219 4 195 220 4 198 226 4 206 235 7 202 230 5 204 230 9 210 237 12 205 229 9 202 228 7 206 233 6 204 230 7 207 234 9 206 232 9 203 229 6 202 228 7 199 225 6 204 229 5 202 227 11 192 218 5 196 221 5 203 229 8 206 230 12 205 229 11 204 230 7 196 220 2 193 217 9 191 214 9 194 218 8 190 214 4 194 218 10 198 224 5 193 218 5 191 215 7 196 220 12 201 226 11 204 230 11 201 227 4 196 222 1 189 213 3 188 211 7 198 222 12 192 218 7 188 214 5 204 230 11 203 229 8 199 223 5 198 224 3 198 223 10 201 226 10 204 230 7 204 230 11 200 227 10 200 227 10 203 230 11 206 233 8 203 228 5 197 222 7 197 223 4 205 233 8 204 232 10 197 222 6 203 229 6 203 229 6 203 229 10 211 237 16 209 235 12 205 234 4 206 232 11 211 237 14 210 238 5 210 237 10 205 232 5 201 229 7 198 220 11 199 223 5 205 233 8 207 235 10 206 233 8 195 221 2 192 221 7 200 230 10 202 231 3 199 225 6 201 228 11 206 235 7 200 227 10 198 223 8 201 229 7 182 215 4 182 211 5 195 225 7 205 236 10 203 235 12 193 227 6 196 231 7 202 237 10 199 231 6 194 225 7 183 213 3 187 215 8 198 228 6 200 231 5 192 223 5 181 213 6 185 215 5 191 222 7 197 228 3 196 226 8 192 220 11 193 223 5 201 232 7 201 232 7 196 220 12 191 217 8 191 217 6 196 226 4 198 228 6 195 222 5 200 226 7 198 221 7 191 220 4 197 224 7 197 224 7 189 218 6 188 218 6 190 221 4 
192 221 7 199 226 7 193 220 3 200 226 7 199 227 5 191 220 6 188 218 6 192 223 5 189 219 9 180 212 5 173 206 5 176 204 5 179 208 6 184 212 6 185 213 6 182 212 4 193 222 8 198 228 6 207 238 12 200 230 10 188 218 6 184 217 6 190 224 5 198 233 6 196 228 5 186 216 6 184 213 7 195 227 6 201 232 6 202 230 6 185 214 8 182 212 0 194 225 8 197 232 6 202 237 10 196 231 7 193 227 6 203 235 12 205 236 10 195 225 7 182 211 5 182 215 4 201 229 7 198 223 8 200 227 10 206 235 7 201 228 11 199 225 6 202 231 3 200 230 10 192 221 7 195 221 2 206 233 8 207 235 10 205 233 8 199 223 5 198 220 11 201 229 7 205 232 5 210 237 10 210 238 5 211 237 14 206 232 11 205 234 4 209 235 12 211 237 16 203 229 10 203 229 6 203 229 6 197 222 6 204 232 10 205 233 8 197 223 4 197 222 7 203 228 5 206 233 8 203 230 11 200 227 10 200 227 10 204 230 11 204 230 7 201 226 10 198 223 10 198 224 3 199 223 5 203 229 8 204 230 11 188 214 5 192 218 7 198 222 12 188 211 7 189 213 3 196 222 1 201 227 4 204 230 11 201 226 11 196 220 12 191 215 7 193 218 5 198 224 5 194 218 10 190 214 4 194 218 8 191 214 9 193 217 9 196 220 2 204 230 7 205 229 11 206 230 12 203 229 8 196 221 5 192 218 5 202 227 11 204 229 5 199 225 6 202 228 7 203 229 6 206 232 9 207 234 9 204 230 7 206 233 6 202 228 7 205 229 9 210 237 12 204 230 9 202 230 5 206 235 7 198 226 4 195 220 4 194 219 4 197 222 9 201 225 15 204 231 12 196 223 7 200 227 8 204 231 6 199 225 2 210 235 12 210 238 13 205 231 10 197 222 7 201 227 4 204 232 7 201 229 4 204 231 4 204 231 6 209 236 9 205 230 15 202 228 9 205 234 4 204 232 7 200 225 10 201 227 4 205 231 8 203 229 8 211 237 16 208 236 11 205 233 9 203 233 15 205 236 11 191 220 8 186 211 5 196 221 6 202 228 7 205 231 8 210 237 12 211 238 13 208 234 11 199 225 6 206 232 13 202 231 3 197 224 5 201 226 10 198 223 7 200 226 5 208 234 11 208 236 14 202 233 8 201 226 3 205 230 7 212 238 17 210 237 10 202 230 8 200 229 1 199 225 6 198 223 7 205 230 6 209 234 8 205 231 12 202 228 5 197 223 4 201 226 10 207 235 10 201 229 5 205 230 7 203 231 7 202 230 5 203 231 7 197 228 3 
207 234 7 215 241 12 203 229 8 
206 234 28 210 237 8 200 226 3 206 234 9 208 237 7 198 229 3 202 232 10 205 233 8 200 226 7 202 228 9 197 224 5 199 226 7 206 234 9 213 243 7 206 232 11 202 228 9 204 228 18 206 233 6 207 234 5 208 235 10 211 236 12 206 231 8 200 226 5 198 225 6 198 226 4 204 232 7 198 225 9 196 221 15 197 223 12 200 226 13 201 229 5 205 231 10 201 228 9 201 226 10 201 226 10 201 225 5 201 225 7 199 224 8 196 223 7 193 222 8 197 227 5 206 234 10 209 234 18 207 233 12 204 231 6 210 237 10 208 233 7 206 231 7 204 229 13 203 228 12 200 226 7 203 229 8 208 236 12 206 234 9 206 233 8 208 233 7 202 229 10 198 224 13 191 219 12 197 223 10 196 223 7 196 221 6 202 228 9 205 231 12 199 225 4 199 223 13 198 223 7 194 221 5 202 229 10 210 236 15 204 231 6 206 230 10 206 230 12 209 233 17 209 235 12 207 234 5 206 233 8 206 232 9 200 227 10 194 221 20 206 231 18 210 237 10 201 227 6 204 230 7 206 231 7 199 223 7 199 224 9 202 230 5 196 226 6 195 220 4 188 214 5 196 222 9 200 225 12 196 221 5 200 226 5 206 230 12 195 220 4 194 219 6 189 213 5 191 216 3 194 219 4 195 220 7 203 226 12 203 228 5 209 236 9 207 233 12 203 229 8 205 231 8 201 229 7 198 224 13 199 226 9 201 227 8 199 226 7 192 218 7 195 219 9 202 227 14 206 233 8 200 225 9 199 225 4 197 223 4 202 230 8 200 228 6 203 231 7 205 234 6 202 229 10 206 233 8 203 229 6 202 228 9 196 222 9 199 227 3 203 231 7 194 221 5 194 221 2 203 230 5 209 236 9 213 239 10 207 234 9 203 229 8 199 225 6 198 223 7 200 225 9 206 234 10 197 224 7 193 217 9 192 223 8 198 229 1 204 232 7 206 232 9 203 228 12 186 211 5 181 208 7 190 221 6 199 225 4 203 232 2 199 229 9 195 225 7 203 233 11 189 219 7 190 221 4 193 224 9 182 216 7 188 219 4 205 237 6 210 242 11 196 228 3 193 225 0 206 237 12 207 235 13 194 224 2 184 213 7 185 218 7 198 228 6 205 233 9 202 229 12 190 218 9 181 213 5 191 220 6 196 226 6 196 225 9 191 220 4 193 219 6 194 220 7 195 225 5 198 228 8 199 229 7 200 225 9 193 219 8 190 219 3 200 227 8 196 223 6 194 224 4 196 223 4 185 213 7 188 218 8 198 229 12 190 219 3 182 210 4 191 219 13 194 220 11 
197 224 7 197 219 10 195 225 3 199 231 10 190 219 7 192 221 5 199 230 5 198 230 7 192 223 8 183 215 7 184 217 6 189 219 9 193 222 6 191 220 4 188 222 3 189 219 9 190 219 5 193 223 5 203 234 8 204 235 9 192 221 5 190 220 2 204 236 13 200 235 8 192 227 3 183 213 5 189 219 9 205 233 11 208 237 9 200 231 5 186 216 4 184 213 7 193 223 3 207 235 13 206 237 12 193 225 0 196 228 3 210 242 11 205 237 6 188 219 4 182 216 7 193 224 9 190 221 4 189 219 7 203 233 11 195 225 7 199 229 9 203 232 2 199 225 4 190 221 6 181 208 7 186 211 5 203 228 12 206 232 9 204 232 7 198 229 1 192 223 8 193 217 9 197 224 7 206 234 10 200 225 9 198 223 7 199 225 6 203 229 8 207 234 9 213 239 10 209 236 9 203 230 5 194 221 2 194 221 5 203 231 7 199 227 3 196 222 9 202 228 9 203 229 6 206 233 8 202 229 10 205 234 6 203 231 7 200 228 6 202 230 8 197 223 4 199 225 4 200 225 9 206 233 8 202 227 14 195 219 9 192 218 7 199 226 7 201 227 8 199 226 9 198 224 13 201 229 7 205 231 8 203 229 8 207 233 12 209 236 9 203 228 5 203 226 12 195 220 7 194 219 4 191 216 3 189 213 5 194 219 6 195 220 4 206 230 12 200 226 5 196 221 5 200 225 12 196 222 9 188 214 5 195 220 4 196 226 6 202 230 5 199 224 9 199 223 7 206 231 7 204 230 7 201 227 6 210 237 10 206 231 18 194 221 20 200 227 10 206 232 9 206 233 8 207 234 5 209 235 12 209 233 17 206 230 12 206 230 10 204 231 6 210 236 15 202 229 10 194 221 5 198 223 7 199 223 13 199 225 4 205 231 12 202 228 9 196 221 6 196 223 7 197 223 10 191 219 12 198 224 13 202 229 10 208 233 7 206 233 8 206 234 9 208 236 12 203 229 8 200 226 7 203 228 12 204 229 13 206 231 7 208 233 7 210 237 10 204 231 6 207 233 12 209 234 18 206 234 10 197 227 5 193 222 8 196 223 7 199 224 8 201 225 7 201 225 5 201 226 10 201 226 10 201 228 9 205 231 10 201 229 5 200 226 13 197 223 12 196 221 15 198 225 9 204 232 7 198 226 4 198 225 6 200 226 5 206 231 8 211 236 12 208 235 10 207 234 5 206 233 6 204 228 18 202 228 9 206 232 11 213 243 7 206 234 9 199 226 7 197 224 5 202 228 9 200 226 7 205 233 8 202 232 10 198 229 3 208 237 9 206 234 9 201 227 4 
210 237 8 205 231 10 
203 231 25 197 221 11 197 221 11 208 234 11 204 231 6 201 228 9 206 233 14 207 233 10 202 227 12 195 219 11 197 223 4 199 225 6 195 220 5 198 224 5 202 227 12 207 233 10 203 229 10 201 227 6 200 226 7 199 224 8 204 228 10 206 231 8 194 218 8 184 207 3 187 210 5 199 225 4 197 224 5 206 233 16 205 235 15 204 232 10 208 236 4 209 233 15 205 230 7 200 226 3 200 228 6 204 232 10 201 227 6 203 228 12 196 222 11 190 219 5 198 229 4 211 239 17 215 241 20 212 238 15 209 235 12 210 237 12 212 237 13 203 227 11 196 221 6 203 229 10 205 232 5 212 237 11 205 231 12 202 227 11 195 222 6 193 219 10 194 219 13 184 212 6 191 219 12 196 226 4 200 228 6 199 226 10 203 231 9 198 225 9 198 222 12 206 231 16 199 224 8 198 223 10 208 233 17 207 233 10 200 226 3 206 232 9 213 238 12 210 237 8 208 235 10 204 230 11 199 224 9 193 218 5 191 217 6 188 214 5 203 229 10 204 230 7 199 224 8 203 229 6 205 232 7 198 223 7 205 231 8 203 231 9 202 230 6 196 223 4 200 226 7 205 231 8 202 228 5 200 224 4 202 225 13 205 229 11 201 226 10 199 224 8 192 216 6 196 221 5 202 227 11 207 232 17 212 236 16 205 230 7 195 222 5 194 219 4 201 227 8 206 232 9 207 233 12 201 226 10 203 230 3 204 231 6 198 223 7 195 219 11 197 220 15 205 232 7 198 222 12 194 218 10 192 215 11 199 224 11 199 224 8 198 223 7 206 235 7 203 229 6 196 221 6 200 226 5 199 225 6 200 225 10 208 236 12 201 229 5 194 220 7 200 224 16 203 229 8 205 232 7 208 234 13 201 227 4 196 220 4 193 217 9 185 208 4 186 210 2 189 215 4 190 215 9 188 213 7 191 217 6 200 227 10 204 230 7 198 224 5 202 228 5 200 227 8 187 216 0 188 219 4 197 229 6 197 224 5 197 225 3 196 223 7 198 225 6 201 229 7 198 229 3 199 231 8 184 217 4 186 217 2 197 229 6 205 236 11 191 220 8 187 215 8 199 229 7 208 237 7 193 220 4 177 204 5 186 214 8 197 224 8 198 226 4 195 222 5 193 222 6 190 221 6 185 214 8 192 221 7 194 223 7 193 222 10 192 221 5 195 225 7 192 218 7 193 222 8 195 225 7 196 223 7 198 224 5 189 215 6 186 216 6 199 229 9 193 223 5 184 214 4 185 214 10 177 204 3 176 207 5 191 221 9 198 225 6 190 219 3 197 227 7 
205 231 10 201 228 11 202 232 10 206 234 9 203 231 9 191 220 4 194 225 7 194 224 6 190 216 3 197 224 8 195 222 6 190 219 3 198 228 6 200 230 10 198 228 6 196 227 9 194 225 8 194 225 8 194 223 9 192 221 7 196 225 9 192 221 5 192 221 5 195 224 8 199 229 9 195 224 8 187 217 9 192 223 6 197 227 9 197 224 5 201 229 5 197 227 9 186 214 8 179 203 5 193 220 4 208 237 7 199 229 7 187 215 8 191 220 8 205 236 11 197 229 6 186 217 2 184 217 4 199 231 8 198 229 3 201 229 7 198 225 6 196 223 7 197 225 3 197 224 5 197 229 6 188 219 4 187 216 0 200 227 8 202 228 5 198 224 5 204 230 7 200 227 10 191 217 6 188 213 7 190 215 9 189 215 4 186 210 2 185 208 4 193 217 9 196 220 4 201 227 4 208 234 13 205 232 7 203 229 8 200 224 16 194 220 7 201 229 5 208 236 12 200 225 10 199 225 6 200 226 5 196 221 6 203 229 6 206 235 7 198 223 7 199 224 8 199 224 11 192 215 11 194 218 10 198 222 12 205 232 7 197 220 15 195 219 11 198 223 7 204 231 6 203 230 3 201 226 10 207 233 12 206 232 9 201 227 8 194 219 4 195 222 5 205 230 7 212 236 16 207 232 17 202 227 11 196 221 5 192 216 6 199 224 8 201 226 10 205 229 11 202 225 13 200 224 4 202 228 5 205 231 8 200 226 7 196 223 4 202 230 6 203 231 9 205 231 8 198 223 7 205 232 7 203 229 6 199 224 8 204 230 7 203 229 10 188 214 5 191 217 6 193 218 5 199 224 9 204 230 11 208 235 10 210 237 8 213 238 12 206 232 9 200 226 3 207 233 10 208 233 17 198 223 10 199 224 8 206 231 16 198 222 12 198 225 9 203 231 9 199 226 10 200 228 6 196 226 4 191 219 12 184 212 6 194 219 13 193 219 10 195 222 6 202 227 11 205 231 12 212 237 11 205 232 5 203 229 10 196 221 6 203 227 11 212 237 13 210 237 12 209 235 12 212 238 15 215 241 20 211 239 17 198 229 4 190 219 5 196 222 11 203 228 12 201 227 6 204 232 10 200 228 6 200 226 3 205 230 7 209 233 15 208 236 4 204 232 10 205 235 15 206 233 16 197 224 5 199 225 4 187 210 5 184 207 3 194 218 8 206 231 8 204 228 10 199 224 8 200 226 7 201 227 6 203 229 10 207 233 10 202 227 12 198 224 5 195 220 5 199 225 6 197 223 4 195 219 11 202 227 12 206 232 11 206 233 14 201 229 7 203 231 6 
208 235 10 197 221 11 197 222 9 201 226 10 
204 231 28 201 227 8 206 232 11 203 231 7 202 227 11 203 230 13 202 230 6 202 227 3 197 224 5 195 221 10 205 232 7 208 235 6 207 234 9 206 232 9 206 232 13 206 232 13 200 225 9 201 227 4 204 229 13 202 227 11 199 224 8 198 224 5 185 210 5 189 214 8 199 226 9 205 232 16 203 230 14 200 228 3 203 231 6 203 229 16 209 235 14 200 226 7 194 216 7 193 218 13 197 225 18 200 230 12 200 227 8 198 225 8 197 224 7 196 226 6 206 237 11 207 233 10 202 228 7 200 226 7 203 229 8 202 228 5 203 227 9 202 226 10 208 234 13 210 236 13 203 229 6 194 219 4 191 214 9 202 227 12 205 233 11 197 226 10 202 228 15 202 230 5 201 232 7 197 227 5 197 228 3 205 233 8 209 237 13 207 235 13 206 233 6 215 241 20 211 237 16 212 239 14 210 237 8 206 232 9 207 232 16 208 235 10 204 230 9 196 221 5 196 221 6 199 224 8 202 227 11 204 230 11 195 221 8 194 219 14 199 225 6 203 230 3 202 228 5 195 220 7 195 220 5 192 215 10 193 217 7 202 228 7 202 228 5 197 222 7 197 222 6 198 224 3 201 227 8 196 223 7 192 216 6 201 227 8 202 228 5 200 225 10 196 220 10 201 227 8 210 237 12 215 242 13 201 226 10 192 214 7 191 217 8 199 227 5 203 230 3 200 226 5 200 225 9 201 226 11 203 229 8 201 227 8 198 224 5 199 224 8 208 235 10 197 223 2 190 214 4 196 220 10 199 224 11 197 222 6 200 226 7 204 230 7 204 230 7 198 223 8 199 225 6 203 229 8 202 228 7 208 234 11 212 239 14 203 230 5 203 229 6 210 236 13 206 233 8 202 228 5 199 225 6 198 223 7 194 220 7 186 211 6 187 213 4 202 230 8 205 232 15 194 223 11 196 224 2 204 231 6 210 237 12 205 232 5 200 226 5 200 228 3 195 225 3 189 218 2 199 229 7 205 236 8 196 226 8 196 223 7 201 226 11 206 234 10 201 229 7 204 232 10 197 224 5 191 220 4 196 226 4 199 229 9 189 217 10 186 214 5 199 229 7 195 225 7 186 216 4 179 211 3 180 208 10 189 219 11 192 218 9 195 220 4 199 227 5 193 222 10 188 216 7 189 215 6 193 222 8 195 224 8 189 218 4 190 219 5 188 217 1 187 215 6 193 221 12 197 227 9 194 223 9 199 226 9 191 220 6 187 217 5 196 223 6 201 229 5 198 228 6 189 219 7 183 211 5 183 215 8 191 220 6 194 220 7 196 226 8 196 225 13 
198 225 8 192 219 3 196 225 11 213 240 11 204 229 6 186 211 6 189 219 11 194 224 14 188 216 9 186 215 3 180 202 3 185 210 7 190 219 3 189 215 4 197 224 7 198 227 11 193 223 5 186 216 4 193 223 5 192 221 7 186 214 7 191 220 6 194 221 4 197 224 7 204 232 10 201 228 9 192 218 5 191 217 6 197 223 10 200 228 6 194 221 4 190 218 9 188 218 10 180 208 10 179 211 3 186 216 4 195 225 7 199 229 7 186 214 5 189 217 10 199 229 9 196 226 4 191 220 4 197 224 5 204 232 10 201 229 7 206 234 10 201 226 11 196 223 7 196 226 8 205 236 8 199 229 7 189 218 2 195 225 3 200 228 3 200 226 5 205 232 5 210 237 12 204 231 6 196 224 2 194 223 11 205 232 15 202 230 8 187 213 4 186 211 6 194 220 7 198 223 7 199 225 6 202 228 5 206 233 8 210 236 13 203 229 6 203 230 5 212 239 14 208 234 11 202 228 7 203 229 8 199 225 6 198 223 8 204 230 7 204 230 7 200 226 7 197 222 6 199 224 11 196 220 10 190 214 4 197 223 2 208 235 10 199 224 8 198 224 5 201 227 8 203 229 8 201 226 11 200 225 9 200 226 5 203 230 3 199 227 5 191 217 8 192 214 7 201 226 10 215 242 13 210 237 12 201 227 8 196 220 10 200 225 10 202 228 5 201 227 8 192 216 6 196 223 7 201 227 8 198 224 3 197 222 6 197 222 7 202 228 5 202 228 7 193 217 7 192 215 10 195 220 5 195 220 7 202 228 5 203 230 3 199 225 6 194 219 14 195 221 8 204 230 11 202 227 11 199 224 8 196 221 6 196 221 5 204 230 9 208 235 10 207 232 16 206 232 9 210 237 8 212 239 14 211 237 16 215 241 20 206 233 6 207 235 13 209 237 13 205 233 8 197 228 3 197 227 5 201 232 7 202 230 5 202 228 15 197 226 10 205 233 11 202 227 12 191 214 9 194 219 4 203 229 6 210 236 13 208 234 13 202 226 10 203 227 9 202 228 5 203 229 8 200 226 7 202 228 7 207 233 10 206 237 11 196 226 6 197 224 7 198 225 8 200 227 8 200 230 12 197 225 18 193 218 13 194 216 7 200 226 7 209 235 14 203 229 16 203 231 6 200 228 3 203 230 14 205 232 16 199 226 9 189 214 8 185 210 5 198 224 5 199 224 8 202 227 11 204 229 13 201 227 4 200 225 9 206 232 13 206 232 13 206 232 9 207 234 9 208 235 6 205 232 7 195 221 10 197 224 5 200 226 3 202 228 5 203 230 11 201 228 11 
204 231 6 206 232 11 201 227 8 202 227 12 
202 228 33 204 232 8 197 224 5 188 213 8 185 209 9 200 226 13 204 234 16 201 226 10 197 228 2 202 232 10 205 233 9 200 228 4 201 227 4 197 225 3 196 224 2 196 221 15 200 223 19 198 223 7 193 219 8 193 219 6 189 218 6 187 215 6 184 214 4 198 230 9 205 235 13 206 236 18 202 229 12 200 226 7 205 231 10 201 226 10 198 226 4 195 222 3 199 225 12 210 236 17 211 238 9 205 232 5 196 223 6 199 226 9 200 231 6 200 231 6 207 235 11 205 230 14 203 228 12 203 228 12 203 229 8 198 224 5 202 224 17 198 223 10 202 223 8 196 221 6 192 218 7 191 217 6 205 231 10 214 242 10 213 241 9 207 234 7 204 231 6 207 234 5 200 227 8 191 216 10 201 227 14 205 233 8 205 231 10 197 222 7 200 225 9 204 230 9 210 237 10 210 236 7 205 230 6 205 231 8 203 228 13 196 221 6 192 216 8 191 216 3 197 224 7 207 233 12 211 238 11 213 240 15 202 228 9 201 226 10 209 237 15 212 239 10 198 222 6 190 214 4 203 229 6 202 229 10 204 230 11 201 227 4 193 216 2 188 212 4 193 217 9 201 227 8 202 229 13 195 221 12 190 216 5 197 227 7 205 231 8 201 227 6 199 225 4 199 225 4 203 229 8 204 231 6 189 213 3 191 215 5 199 226 10 209 235 12 200 224 4 196 219 7 199 225 6 199 225 6 199 224 8 198 223 7 191 217 8 195 222 6 204 231 6 199 225 6 199 225 6 206 232 13 208 234 11 204 231 6 196 221 5 198 223 7 193 217 9 194 219 6 206 234 2 211 237 14 209 234 18 203 231 9 202 228 7 201 226 10 196 221 6 200 226 7 198 224 5 191 215 7 187 210 6 194 218 8 194 224 6 192 221 5 201 229 7 208 236 11 195 224 8 190 220 8 202 229 10 212 236 18 204 230 9 201 228 3 198 225 6 196 223 7 197 224 8 199 227 5 207 235 10 198 225 6 203 227 7 211 233 10 211 236 12 205 236 10 196 228 5 195 221 8 197 225 3 195 225 7 197 227 9 198 228 6 200 231 6 205 236 11 200 230 12 188 219 4 190 221 6 191 224 11 197 227 9 194 224 4 194 223 9 204 231 12 205 234 6 195 225 3 192 223 5 197 229 4 205 233 11 196 225 9 183 211 4 188 216 9 192 221 9 188 217 5 187 216 4 192 221 5 197 223 10 190 219 7 187 217 7 191 219 12 193 217 9 195 219 3 198 223 7 189 218 6 186 216 8 191 219 10 191 220 6 195 224 8 186 212 3 182 210 4 
189 219 7 193 223 5 194 219 3 207 233 12 209 233 13 202 227 11 187 215 6 184 217 6 194 228 9 207 238 13 198 225 6 191 219 12 195 225 7 193 222 6 199 227 3 202 229 12 198 228 10 188 217 3 189 219 7 186 216 8 185 215 5 195 227 4 195 224 10 191 220 4 207 236 8 209 238 10 200 231 3 192 224 3 194 226 3 203 234 6 204 231 12 197 223 10 195 225 5 195 227 6 191 224 11 190 221 6 188 219 4 200 230 12 205 236 11 200 231 6 198 228 6 197 227 9 195 225 7 197 225 3 195 221 8 196 228 5 205 236 10 211 236 12 211 233 10 203 227 7 198 225 6 207 235 10 199 227 5 197 224 8 196 223 7 198 225 6 201 228 3 204 230 9 212 236 18 202 229 10 190 220 8 195 224 8 208 236 11 201 229 7 192 221 5 194 224 6 194 218 8 187 210 6 191 215 7 198 224 5 200 226 7 196 221 6 201 226 10 202 228 7 203 231 9 209 234 18 211 237 14 206 234 2 194 219 6 193 217 9 198 223 7 196 221 5 204 231 6 208 234 11 206 232 13 199 225 6 199 225 6 204 231 6 195 222 6 191 217 8 198 223 7 199 224 8 199 225 6 199 225 6 196 219 7 200 224 4 209 235 12 199 226 10 191 215 5 189 213 3 204 231 6 203 229 8 199 225 4 199 225 4 201 227 6 205 231 8 197 227 7 190 216 5 195 221 12 202 229 13 201 227 8 193 217 9 188 212 4 193 216 2 201 227 4 204 230 11 202 229 10 203 229 6 190 214 4 198 222 6 212 239 10 209 237 15 201 226 10 202 228 9 213 240 15 211 238 11 207 233 12 197 224 7 191 216 3 192 216 8 196 221 6 203 228 13 205 231 8 205 230 6 210 236 7 210 237 10 204 230 9 200 225 9 197 222 7 205 231 10 205 233 8 201 227 14 191 216 10 200 227 8 207 234 5 204 231 6 207 234 7 213 241 9 214 242 10 205 231 10 191 217 6 192 218 7 196 221 6 202 223 8 198 223 10 202 224 17 198 224 5 203 229 8 203 228 12 203 228 12 205 230 14 207 235 11 200 231 6 200 231 6 199 226 9 196 223 6 205 232 5 211 238 9 210 236 17 199 225 12 195 222 3 198 226 4 201 226 10 205 231 10 200 226 7 202 229 12 206 236 18 205 235 13 198 230 9 184 214 4 187 215 6 189 218 6 193 219 6 193 219 8 198 223 7 200 223 19 196 221 15 196 224 2 197 225 3 201 227 4 200 228 4 205 233 9 202 232 10 197 228 2 200 227 10 206 233 14 200 226 13 185 209 11 
188 213 10 196 223 6 204 232 8 198 224 13 
191 217 24 200 226 5 198 225 6 187 213 4 192 218 5 200 230 8 205 235 15 209 237 15 202 233 7 200 231 5 202 230 8 199 226 9 199 227 5 205 233 11 205 233 8 194 224 6 194 219 13 191 216 10 187 212 6 188 217 5 188 216 9 189 217 8 196 228 5 202 235 6 209 236 9 203 231 7 197 225 1 202 230 8 209 238 10 205 232 5 207 233 10 209 235 12 210 237 10 215 242 15 206 231 8 198 224 5 203 229 8 206 234 9 204 233 5 204 232 8 206 233 8 204 230 9 209 234 10 206 233 8 201 226 10 197 220 8 197 220 8 203 229 10 205 229 11 198 223 7 197 224 5 200 228 4 206 233 6 216 241 15 212 237 11 208 234 3 208 234 11 206 233 6 200 225 9 194 220 7 200 228 6 208 234 13 212 238 15 211 236 10 214 240 17 215 241 20 212 238 15 208 233 9 206 230 14 193 218 5 191 215 7 201 227 8 204 230 9 201 227 4 202 229 4 204 231 6 205 231 10 202 226 8 198 224 5 206 232 11 209 236 17 202 227 12 194 216 7 205 229 11 205 231 10 201 228 11 194 219 4 192 216 6 189 214 8 197 226 10 206 231 15 200 226 5 200 227 8 199 225 6 193 216 4 201 226 11 202 228 9 199 225 4 203 228 12 200 226 7 203 229 8 202 228 5 198 223 7 198 223 7 202 229 4 207 232 6 202 226 6 206 229 15 212 239 14 202 229 4 195 222 3 197 225 1 201 228 12 205 232 13 204 230 11 203 229 10 197 222 6 202 226 8 204 228 10 193 217 1 193 217 9 199 224 9 199 225 6 197 222 9 200 226 5 203 229 8 202 228 9 199 225 4 198 223 7 200 225 9 199 225 6 203 229 6 198 224 5 187 210 5 186 211 6 194 221 5 201 226 10 200 226 5 204 230 9 200 225 9 197 224 5 199 230 5 202 230 6 207 234 9 200 228 6 200 226 7 203 229 8 199 225 4 201 227 4 203 230 5 199 225 4 199 227 5 206 235 7 209 236 11 205 231 10 195 227 4 194 226 3 193 219 6 191 216 3 188 213 7 178 207 5 179 205 8 192 218 7 197 224 5 194 220 7 197 224 5 206 233 4 213 239 10 203 233 13 192 221 7 190 219 5 201 228 9 199 229 9 197 227 5 197 229 6 200 233 6 199 227 3 191 219 10 183 211 5 185 215 7 184 212 5 189 217 10 191 220 8 193 223 5 194 219 4 188 214 5 183 211 5 189 218 6 196 223 6 194 220 7 187 215 8 185 217 9 190 221 4 199 226 10 187 212 7 197 224 8 200 228 4 191 221 3 187 217 9 
192 221 7 196 227 2 196 226 4 200 228 6 206 234 9 199 230 5 184 213 7 174 202 4 190 216 7 195 226 8 193 222 8 197 227 9 187 216 4 187 216 0 195 225 5 193 223 3 193 222 8 192 221 7 184 214 6 188 217 11 191 222 5 189 219 11 182 210 4 192 221 7 202 233 8 203 234 6 197 229 4 195 227 2 200 230 8 203 230 11 189 218 4 190 219 5 203 235 14 213 239 10 206 233 4 197 224 5 194 220 7 197 224 5 192 218 7 179 205 8 178 207 5 188 213 7 191 216 3 193 219 6 194 226 3 195 227 4 205 231 10 209 236 11 206 235 7 199 227 5 199 225 4 203 230 5 201 227 4 199 225 4 203 229 8 200 226 7 200 228 6 207 234 9 202 230 6 199 230 5 197 224 5 200 225 9 204 230 9 200 226 5 201 226 10 194 221 5 186 211 6 187 210 5 198 224 5 203 229 6 199 225 6 200 225 9 198 223 7 199 225 4 202 228 9 203 229 8 200 226 5 197 222 9 199 225 6 199 224 9 193 217 9 193 217 1 204 228 10 202 226 8 197 222 6 203 229 10 204 230 11 205 232 13 201 228 12 197 225 1 195 222 3 202 229 4 212 239 14 206 229 15 202 226 6 207 232 6 202 229 4 198 223 7 198 223 7 202 228 5 203 229 8 200 226 7 203 228 12 199 225 4 202 228 9 201 226 11 193 216 4 199 225 6 200 227 8 200 226 5 206 231 15 197 226 10 189 214 8 192 216 6 194 219 4 201 228 11 205 231 10 205 229 11 194 216 7 202 227 12 209 236 17 206 232 11 198 224 5 202 226 8 205 231 10 204 231 6 202 229 4 201 227 4 204 230 9 201 227 8 191 215 7 193 218 5 206 230 14 208 233 9 212 238 15 215 241 20 214 240 17 211 236 10 212 238 15 208 234 13 200 228 6 194 220 7 200 225 9 206 233 6 208 234 11 208 234 3 212 237 11 216 241 15 206 233 6 200 228 4 197 224 5 198 223 7 205 229 11 203 229 10 197 220 8 197 220 8 201 226 10 206 233 8 209 234 10 204 230 9 206 233 8 204 232 8 204 233 5 206 234 9 203 229 8 198 224 5 206 231 8 215 242 15 210 237 10 209 235 12 207 233 10 205 232 5 209 238 10 202 230 8 197 225 1 203 231 7 209 236 9 202 235 6 196 228 5 189 217 8 188 216 9 188 217 5 187 212 6 191 216 10 194 219 13 194 224 6 205 233 8 205 233 11 199 227 5 199 226 9 202 230 8 200 231 5 202 233 7 209 237 15 204 234 14 200 230 8 190 219 7 187 213 4 197 224 7 
200 226 5 189 213 5 
208 231 39 211 235 19 210 237 12 206 234 10 202 230 6 208 236 12 213 241 19 210 237 10 202 231 1 207 235 10 209 235 14 207 233 12 208 234 11 207 233 14 198 224 11 197 224 7 195 222 5 190 216 5 193 220 4 195 222 6 197 224 7 202 230 6 210 237 10 209 236 9 206 233 8 204 230 9 207 233 10 207 232 16 210 234 14 205 229 9 205 228 14 204 229 14 199 220 3 193 215 6 195 220 7 195 222 5 199 224 8 199 225 6 202 228 7 199 225 4 206 232 9 208 234 13 200 224 4 197 223 4 202 228 7 205 230 6 207 233 10 208 234 13 206 232 13 203 229 8 206 232 9 210 237 12 212 238 7 215 241 10 204 229 6 198 223 7 198 225 6 193 217 9 191 216 3 196 222 3 198 225 8 207 233 12 204 231 4 205 230 4 200 225 9 201 227 6 205 231 8 204 230 7 202 228 7 193 218 3 194 218 8 200 227 10 203 228 4 202 228 9 202 228 7 204 230 7 204 228 10 204 228 10 197 223 4 196 221 5 195 222 3 200 225 10 199 225 4 201 226 3 197 222 9 197 223 4 196 221 6 190 214 6 195 220 7 206 233 6 199 225 4 198 222 6 206 232 11 201 225 7 194 217 3 201 225 9 207 233 12 198 224 3 198 224 1 203 229 8 201 227 4 202 228 9 203 229 10 210 236 13 212 238 9 210 234 14 210 235 12 211 236 12 206 233 8 194 220 7 189 215 6 202 229 12 212 238 17 203 229 6 205 232 7 209 234 10 207 232 9 202 227 4 199 223 5 185 206 7 191 213 6 201 227 6 198 223 7 192 215 10 194 219 6 201 225 5 202 226 6 199 224 8 197 223 0 197 223 4 207 233 12 205 232 7 197 223 2 198 223 7 200 225 9 201 228 9 204 225 6 200 225 9 198 225 8 200 225 9 212 237 14 207 232 6 203 229 6 207 233 10 204 230 9 197 222 6 205 229 9 203 226 12 201 226 11 201 227 8 200 228 6 202 233 5 210 239 9 208 234 15 200 225 9 201 232 7 200 232 9 196 228 7 186 216 6 182 211 5 186 216 4 194 223 7 205 233 11 198 225 9 190 218 9 187 216 4 193 219 6 199 223 7 190 220 8 185 215 5 196 225 9 205 232 13 199 227 5 202 233 7 203 234 9 198 226 4 190 219 3 183 211 2 191 220 6 191 222 7 185 213 7 181 209 3 192 221 9 197 227 7 191 219 10 189 219 9 188 219 4 187 217 5 192 223 8 194 223 7 184 214 2 181 214 9 192 221 9 208 236 12 202 228 9 193 220 4 197 226 10 193 222 6 189 218 2 
187 215 8 192 221 7 198 225 9 195 222 6 193 223 5 198 229 4 197 224 7 186 214 7 190 219 13 194 225 7 197 225 3 204 230 9 193 219 10 185 214 8 194 225 8 196 227 9 195 226 11 199 229 7 195 225 5 186 214 7 188 215 12 190 219 7 188 216 7 180 207 4 190 219 3 198 226 4 204 235 10 206 235 7 200 228 4 206 234 12 199 229 11 185 215 5 189 219 7 199 223 7 193 219 6 187 216 4 190 218 9 198 225 9 205 233 11 194 223 7 186 216 4 182 211 5 186 216 6 196 228 7 200 232 9 201 232 7 200 225 9 208 234 15 210 239 9 202 233 5 200 228 6 201 227 8 201 226 11 203 226 12 205 229 9 197 222 6 204 230 9 207 233 10 203 229 6 207 232 6 212 237 14 200 225 9 198 225 8 200 225 9 204 225 6 201 228 9 200 225 9 198 223 7 197 223 2 205 232 7 207 233 12 197 223 4 197 223 0 199 224 8 202 226 6 201 225 5 194 219 6 192 215 10 198 223 7 201 227 6 191 213 6 185 206 7 199 223 5 202 227 4 207 232 9 209 234 10 205 232 7 203 229 6 212 238 17 202 229 12 189 215 6 194 220 7 206 233 8 211 236 12 210 235 12 210 234 14 212 238 9 210 236 13 203 229 10 202 228 9 201 227 4 203 229 8 198 224 1 198 224 3 207 233 12 201 225 9 194 217 3 201 225 7 206 232 11 198 222 6 199 225 4 206 233 6 195 220 7 190 214 6 196 221 6 197 223 4 197 222 9 201 226 3 199 225 4 200 225 10 195 222 3 196 221 5 197 223 4 204 228 10 204 228 10 204 230 7 202 228 7 202 228 9 203 228 4 200 227 10 194 218 8 193 218 3 202 228 7 204 230 7 205 231 8 201 227 6 200 225 9 205 230 4 204 231 4 207 233 12 198 225 8 196 222 3 191 216 3 193 217 9 198 225 6 198 223 7 204 229 6 215 241 10 212 238 7 210 237 12 206 232 9 203 229 8 206 232 13 208 234 13 207 233 10 205 230 6 202 228 7 197 223 4 200 224 4 208 234 13 206 232 9 199 225 4 202 228 7 199 225 6 199 224 8 195 222 5 195 220 7 193 215 6 199 220 3 204 229 14 205 228 14 205 229 9 210 234 14 207 232 16 207 233 10 204 230 9 206 233 8 209 236 9 210 237 10 202 230 6 197 224 7 195 222 6 193 220 4 190 216 5 195 222 5 197 224 7 198 224 11 207 233 14 208 234 11 207 233 12 209 235 14 207 235 10 202 231 1 208 236 11 212 239 20 208 236 12 203 231 7 207 234 9 210 236 13 
211 235 19 204 226 21 
208 230 31 199 223 5 205 231 8 208 234 13 206 232 13 200 228 6 206 233 14 212 237 13 209 236 7 210 237 12 206 232 11 203 229 8 203 229 6 199 225 2 196 221 6 202 228 7 205 231 10 201 227 6 205 231 12 204 230 11 206 232 11 211 238 13 207 231 11 205 227 5 197 223 4 199 225 6 202 228 7 204 228 8 208 230 8 206 230 12 196 222 3 198 225 6 205 229 11 206 230 12 208 235 6 206 233 4 195 220 4 197 220 6 198 221 7 192 215 11 201 226 10 201 227 4 198 224 5 198 223 7 198 224 5 199 225 6 200 225 10 197 223 10 206 232 9 211 239 7 210 235 12 200 224 8 205 232 5 206 233 6 197 222 7 194 218 8 198 224 11 196 222 11 198 223 7 194 219 6 195 220 7 203 229 8 207 231 11 208 233 10 197 220 8 197 221 3 208 235 10 200 225 9 193 217 7 191 216 10 192 218 9 204 231 14 209 234 11 212 238 15 199 225 6 200 226 7 202 227 4 197 222 6 190 214 4 195 221 8 200 227 8 188 213 7 184 207 5 201 225 9 211 235 15 208 232 16 201 225 7 204 230 9 203 227 9 199 220 1 195 217 8 201 225 9 205 229 9 201 226 11 201 226 11 211 236 10 207 232 9 203 226 12 208 232 12 204 230 11 205 230 7 205 229 9 214 240 11 216 242 10 213 236 8 209 231 8 200 224 8 190 213 9 191 215 7 198 225 8 199 227 3 211 238 13 211 236 10 203 227 7 206 230 12 201 225 5 200 224 8 198 221 7 189 211 6 182 204 7 191 214 9 194 219 4 190 213 8 194 218 10 193 218 5 192 216 8 197 222 7 199 224 8 196 221 5 195 221 2 204 230 7 207 234 5 204 231 4 201 226 10 200 225 10 203 230 3 203 230 3 206 232 13 203 229 8 212 239 12 214 239 16 200 224 4 203 227 9 200 224 8 192 217 4 192 215 10 200 226 7 208 235 10 210 236 13 199 226 7 206 234 12 210 238 14 199 229 9 194 221 5 198 223 8 198 225 8 199 228 12 195 226 8 190 218 9 190 218 9 202 230 8 204 232 10 199 226 9 190 219 7 188 218 10 190 220 10 191 220 8 194 220 7 198 224 11 196 223 6 201 228 11 200 227 10 203 231 7 204 236 5 197 227 5 187 216 4 188 217 5 193 222 10 200 232 11 196 227 10 189 217 8 189 218 6 194 223 7 199 229 9 197 229 6 192 223 8 197 227 5 197 228 2 193 224 7 192 221 9 185 213 6 182 215 4 191 221 11 198 225 6 197 222 9 190 219 3 192 221 9 193 221 12 
195 221 12 192 218 5 195 222 6 206 233 8 201 227 8 195 221 10 201 228 12 199 226 9 188 216 7 185 215 7 190 219 7 196 221 6 210 236 13 212 241 13 205 234 6 198 225 6 194 220 7 192 223 5 196 226 8 201 231 11 193 223 3 189 217 8 197 226 10 203 233 11 194 223 7 187 216 2 185 215 5 198 228 8 206 238 7 204 232 7 200 227 8 200 230 10 196 223 6 198 223 10 194 220 7 191 220 8 190 220 10 188 218 10 190 219 7 199 226 9 204 232 10 202 230 8 190 218 9 190 218 9 195 226 8 199 228 12 198 225 8 198 223 8 194 221 5 199 229 9 210 238 14 206 234 12 199 226 7 210 236 13 208 235 10 200 226 7 192 215 10 192 217 4 200 224 8 203 227 9 200 224 4 214 239 16 212 239 12 203 229 8 206 232 13 203 230 3 203 230 3 200 225 10 201 226 10 204 231 4 207 234 5 204 230 7 195 221 2 196 221 5 199 224 8 197 222 7 192 216 8 193 218 5 194 218 10 190 213 8 194 219 4 191 214 9 182 204 7 189 211 6 198 221 7 200 224 8 201 225 5 206 230 12 203 227 7 211 236 10 211 238 13 199 227 3 198 225 8 191 215 7 190 213 9 200 224 8 209 231 8 213 236 8 216 242 10 214 240 11 205 229 9 205 230 7 204 230 11 208 232 12 203 226 12 207 232 9 211 236 10 201 226 11 201 226 11 205 229 9 201 225 9 195 217 8 199 220 1 203 227 9 204 230 9 201 225 7 208 232 16 211 235 15 201 225 9 184 207 5 188 213 7 200 227 8 195 221 8 190 214 4 197 222 6 202 227 4 200 226 7 199 225 6 212 238 15 209 234 11 204 231 14 192 218 9 191 216 10 193 217 7 200 225 9 208 235 10 197 221 3 197 220 8 208 233 10 207 231 11 203 229 8 195 220 7 194 219 6 198 223 7 196 222 11 198 224 11 194 218 8 197 222 7 206 233 6 205 232 5 200 224 8 210 235 12 211 239 7 206 232 9 197 223 10 200 225 10 199 225 6 198 224 5 198 223 7 198 224 5 201 227 4 201 226 10 192 215 11 198 221 7 197 220 6 195 220 4 206 233 4 208 235 6 206 230 12 205 229 11 198 225 6 196 222 3 206 230 12 208 230 8 204 228 8 202 228 7 199 225 6 197 223 4 205 227 5 207 231 11 211 238 13 206 232 11 204 230 11 205 231 12 201 227 6 205 231 10 202 228 7 196 221 6 199 225 2 203 229 6 203 229 8 206 232 11 210 237 12 209 236 7 211 237 14 207 233 14 202 228 5 206 232 13 
209 235 12 206 231 8 199 223 5 203 226 12 
204 229 26 206 232 11 208 235 10 205 233 9 208 234 11 200 227 2 200 226 5 206 231 8 207 231 13 206 231 7 202 228 7 200 226 7 199 225 6 200 227 2 206 232 11 209 235 14 211 237 8 211 236 10 204 227 13 195 220 4 200 225 10 207 233 12 203 229 8 199 223 3 193 217 9 196 221 8 199 226 7 203 231 6 207 233 10 209 232 18 203 229 8 202 227 11 203 231 9 203 229 8 203 228 5 202 223 6 193 215 6 196 221 6 207 233 12 207 233 12 209 235 12 204 230 7 196 221 5 195 220 7 193 217 9 195 220 7 206 233 8 211 240 10 213 239 7 213 238 14 208 232 14 193 218 2 199 226 9 205 233 11 205 231 12 199 221 12 205 233 9 207 235 10 205 231 8 204 228 12 204 228 8 214 240 9 215 241 12 206 228 6 199 223 7 198 222 6 209 236 11 202 228 9 190 216 3 195 221 8 201 229 5 204 233 5 204 227 13 201 225 15 194 217 13 189 212 7 194 219 3 198 223 7 195 222 6 200 227 8 195 221 8 184 209 3 190 214 4 196 218 9 197 216 10 191 209 9 189 211 6 198 223 10 194 218 8 194 216 11 193 215 6 208 234 15 211 235 15 202 227 4 208 233 17 213 238 12 209 235 6 211 235 19 210 234 16 213 238 15 210 235 11 208 232 14 212 235 5 204 226 4 193 212 9 188 206 6 182 203 2 179 201 4 191 217 8 195 222 6 197 222 6 208 235 10 203 227 9 189 211 4 192 214 7 195 219 9 196 221 8 189 212 7 180 205 2 186 211 6 194 220 7 200 226 13 191 219 12 192 218 9 189 214 9 196 221 8 203 229 8 203 229 6 199 224 9 197 223 10 204 231 15 206 233 16 199 224 9 193 218 3 197 223 4 205 231 10 211 240 10 206 233 8 210 232 9 214 239 13 195 222 5 185 213 6 190 219 7 193 218 5 187 212 6 188 213 8 202 230 8 204 232 8 194 221 5 192 218 7 201 226 10 199 224 11 200 224 8 200 224 8 197 222 7 198 225 9 198 228 8 185 215 3 185 214 2 200 226 7 200 225 9 198 223 8 196 222 9 196 225 9 192 219 2 202 230 8 203 232 4 201 229 5 205 233 8 197 229 8 200 231 13 199 230 5 205 231 8 197 222 7 187 216 4 183 212 6 187 216 4 192 221 7 197 229 6 195 227 6 189 218 4 192 221 7 196 225 9 201 232 6 206 233 6 205 233 11 208 235 8 205 232 7 197 227 5 193 222 6 186 214 7 180 212 4 183 218 4 194 220 7 188 217 5 186 219 8 191 221 11 186 214 7 187 218 1 
188 213 10 184 209 4 197 227 7 210 239 11 208 235 6 208 235 10 202 230 8 193 220 4 189 213 3 189 215 4 194 220 7 205 231 8 206 233 6 214 240 8 215 238 12 204 229 6 205 234 6 201 233 8 200 232 11 196 228 5 185 215 5 194 224 6 200 231 6 194 223 9 186 216 6 183 211 5 187 216 4 196 223 7 204 232 8 200 231 6 200 231 13 196 228 5 205 234 6 201 229 5 203 232 4 202 230 8 192 219 2 196 225 9 196 222 9 198 223 8 200 225 9 200 226 7 185 214 2 185 215 3 198 228 8 198 225 9 197 222 7 200 224 8 200 224 8 199 224 11 201 226 10 192 218 7 194 221 5 204 232 8 202 230 8 188 213 8 187 212 6 193 218 5 190 219 7 185 213 6 195 222 5 214 239 13 210 232 9 206 233 8 211 240 10 205 231 10 197 223 4 193 218 3 199 224 9 206 233 16 204 231 15 197 223 10 199 224 9 203 229 6 203 229 8 196 221 8 189 214 9 192 218 9 191 219 12 200 226 13 194 220 7 186 211 6 180 205 2 189 212 7 196 221 8 195 219 9 192 214 7 189 211 4 203 227 9 208 235 10 197 222 6 195 222 6 191 217 8 179 201 4 182 203 2 188 206 6 193 212 9 204 226 4 212 235 5 208 232 14 210 235 11 213 238 15 210 234 16 211 235 19 209 235 6 213 238 12 208 233 17 202 227 4 211 235 15 208 234 15 193 215 6 194 216 11 194 218 8 198 223 10 189 211 6 191 209 9 197 216 10 196 218 9 190 214 4 184 209 3 195 221 8 200 227 8 195 222 6 198 223 7 194 219 3 189 212 7 194 217 13 201 225 15 204 227 13 204 233 5 201 229 5 195 221 8 190 216 3 202 228 9 209 236 11 198 222 6 199 223 7 206 228 6 215 241 12 214 240 9 204 228 8 204 228 12 205 231 8 207 235 10 205 233 9 199 221 12 205 231 12 205 233 11 199 226 9 193 218 2 208 232 14 213 238 14 213 239 7 211 240 10 206 233 8 195 220 7 193 217 9 195 220 7 196 221 5 204 230 7 209 235 12 207 233 12 207 233 12 196 221 6 193 215 6 202 223 6 203 228 5 203 229 8 203 231 9 202 227 11 203 229 8 209 232 18 207 233 10 203 231 6 199 226 7 196 221 8 193 217 9 199 223 3 203 229 8 207 233 12 200 225 10 195 220 4 204 227 13 211 236 10 211 237 8 209 235 14 206 232 11 200 227 2 199 225 6 200 226 7 202 228 7 206 231 7 207 231 13 206 231 8 200 226 5 201 228 3 207 235 13 206 232 9 207 234 9 
207 232 9 201 225 7 
208 230 33 206 232 11 206 231 8 206 230 10 206 231 7 204 229 6 209 234 11 207 231 11 206 231 7 203 229 6 200 226 5 204 228 8 198 221 9 191 214 9 193 218 5 198 223 10 199 224 8 198 222 6 193 215 8 198 223 10 196 223 6 196 220 10 196 221 8 196 223 7 198 225 6 201 227 8 205 230 7 202 230 6 200 231 5 203 228 12 192 214 9 190 213 9 194 221 5 200 224 8 205 228 14 205 229 9 200 225 12 204 230 9 208 232 12 206 231 8 207 231 11 203 228 12 200 226 7 197 224 8 191 220 6 199 226 10 203 229 6 199 223 7 198 222 6 196 220 10 198 223 10 199 224 11 199 224 9 208 235 10 205 230 6 201 225 7 200 225 9 200 224 6 195 217 8 193 216 4 203 227 7 212 237 11 206 233 6 204 229 16 204 229 14 199 224 9 202 228 7 191 216 1 186 209 7 192 216 6 198 223 7 198 223 8 200 225 9 194 218 10 192 216 8 193 218 5 201 227 6 197 221 11 189 212 7 194 221 5 198 223 8 205 231 10 207 234 7 199 224 8 188 212 4 192 215 10 196 219 15 193 218 5 198 223 10 204 229 5 203 229 10 205 231 8 202 226 8 204 229 3 203 228 13 206 226 15 197 220 8 189 212 7 196 221 5 200 224 14 192 216 6 200 225 9 200 224 4 195 215 4 191 215 7 190 215 10 185 210 4 182 206 6 189 215 4 199 224 11 204 228 8 203 228 5 189 213 3 180 204 4 182 206 6 193 219 10 197 222 9 192 216 6 194 219 4 203 230 11 209 237 15 206 233 8 201 227 8 202 228 7 203 229 10 200 224 14 196 221 6 196 222 3 198 224 11 202 230 8 199 227 3 200 226 5 198 223 8 201 228 9 193 220 3 191 217 4 190 216 7 190 215 2 197 221 11 193 216 11 184 208 8 189 217 10 192 218 7 193 219 6 200 227 10 207 236 8 213 242 12 209 235 12 204 230 7 201 226 10 192 218 7 198 226 4 211 236 10 212 237 11 202 228 7 200 227 10 196 223 7 189 218 2 193 222 10 195 224 8 196 226 8 199 231 6 202 233 7 200 228 6 199 232 3 202 235 8 197 228 3 198 228 6 188 219 4 191 220 8 201 228 9 196 226 6 190 221 6 187 219 11 191 222 7 191 220 4 194 223 7 196 226 8 196 226 8 197 224 8 191 218 2 191 215 5 193 216 11 198 225 6 203 228 5 205 230 7 207 232 8 207 233 12 203 231 9 193 223 5 193 222 8 195 225 5 186 219 6 185 215 7 184 212 5 183 213 5 188 221 10 193 224 6 194 226 5 
192 226 7 186 215 3 183 210 7 196 223 6 199 225 4 196 221 6 198 223 8 194 221 4 192 218 9 190 215 9 193 217 9 192 216 6 196 222 9 201 229 4 206 232 13 201 227 8 203 232 4 203 230 14 195 221 10 189 215 2 185 213 4 193 222 8 199 230 5 198 228 6 193 224 9 192 221 9 192 223 8 188 217 11 190 220 8 198 228 8 201 228 9 191 220 8 188 219 4 198 228 6 197 228 3 202 235 8 199 232 3 200 228 6 202 233 7 199 231 6 196 226 8 195 224 8 193 222 10 189 218 2 196 223 7 200 227 10 202 228 7 212 237 11 211 236 10 198 226 4 192 218 7 201 226 10 204 230 7 209 235 12 213 242 12 207 236 8 200 227 10 193 219 6 192 218 7 189 217 10 184 208 8 193 216 11 197 221 11 190 215 2 190 216 7 191 217 4 193 220 3 201 228 9 198 223 8 200 226 5 199 227 3 202 230 8 198 224 11 196 222 3 196 221 6 200 224 14 203 229 10 202 228 7 201 227 8 206 233 8 209 237 15 203 230 11 194 219 4 192 216 6 197 222 9 193 219 10 182 206 6 180 204 4 189 213 3 203 228 5 204 228 8 199 224 11 189 215 4 182 206 6 185 210 4 190 215 10 191 215 7 195 215 6 200 224 4 200 225 9 193 217 9 199 223 13 197 222 7 189 212 7 196 219 7 202 227 14 204 227 13 206 228 5 204 225 6 204 230 7 203 229 8 203 229 6 198 223 10 194 216 7 196 220 12 192 215 10 189 212 7 199 225 6 208 235 8 205 231 10 198 223 10 194 219 6 189 213 5 197 222 9 200 228 6 194 219 6 192 213 10 196 219 7 199 224 8 199 222 8 197 224 7 193 218 5 187 209 4 192 214 5 202 227 12 199 224 8 204 229 14 204 229 16 206 233 6 212 237 11 203 227 7 193 216 4 195 217 8 200 224 6 200 225 9 201 225 7 205 230 6 208 235 10 199 224 9 199 224 11 198 223 10 196 220 10 198 222 6 199 223 7 203 229 6 199 226 10 191 220 6 197 224 8 200 226 7 203 228 12 207 231 11 206 231 8 208 232 12 204 230 9 200 225 12 205 229 9 205 228 14 200 224 8 194 221 5 190 213 9 192 214 9 203 228 12 200 231 5 202 230 6 205 230 7 201 227 8 198 225 6 196 223 7 196 221 8 196 220 10 196 223 6 198 223 10 193 215 8 198 222 6 199 224 8 198 223 10 193 218 5 191 214 9 198 221 9 204 228 8 200 226 5 203 229 6 206 231 7 206 232 11 210 232 10 205 229 9 205 232 5 206 230 10 206 231 8 
207 232 9 205 225 12 
205 229 29 203 229 10 204 230 11 202 228 7 205 231 10 211 236 12 209 234 8 206 231 5 199 225 4 196 222 3 198 224 3 201 227 4 196 221 5 191 217 6 193 219 6 201 226 11 194 221 5 193 216 11 198 223 10 196 223 6 197 222 6 208 233 10 209 234 11 200 226 7 201 227 4 204 230 9 201 226 11 202 230 6 200 228 4 199 223 7 193 217 9 197 222 6 205 230 6 208 235 6 209 236 11 205 230 7 198 221 9 196 221 6 200 225 12 200 226 7 203 227 17 199 223 13 190 216 7 191 215 5 193 218 5 199 224 11 194 219 6 198 223 8 205 231 12 205 231 12 202 228 9 202 228 7 201 227 8 201 226 10 199 224 9 194 219 6 199 223 13 199 225 6 198 223 7 195 219 9 200 226 5 202 226 6 196 219 5 197 217 8 194 219 4 199 224 11 200 225 10 197 222 7 198 224 3 197 222 7 197 222 7 201 226 11 203 227 9 196 221 8 189 212 7 197 221 11 200 225 10 194 218 8 196 221 8 200 228 6 208 233 9 211 236 13 200 224 4 200 222 13 205 228 16 205 231 8 205 231 12 206 232 13 204 229 13 202 226 8 196 221 8 196 221 6 204 228 8 197 222 6 189 214 9 200 223 11 199 224 8 198 223 8 204 230 9 202 228 7 203 229 8 204 228 10 203 227 11 201 221 12 195 220 5 197 222 6 194 221 5 197 224 5 205 231 8 212 239 14 205 230 7 202 226 10 198 221 9 189 213 5 194 219 4 203 229 8 208 235 10 197 220 6 194 219 4 202 229 10 200 224 6 198 221 9 195 217 8 200 226 5 205 231 12 199 222 18 194 217 12 198 223 8 199 226 7 196 221 6 191 216 3 199 224 8 206 231 16 198 223 8 186 212 3 188 214 5 198 224 15 204 232 10 206 232 13 198 225 8 194 220 7 192 221 5 195 222 6 206 232 13 207 233 14 205 231 8 205 232 3 203 230 5 205 231 8 204 229 13 196 221 6 201 229 5 214 240 11 206 229 15 190 215 0 192 217 2 193 217 7 200 228 6 201 228 9 195 222 6 196 220 10 198 225 6 201 231 9 194 223 9 195 222 3 198 228 8 190 221 6 182 211 5 187 216 2 192 221 5 193 224 7 191 220 8 186 214 8 192 220 11 198 229 11 193 225 4 192 224 3 193 223 5 195 225 3 190 219 7 184 212 6 190 216 5 191 217 8 189 217 8 185 210 4 186 211 5 192 218 5 200 227 8 206 232 13 203 229 8 202 228 7 202 228 7 195 222 6 187 217 7 180 209 5 176 204 5 180 209 5 188 222 4 194 225 7 
192 215 13 185 213 6 186 214 7 192 221 7 193 223 3 197 224 8 202 229 10 195 224 12 190 218 12 189 218 6 184 212 6 179 204 1 185 211 2 202 229 10 203 229 10 197 222 6 196 223 6 194 223 11 194 221 5 187 212 6 178 205 4 189 218 6 199 226 7 197 224 5 196 224 2 193 226 0 199 231 10 192 221 7 186 214 7 190 219 7 193 224 7 192 221 5 186 215 3 182 211 5 190 221 6 198 228 8 195 222 3 194 223 9 201 231 9 198 225 6 196 220 10 195 222 6 201 228 9 200 228 6 193 217 7 192 217 2 190 215 0 206 229 15 214 240 11 201 229 5 196 221 6 204 229 13 205 231 8 203 230 5 205 232 3 205 231 8 207 233 14 206 232 13 195 222 6 192 221 5 194 220 7 198 225 8 206 232 13 204 232 10 198 224 15 188 214 5 186 212 3 198 223 8 206 231 16 199 224 8 191 216 3 196 221 6 199 226 7 198 223 8 194 217 12 199 222 18 205 231 12 200 226 5 195 217 8 198 221 9 200 224 6 202 229 10 194 219 4 197 220 6 208 235 10 203 229 8 194 219 4 189 213 5 198 221 9 202 226 10 205 230 7 212 239 14 205 231 8 197 224 5 194 221 5 197 222 6 195 220 5 201 221 12 202 226 10 205 229 11 204 228 8 203 229 8 204 230 9 199 224 9 199 224 8 202 222 9 191 214 9 196 221 6 204 230 11 196 221 5 196 219 7 204 225 8 205 230 15 206 232 11 204 230 11 205 231 10 205 227 18 200 222 17 200 224 4 212 237 11 209 234 11 197 230 3 193 219 6 196 218 11 201 224 10 197 222 9 190 213 8 195 220 7 202 227 11 201 227 14 199 222 8 195 220 7 198 225 8 196 222 9 199 224 8 197 222 6 195 220 7 197 217 8 196 219 5 202 226 6 200 226 5 195 219 9 198 223 7 199 225 6 199 223 13 194 219 6 199 224 9 201 226 10 201 227 8 202 228 7 202 228 9 205 231 12 205 231 12 198 223 8 194 219 6 199 224 11 193 218 5 191 215 5 190 216 7 199 223 13 203 227 17 200 226 7 200 225 12 196 221 6 198 221 9 205 230 7 209 236 11 208 235 6 205 230 6 197 222 6 193 217 9 199 223 7 200 228 4 202 230 6 201 226 11 204 230 9 201 227 4 200 226 7 209 234 11 208 233 10 197 222 6 196 223 6 198 223 10 193 216 11 194 221 5 201 226 11 193 219 6 191 217 6 196 221 5 201 227 4 198 224 3 196 222 3 199 225 4 205 232 5 209 234 8 210 236 13 205 231 10 203 229 8 
204 230 11 203 229 8 202 226 10 
206 231 25 204 232 8 204 232 10 208 235 10 207 233 12 203 230 5 201 228 3 199 225 6 197 223 4 201 228 11 209 237 13 206 233 4 203 230 5 199 226 7 203 229 8 205 232 7 200 226 3 197 222 9 194 219 6 196 223 7 208 235 10 207 232 8 194 216 7 190 214 4 198 223 7 199 224 9 197 224 8 204 231 14 203 227 7 199 223 7 199 225 6 203 229 6 209 233 13 208 234 11 200 226 7 195 218 6 191 215 7 190 218 9 202 228 17 203 227 9 195 220 7 187 210 6 187 211 13 202 227 14 214 238 20 209 234 8 208 235 10 209 237 15 211 237 18 210 236 17 202 228 7 199 225 2 200 226 5 198 224 3 202 228 5 200 225 10 198 221 9 196 220 10 195 222 6 191 217 6 201 228 12 196 222 11 187 210 6 195 218 4 195 219 11 196 221 5 194 218 8 199 224 8 198 223 7 201 225 9 210 234 14 208 234 5 208 233 9 200 224 6 189 212 10 196 218 13 203 226 14 202 226 8 204 231 6 213 240 13 218 241 13 212 234 11 199 223 7 200 222 15 214 237 25 205 230 7 202 227 4 198 222 4 195 218 4 198 221 9 199 225 6 198 223 7 203 227 11 196 219 15 200 226 17 206 232 9 203 229 8 200 228 4 198 225 9 202 227 11 202 226 6 206 232 3 213 234 15 213 233 20 206 230 10 202 228 7 199 224 8 203 229 6 204 230 7 208 232 16 201 223 14 202 227 11 200 224 4 191 214 10 196 220 10 199 224 9 190 212 7 188 209 20 191 213 14 193 219 8 187 215 8 187 211 11 195 222 5 204 230 7 205 229 11 198 223 7 200 226 7 203 231 6 202 227 14 205 231 12 203 229 8 205 232 3 203 229 6 199 224 8 198 223 7 200 226 7 206 234 10 208 236 11 210 238 16 201 229 7 198 225 6 202 230 8 210 237 12 211 238 11 206 231 7 202 228 9 201 227 4 207 233 10 207 233 14 195 220 7 190 215 2 199 225 6 208 234 13 195 218 13 185 210 7 187 212 6 189 215 6 201 228 9 198 224 11 187 213 4 195 220 5 205 231 12 198 224 11 189 215 6 199 225 6 196 226 8 187 220 7 192 221 7 207 235 13 204 235 7 198 230 7 196 225 11 189 214 8 202 229 13 199 229 11 191 222 4 188 218 6 189 220 5 184 214 6 175 203 5 181 211 3 191 220 6 190 218 9 190 221 4 187 216 4 184 214 6 188 218 8 190 218 9 186 211 6 192 216 8 199 224 8 194 221 5 192 219 3 193 224 7 202 234 11 205 231 10 190 213 8 
186 216 6 197 229 6 198 223 7 194 221 5 190 216 5 193 219 6 191 217 6 188 216 7 198 228 10 201 229 7 200 227 11 188 216 9 184 213 11 177 206 4 185 213 7 199 226 7 197 223 10 195 221 8 191 221 1 189 220 5 191 220 4 190 219 5 178 207 3 175 203 5 185 215 5 190 221 3 184 217 6 189 223 4 201 231 11 203 230 14 189 214 8 194 225 8 199 231 6 204 235 7 207 235 11 192 221 7 187 220 7 196 226 8 199 225 6 189 215 6 198 224 11 205 231 12 195 220 5 187 213 4 198 224 11 201 228 9 189 215 6 187 212 6 185 210 7 195 218 13 208 234 13 199 225 6 190 215 2 195 220 7 207 233 14 207 233 10 201 227 4 202 228 9 206 231 7 211 238 11 210 237 12 202 230 8 198 225 6 201 229 7 210 238 16 208 236 11 206 234 10 200 226 7 198 223 7 199 224 8 203 229 6 205 232 3 203 229 8 205 231 12 202 227 14 203 231 6 200 226 7 198 223 7 205 229 11 204 230 7 195 222 5 187 211 11 187 215 8 193 219 8 191 213 14 188 209 20 190 212 7 199 224 9 196 220 10 191 214 10 200 224 4 202 227 11 201 223 14 208 232 16 204 230 7 203 229 6 199 224 8 202 228 7 206 230 10 213 233 20 211 235 15 206 232 3 203 227 7 202 226 10 199 224 9 199 227 3 203 229 8 204 232 8 199 227 21 193 221 12 201 227 6 198 222 6 202 222 9 198 221 7 193 220 4 198 222 6 201 226 2 205 229 9 213 235 26 202 221 15 200 221 6 212 235 9 218 241 13 213 240 15 204 231 6 201 226 3 202 225 11 195 218 14 187 212 6 201 225 7 210 232 10 207 233 10 212 233 16 201 225 7 197 223 4 200 226 7 194 220 7 196 223 7 194 218 10 195 218 4 187 210 6 196 222 11 201 228 12 191 217 6 195 222 6 196 220 10 198 221 9 200 225 10 202 228 5 198 224 3 200 226 5 199 225 2 202 228 7 210 236 17 211 237 18 209 237 15 208 235 10 209 234 8 214 238 20 202 227 14 187 211 13 187 210 6 195 220 7 203 227 9 202 228 17 190 218 9 191 215 7 195 218 6 200 226 7 208 234 11 209 233 13 203 229 6 199 225 6 199 223 7 203 227 7 204 231 14 197 224 8 199 224 9 198 223 7 190 214 4 194 216 7 207 232 8 208 235 10 196 223 7 194 219 6 197 222 9 200 226 3 205 232 7 203 229 8 199 226 7 203 230 5 206 233 4 209 237 13 201 228 11 197 223 4 199 225 4 201 228 3 203 230 5 
207 233 12 208 235 10 205 233 11 203 231 7 204 226 4 
207 230 28 205 232 7 209 236 7 209 236 9 200 225 10 199 224 9 201 226 10 194 219 4 196 221 6 207 233 14 205 232 5 202 228 7 198 222 6 201 227 6 200 224 6 198 222 6 202 222 9 196 219 7 191 215 5 204 229 16 205 230 14 197 220 6 195 220 5 195 222 6 192 216 8 191 215 5 193 219 6 197 222 6 195 219 3 195 218 13 194 221 5 194 219 6 196 216 7 188 211 6 186 211 6 196 220 12 196 221 6 187 210 5 191 216 10 196 220 10 199 222 10 193 217 7 196 220 10 207 233 14 209 235 12 204 229 5 212 236 16 212 236 16 206 233 6 206 232 11 205 229 9 203 227 7 202 226 6 196 221 6 198 222 12 199 224 8 196 220 4 202 228 5 199 225 6 190 215 12 196 221 18 199 225 12 196 222 9 204 232 10 211 237 16 212 238 17 198 223 7 196 221 5 197 223 4 202 226 8 215 240 17 213 239 10 212 234 11 207 231 13 202 225 13 201 225 7 200 224 4 201 225 9 205 228 16 211 233 24 203 226 14 196 219 5 192 214 7 197 220 6 206 231 8 199 223 5 205 229 13 208 232 12 201 225 9 207 232 9 207 232 9 205 228 16 200 223 9 197 222 9 206 232 11 206 231 8 207 233 10 204 230 7 201 227 8 203 226 12 212 234 12 205 229 11 202 224 2 200 221 4 194 216 9 190 212 5 201 227 8 202 226 8 195 217 8 196 220 4 205 229 11 200 225 9 196 221 8 191 215 7 192 216 6 189 212 7 186 209 7 187 209 10 191 216 11 188 215 12 178 210 5 186 216 6 202 230 5 205 229 11 209 232 18 202 227 4 203 229 10 199 227 3 203 228 15 203 228 12 198 223 8 198 224 3 199 225 6 198 223 8 192 216 6 191 215 5 193 218 3 201 227 6 200 226 5 200 226 7 204 231 4 211 236 21 210 234 14 206 231 5 198 222 4 196 219 5 197 223 2 202 228 7 195 220 7 188 212 4 193 217 7 197 223 4 197 225 3 193 220 1 194 220 9 197 224 7 205 233 11 210 238 14 207 235 13 201 229 5 201 229 4 202 228 9 195 219 9 197 222 7 199 227 2 193 223 5 195 225 13 196 224 2 200 228 4 198 226 2 191 220 6 188 216 9 185 213 4 203 230 11 195 225 5 190 219 7 191 222 7 194 224 4 190 218 9 183 212 10 190 219 7 193 223 5 192 221 7 194 223 11 196 220 10 195 222 6 196 223 6 192 218 5 175 198 2 176 197 6 189 214 8 187 212 6 183 208 3 194 220 7 201 228 11 207 234 15 195 221 8 177 204 5 
183 207 7 194 220 9 196 223 4 201 227 8 203 229 10 196 220 10 190 216 3 194 223 9 197 224 5 204 230 9 199 224 9 190 219 7 179 206 5 185 210 7 197 224 7 196 226 4 187 217 7 181 208 5 190 218 12 191 220 8 196 223 7 192 221 7 186 216 8 189 219 7 193 224 6 189 220 5 188 218 6 196 226 6 203 230 11 186 211 5 187 215 8 192 221 7 198 226 4 200 228 4 196 224 2 195 225 13 193 223 5 199 227 2 197 222 7 195 219 9 202 228 9 201 229 4 201 229 5 207 235 13 210 238 14 205 233 11 197 224 7 194 220 9 193 220 1 197 225 3 197 223 4 193 217 7 188 212 4 195 220 7 202 228 7 197 223 2 196 219 5 198 222 4 206 231 5 210 234 14 211 236 21 204 231 4 200 226 7 200 226 5 201 227 6 193 218 3 191 215 5 192 216 6 198 223 8 199 225 6 198 224 3 198 223 8 203 228 12 203 228 15 199 227 3 203 229 10 202 227 4 209 232 18 205 229 11 202 230 5 186 216 6 178 210 5 188 215 12 191 216 11 187 209 10 186 209 7 189 212 7 192 216 6 191 215 7 196 221 8 200 225 9 205 229 11 196 220 4 195 217 8 202 226 8 201 227 8 190 212 5 194 216 9 200 221 4 201 226 3 205 229 11 213 235 13 203 226 12 201 227 8 204 230 7 207 233 10 207 229 7 207 233 14 198 223 8 199 224 9 204 229 13 206 231 8 206 231 8 201 226 10 208 232 14 204 228 10 198 224 5 205 231 10 197 222 7 192 214 7 198 218 5 205 225 12 211 233 26 204 228 12 201 225 9 201 225 5 201 227 6 201 226 13 207 231 13 210 235 11 215 241 12 215 240 17 201 225 7 199 223 7 197 221 5 198 224 3 211 237 16 212 236 16 204 232 10 196 222 9 199 225 12 196 221 18 190 215 12 199 225 6 202 228 5 196 220 4 199 224 8 198 222 12 196 221 6 202 226 6 203 227 7 205 229 9 206 232 11 206 233 6 212 236 16 212 236 16 204 229 5 209 235 12 207 233 14 196 220 10 193 217 7 199 222 10 196 220 10 191 216 10 187 210 5 196 221 6 196 220 12 186 211 6 188 211 6 196 216 7 194 219 6 194 221 5 195 218 13 195 219 3 197 222 6 193 219 6 191 215 5 192 216 8 195 222 6 195 220 5 197 220 6 205 230 14 204 229 16 191 215 5 196 219 7 202 222 9 198 222 6 200 224 6 201 227 6 198 222 6 202 228 7 205 232 5 207 233 14 196 221 6 194 219 4 201 227 8 199 226 10 201 226 11 
209 234 8 209 238 8 205 232 5 204 223 7 
212 233 32 204 229 6 207 233 12 200 225 12 196 222 13 200 226 15 197 224 5 196 223 7 204 230 11 210 238 16 204 231 6 200 224 6 198 222 6 200 224 6 201 225 7 205 227 5 205 226 9 193 215 6 190 214 6 199 224 9 202 225 13 207 229 22 198 223 7 192 219 0 193 219 10 196 223 6 206 232 9 205 230 7 196 223 4 199 227 5 205 230 15 207 231 11 202 226 8 194 218 10 192 216 6 196 221 8 201 227 6 205 229 13 205 229 11 209 234 18 210 234 16 208 232 16 208 233 10 204 229 6 205 231 12 211 235 19 209 234 10 209 231 8 199 224 8 205 231 12 207 231 11 204 228 10 200 223 11 195 220 7 201 225 15 199 224 9 199 226 10 199 224 9 190 213 11 198 222 14 206 232 11 203 230 3 200 225 10 206 232 11 212 238 9 203 227 9 190 215 2 194 218 8 202 227 11 207 232 16 215 239 23 207 232 8 201 225 5 201 225 7 200 226 5 193 216 4 193 215 6 198 220 13 197 219 12 197 221 11 201 225 15 195 219 9 191 215 7 197 222 7 204 230 9 210 235 12 212 237 14 205 229 9 197 218 15 197 220 8 199 223 5 201 225 7 202 223 4 210 234 14 207 231 11 196 216 5 198 222 6 199 223 5 204 229 6 214 236 14 211 233 10 197 221 5 200 224 4 200 220 7 194 218 2 199 223 7 205 229 13 201 225 5 199 223 5 209 234 11 210 235 11 198 223 8 198 224 5 199 225 6 200 226 5 196 222 3 187 210 6 187 212 6 197 224 8 192 222 4 193 217 7 208 235 8 208 233 9 203 227 11 198 222 6 197 220 8 192 216 8 189 212 7 188 211 7 186 210 2 193 218 5 202 228 7 202 228 5 195 221 2 192 216 8 192 216 6 197 220 6 209 234 10 207 233 4 207 233 10 211 239 7 208 234 13 204 230 7 202 227 4 202 228 9 203 229 8 204 230 7 201 228 9 199 226 9 194 219 4 187 213 4 189 215 6 194 219 6 200 226 7 207 233 10 212 240 8 214 239 13 209 234 10 208 234 11 196 221 5 184 210 1 186 216 8 188 217 3 198 226 4 201 227 6 198 224 3 198 225 6 193 222 8 197 222 6 202 230 8 198 228 6 190 219 5 195 222 5 199 226 7 200 227 8 194 223 7 199 229 7 203 234 6 199 229 11 194 223 7 197 227 5 199 229 9 199 226 9 194 222 13 198 225 8 201 229 5 201 229 4 201 229 7 192 221 9 182 212 4 188 218 6 192 222 12 192 221 9 193 220 3 199 225 6 203 231 9 206 235 5 200 227 10 
186 211 8 188 216 10 193 222 8 193 223 3 202 229 12 207 235 13 205 232 13 204 232 10 200 227 8 201 229 5 204 232 10 207 234 15 198 224 5 194 218 8 197 224 5 194 226 3 202 233 8 194 219 4 186 215 13 200 230 10 203 233 11 199 229 9 197 227 9 200 230 8 205 234 6 201 231 9 195 224 8 199 226 7 199 227 5 195 222 5 192 218 5 198 228 6 203 231 7 197 222 6 193 222 8 198 225 6 198 224 3 201 227 6 198 226 4 188 217 3 186 216 8 184 210 1 196 221 5 208 234 11 209 234 10 214 239 13 212 240 8 207 233 10 200 226 7 194 219 6 189 215 6 187 213 4 194 219 4 199 226 9 201 228 9 204 230 7 203 229 8 202 228 9 202 227 4 204 230 7 208 234 13 211 239 7 207 233 10 207 233 4 209 234 10 197 220 6 192 216 6 192 216 8 195 221 2 202 228 5 202 228 7 193 218 5 186 210 2 188 211 7 189 212 7 192 216 8 197 220 8 198 222 6 203 227 11 208 233 9 208 235 8 193 217 7 192 222 4 197 224 8 187 212 6 187 210 6 196 222 3 200 226 5 199 225 6 198 224 5 198 223 8 210 235 11 209 234 11 199 223 5 201 225 5 205 229 13 199 223 7 194 218 2 198 221 7 200 224 4 197 221 5 210 232 9 215 237 15 203 228 5 200 224 6 198 222 6 198 216 8 207 232 9 211 233 11 199 223 7 201 227 8 198 223 8 197 219 10 196 220 12 207 228 13 214 236 14 209 234 11 204 230 7 197 222 7 191 214 9 195 219 11 201 225 17 200 220 9 196 220 12 198 220 15 195 214 8 192 215 1 200 225 9 201 225 7 200 224 4 207 232 6 213 240 21 206 233 14 202 227 12 194 218 10 192 214 5 204 225 10 211 237 5 206 232 11 200 225 10 203 230 3 206 232 11 198 222 14 190 213 11 199 224 9 199 226 10 199 224 9 201 225 15 195 220 7 200 223 11 204 228 10 207 231 11 205 231 12 199 224 8 209 231 8 209 234 10 211 235 19 205 231 12 204 229 6 208 233 10 208 232 16 210 234 16 209 234 18 205 229 11 205 229 13 201 227 6 196 221 8 192 216 6 194 218 10 202 226 8 207 231 11 205 230 15 199 227 5 196 223 4 205 230 7 206 232 9 196 223 6 193 219 10 192 219 0 198 223 7 207 229 22 202 225 13 199 224 9 190 214 6 193 215 6 205 226 9 205 227 5 201 225 7 200 224 6 198 222 6 200 224 6 204 231 6 210 238 16 204 230 11 196 223 7 197 224 5 198 227 15 
196 220 12 200 223 11 207 233 10 203 229 6 210 226 13 
208 228 35 208 234 15 207 233 10 198 223 7 196 223 6 196 223 6 193 220 1 191 217 6 193 219 10 200 227 8 205 234 6 208 234 11 201 226 3 202 227 3 205 230 7 202 226 6 203 227 11 193 217 7 189 214 8 206 231 15 211 236 12 199 223 5 198 221 7 202 226 8 198 225 8 210 239 9 214 240 9 202 226 10 194 224 4 202 230 5 206 229 15 205 229 9 207 233 10 207 231 15 202 226 6 207 234 9 209 236 9 206 231 8 203 227 7 204 228 12 208 235 10 210 235 9 208 230 8 209 230 13 211 236 10 211 235 15 207 231 15 200 224 4 200 226 3 203 226 14 201 225 9 202 226 6 197 221 11 194 218 8 203 229 8 205 229 11 204 230 11 202 228 7 199 222 8 205 230 7 203 228 5 197 222 7 197 222 9 202 231 3 206 231 8 202 226 6 202 227 4 203 229 6 208 234 13 208 235 10 206 231 15 199 223 7 192 217 2 189 212 7 189 213 5 187 210 5 200 225 10 207 233 12 200 226 5 202 229 12 209 235 12 208 234 11 203 230 3 203 227 7 204 228 8 207 232 9 194 216 7 187 208 7 194 216 7 199 221 14 201 225 5 204 229 6 206 226 13 208 232 16 201 225 7 200 219 3 207 228 9 209 234 10 206 228 6 212 235 7 203 224 9 201 226 3 202 226 6 198 222 4 202 226 6 204 229 5 203 227 9 205 229 9 208 233 10 211 236 12 197 220 6 192 216 6 196 221 6 201 227 4 201 227 6 204 230 7 202 228 9 202 227 11 203 229 18 201 229 7 207 235 10 210 237 8 208 232 14 196 218 9 193 216 4 201 225 7 200 226 5 194 219 6 195 220 5 207 234 7 212 238 15 206 233 6 206 232 9 200 226 7 202 228 9 204 230 9 197 219 10 197 220 8 200 226 7 205 232 3 208 235 8 201 228 9 194 220 9 193 219 8 197 222 7 200 225 9 201 228 9 202 230 8 204 232 7 198 225 6 191 217 8 191 217 8 199 226 10 202 230 5 207 234 5 207 234 5 200 226 5 198 224 1 199 224 11 186 208 9 173 199 4 180 211 9 192 221 7 210 237 12 209 237 12 201 229 5 202 228 7 200 227 11 202 228 5 205 233 8 200 231 3 191 220 4 193 219 6 196 222 9 201 228 9 194 224 6 191 220 6 197 224 5 194 220 11 192 221 7 196 226 4 196 225 9 195 224 8 195 225 7 196 223 4 198 224 5 196 221 6 191 215 5 193 219 10 189 217 8 188 214 5 188 213 7 187 217 5 192 221 7 196 221 5 200 224 6 204 229 6 198 226 4 189 217 8 
187 216 10 192 219 3 193 222 8 197 226 12 202 229 10 199 223 7 197 220 6 198 225 8 195 224 8 195 222 5 189 218 6 192 220 11 198 225 9 204 230 7 203 229 6 202 228 9 200 225 12 192 223 8 199 229 9 200 230 12 198 228 6 194 225 10 192 220 13 194 224 2 191 220 8 194 224 6 201 228 11 198 222 12 193 219 6 191 220 4 199 230 2 205 233 8 202 228 5 200 227 11 202 228 7 201 229 5 209 237 12 210 237 12 192 221 7 180 211 9 173 199 4 186 208 9 199 224 11 198 224 1 200 226 5 207 234 5 207 234 5 202 230 5 199 226 10 191 217 8 191 217 8 198 225 6 204 232 7 202 230 8 201 228 9 200 225 9 197 222 7 193 219 8 194 220 9 201 228 9 208 235 8 205 232 3 200 226 7 197 220 8 197 219 10 204 230 11 202 228 9 200 226 7 206 232 9 206 233 6 212 238 15 207 234 7 195 220 5 194 219 6 200 226 5 201 225 7 193 216 4 196 218 9 208 232 14 210 237 8 207 235 10 201 229 7 203 229 18 202 227 11 202 228 9 204 230 7 201 227 6 201 227 4 196 221 6 192 216 6 197 220 6 211 236 12 208 233 10 205 229 9 203 227 9 204 229 5 202 226 6 198 222 4 202 226 6 201 226 3 203 224 9 212 235 7 205 227 5 209 234 10 207 228 9 196 222 0 200 226 7 209 232 20 205 225 12 205 228 2 203 222 6 201 220 14 194 218 10 189 208 2 197 217 4 207 232 9 205 229 11 202 226 6 204 229 3 208 232 12 210 235 11 202 228 9 199 227 5 207 231 13 203 223 10 188 214 3 188 213 7 189 211 4 192 217 2 202 223 6 207 231 15 209 236 11 207 233 12 204 230 9 200 225 2 202 227 4 206 231 8 202 231 3 197 222 9 197 222 7 203 228 5 205 230 7 199 222 8 202 228 7 204 230 11 205 229 11 203 229 8 194 218 8 197 221 11 202 226 6 201 225 9 203 226 14 200 226 3 200 224 4 207 231 15 211 235 15 211 236 10 209 230 13 208 230 8 210 235 9 208 235 10 204 228 12 203 227 7 206 231 8 209 236 9 207 234 9 202 226 6 207 231 15 207 233 10 205 229 9 206 229 15 202 230 5 194 224 4 202 226 10 214 240 9 210 239 9 198 225 8 202 226 8 198 221 7 199 223 5 211 236 12 206 231 15 189 214 8 193 217 7 203 227 11 202 226 6 205 230 7 202 227 3 201 226 3 208 234 11 205 234 6 200 227 8 193 219 10 190 216 7 193 220 1 194 223 7 195 222 5 198 224 5 
207 233 10 208 234 15 204 222 14 
210 233 28 201 227 8 197 222 6 201 227 8 205 231 12 205 231 8 203 229 8 191 215 7 188 215 0 201 229 7 206 233 14 200 223 11 199 222 10 198 221 9 203 227 11 205 229 9 207 231 15 202 227 12 201 226 10 205 229 13 204 228 8 202 228 7 210 235 19 202 225 11 202 229 4 214 240 11 204 228 8 195 220 5 200 228 4 203 229 10 201 226 2 208 233 9 211 233 10 201 226 13 199 225 12 202 228 5 202 227 4 197 216 10 192 214 7 200 225 9 207 232 6 200 224 6 197 219 10 201 220 14 198 220 13 201 222 21 193 213 17 191 214 12 201 227 6 204 228 10 202 225 11 200 223 11 196 221 8 203 229 10 207 232 6 205 230 7 206 228 6 206 228 5 208 233 9 206 231 7 199 225 4 199 224 9 206 232 11 204 232 7 205 229 9 208 232 12 205 230 7 195 220 4 196 220 4 204 229 6 201 226 3 188 210 5 182 204 5 175 196 3 180 202 3 199 223 13 204 228 18 194 218 10 191 216 3 199 226 9 206 231 8 208 233 9 206 230 10 210 234 16 212 237 13 209 233 17 196 219 7 205 229 9 217 242 19 213 235 13 203 228 4 202 226 6 206 228 5 208 233 10 209 233 17 209 230 11 203 227 7 202 226 10 204 228 8 204 225 6 195 217 10 193 215 10 190 214 4 198 224 5 203 230 5 197 222 7 197 222 6 201 226 3 207 231 13 191 213 6 180 200 5 189 212 10 195 220 7 201 224 12 205 229 13 200 224 4 191 215 7 183 206 4 186 209 7 191 216 3 187 215 6 192 218 7 198 223 8 193 216 4 197 220 8 206 232 9 200 228 6 195 221 12 199 226 9 207 236 6 205 230 17 197 222 6 201 227 6 202 228 9 199 225 4 193 217 7 196 221 6 205 232 7 205 233 8 195 222 6 188 214 5 189 215 4 177 201 3 181 205 5 195 220 4 199 225 6 199 227 5 205 232 13 206 233 14 192 217 2 189 215 6 199 226 10 197 224 7 198 226 2 190 216 5 185 210 7 184 207 5 182 207 2 179 202 6 170 196 3 180 207 8 192 222 4 203 231 7 212 238 15 206 233 14 195 225 3 194 223 7 190 216 5 190 216 3 190 216 3 189 218 4 186 214 5 183 211 4 194 220 7 193 220 4 184 209 4 190 216 7 197 224 8 199 223 13 194 220 11 189 218 6 192 218 5 195 222 6 195 222 6 196 222 9 197 226 10 197 226 10 184 212 3 182 210 4 188 216 9 187 215 8 187 215 8 196 218 9 194 220 7 194 221 2 200 226 3 202 230 5 193 223 5 
187 215 9 184 208 8 184 207 5 187 210 6 182 207 2 183 208 3 194 218 8 195 218 13 194 218 8 196 222 13 195 221 8 189 217 8 181 210 6 173 201 5 193 219 10 210 234 18 203 229 8 193 222 6 195 220 7 199 224 8 199 224 9 193 220 4 195 221 12 198 223 17 197 222 6 188 213 7 181 209 3 194 221 4 195 221 8 184 209 4 186 214 7 188 216 7 187 215 8 190 216 7 190 216 5 194 223 7 195 225 3 206 233 14 212 238 15 203 231 7 192 222 4 180 207 8 170 196 3 179 202 6 182 207 2 184 207 5 185 210 7 190 216 5 198 226 2 197 224 7 199 226 10 189 215 6 192 217 2 206 233 14 205 232 13 199 227 5 199 225 6 195 220 4 181 205 5 177 201 3 189 215 4 188 214 5 195 222 6 205 233 8 205 232 7 196 221 6 193 217 7 199 225 4 202 228 9 201 227 6 197 222 6 205 230 17 207 236 6 199 226 9 195 221 12 200 228 6 206 232 9 197 220 8 193 216 4 198 223 8 192 218 7 187 215 6 191 216 3 186 209 7 183 206 4 191 215 7 200 224 4 205 229 13 201 224 12 195 220 7 189 212 10 180 200 5 191 213 6 207 231 13 201 226 3 197 222 6 197 222 7 203 230 5 198 222 4 190 214 4 193 215 10 198 217 11 203 224 5 204 228 8 202 226 10 203 227 7 208 232 12 209 233 13 210 231 14 207 229 6 203 228 5 203 228 4 212 234 12 218 243 20 196 230 9 191 220 6 207 232 17 212 237 11 210 235 22 206 229 50 208 234 75 206 231 101 202 225 143 190 224 150 194 224 162 205 227 152 197 223 126 180 212 66 176 207 7 183 208 5 182 211 5 200 225 2 204 229 6 196 221 5 196 220 4 205 231 10 206 233 14 205 230 7 204 232 7 206 232 11 199 224 9 199 225 4 206 231 7 208 233 9 206 228 5 206 228 6 205 230 7 207 232 6 203 229 10 196 221 8 200 223 11 202 225 11 204 228 10 201 227 6 191 214 12 193 213 17 201 222 21 198 220 13 201 220 14 197 219 10 200 224 6 207 232 6 200 225 9 192 214 7 197 216 10 202 227 4 202 228 5 199 225 12 201 226 13 211 233 10 208 233 9 201 226 2 203 229 10 200 228 4 195 220 5 204 228 8 214 240 11 202 229 4 202 225 11 210 235 19 202 228 7 204 228 8 205 229 13 201 226 10 202 227 12 207 231 15 205 229 9 203 227 11 198 221 9 199 222 10 200 223 11 206 233 14 201 229 7 188 215 0 190 216 7 203 229 8 205 231 10 
204 232 10 201 227 8 197 222 6 203 227 11 208 229 10 
207 230 26 195 218 6 201 224 12 209 234 11 211 235 17 210 234 14 201 225 7 198 220 13 197 224 8 206 235 5 205 232 7 198 222 6 199 222 8 201 225 5 205 230 6 207 232 9 204 229 5 201 225 7 195 218 6 190 212 3 198 223 10 201 228 9 200 227 8 198 222 6 204 231 4 206 227 8 193 215 6 190 218 9 197 223 14 205 229 11 203 227 7 200 223 9 196 216 7 192 216 8 194 218 10 203 226 12 202 226 6 197 222 7 208 233 18 216 241 18 213 233 11 198 222 6 196 220 12 197 222 7 204 228 12 203 226 12 200 222 13 203 229 10 204 229 13 204 228 12 207 231 15 204 229 16 202 227 12 211 237 18 204 228 10 204 226 4 204 226 4 203 228 5 199 223 7 194 217 13 201 226 11 198 223 7 202 226 6 195 219 3 194 219 6 203 229 10 200 224 14 195 219 11 198 221 7 208 232 12 206 230 12 191 213 4 190 213 8 193 217 7 200 225 12 206 230 10 199 222 8 199 222 8 203 227 7 207 233 12 214 237 9 215 238 10 217 238 23 215 236 19 213 234 19 204 227 13 211 236 10 215 242 15 207 232 9 195 215 4 191 213 8 200 224 8 212 235 7 203 227 11 200 225 9 202 227 4 197 220 6 196 221 6 202 228 5 203 228 5 206 230 14 197 223 4 195 220 5 196 221 5 201 226 11 194 218 8 197 221 11 196 219 14 190 213 1 187 208 7 193 215 8 197 222 9 200 225 9 200 225 9 199 225 6 189 213 3 187 210 8 200 225 10 201 227 4 198 223 7 202 222 9 208 233 9 209 234 10 204 229 6 204 230 7 207 233 10 202 230 8 200 226 13 199 226 7 201 229 7 196 220 10 192 216 8 191 214 9 187 210 5 185 208 4 196 221 8 203 229 8 207 233 14 207 235 11 193 220 3 192 216 6 196 221 6 195 221 12 191 217 8 201 227 4 200 226 3 198 224 5 195 219 9 198 223 8 199 226 1 202 228 5 203 229 10 198 224 5 199 225 4 188 211 7 186 209 7 187 210 6 182 204 5 182 206 8 176 203 4 186 212 3 196 222 9 201 231 11 202 231 1 199 224 8 188 216 10 183 212 10 189 218 6 188 216 7 191 217 6 196 222 9 196 222 9 188 216 7 193 225 4 196 224 2 193 217 7 201 226 10 205 231 10 203 230 5 200 227 8 196 223 6 193 220 4 191 216 3 195 220 5 195 220 5 193 219 8 193 222 10 187 215 8 191 217 8 198 225 8 195 222 5 196 225 11 204 228 12 198 223 7 198 223 8 196 222 3 196 223 6 194 223 9 
193 222 6 190 216 5 190 215 10 189 213 5 191 214 9 184 209 3 180 209 7 186 216 8 193 222 6 196 221 8 190 219 7 193 219 10 195 218 13 174 200 3 176 204 8 184 211 10 192 218 9 188 213 8 188 217 3 190 216 7 196 223 4 195 225 3 199 226 7 201 227 6 204 230 9 203 228 12 193 217 7 195 225 5 192 224 3 189 217 8 194 223 9 196 222 9 189 218 4 186 216 6 189 218 6 183 212 10 188 216 10 199 224 8 202 231 1 201 231 11 196 222 9 186 212 3 176 203 4 182 206 8 182 204 5 187 210 6 186 209 7 188 211 7 199 225 4 198 224 5 203 229 10 202 228 5 199 226 1 198 223 8 195 219 9 198 224 5 200 226 3 201 227 4 191 217 8 195 221 12 196 221 6 192 216 6 193 220 3 207 235 11 207 233 14 203 229 8 196 221 8 185 208 4 187 210 5 191 214 9 192 216 8 196 220 10 201 229 7 199 226 7 200 226 13 202 230 8 207 233 10 204 230 7 204 229 6 209 234 10 208 233 9 202 222 9 198 223 7 201 227 4 200 225 10 187 210 8 189 213 3 199 225 6 200 225 9 200 225 9 197 222 9 193 215 8 187 208 7 190 213 1 196 219 14 197 221 11 194 218 8 201 226 11 197 222 6 194 219 4 198 224 5 206 230 14 204 229 6 202 228 5 197 222 7 195 220 5 198 225 8 200 226 7 205 226 7 211 235 19 197 225 45 189 218 68 195 217 108 211 231 146 216 241 173 214 235 196 211 228 196 221 235 210 227 236 217 232 237 214 233 236 217 235 235 225 235 233 220 236 228 226 237 222 225 236 225 221 238 229 220 239 224 217 232 223 214 210 223 203 190 219 152 207 229 58 207 233 10 191 221 11 195 219 9 203 224 9 201 228 9 195 219 9 195 219 3 202 226 6 198 223 7 201 226 11 194 217 13 199 223 7 203 228 5 204 226 4 204 226 4 204 228 10 211 237 18 202 227 12 204 229 16 207 231 15 204 228 12 204 229 13 203 229 10 200 222 13 203 226 12 204 228 12 197 222 7 196 220 12 198 222 6 213 233 11 216 241 18 208 233 18 197 222 7 202 226 6 203 226 12 194 218 10 192 216 8 196 216 7 200 223 9 203 227 7 205 229 11 197 223 14 190 218 9 193 215 6 206 227 8 204 231 4 198 222 6 200 227 8 201 228 9 198 223 10 190 212 3 195 218 6 201 225 7 204 229 5 207 232 9 205 230 6 201 225 5 199 222 8 198 222 6 205 232 7 206 235 5 197 224 8 197 220 15 
202 223 6 210 234 14 212 238 19 209 234 11 201 223 14 196 219 7 205 226 7 
206 229 27 209 234 8 215 237 14 213 234 15 206 231 8 205 230 6 203 229 6 202 227 12 203 231 6 208 233 9 204 229 5 195 222 5 201 228 12 213 236 6 211 232 3 203 224 7 186 208 9 183 205 6 183 205 6 190 214 6 189 212 7 182 205 3 190 216 7 191 219 10 189 212 7 192 216 6 195 220 5 194 219 4 193 217 9 205 230 7 205 226 7 197 220 8 202 225 11 198 223 10 200 226 7 213 240 15 206 231 5 206 232 13 208 233 18 208 236 11 199 222 8 196 220 2 197 222 7 199 225 4 202 229 2 203 229 10 204 229 14 203 227 7 197 222 6 199 222 8 206 230 10 203 228 2 204 228 10 205 227 5 199 223 7 204 230 11 204 231 6 206 231 7 200 220 9 198 223 10 204 232 10 195 215 4 194 217 5 196 222 9 205 227 22 208 233 18 205 230 7 204 228 10 207 231 13 204 225 6 201 220 4 196 216 5 203 227 9 205 231 10 208 235 16 213 235 13 208 228 7 204 229 6 211 237 8 207 232 8 201 225 7 212 233 14 211 233 10 204 226 4 201 223 14 204 230 9 214 239 15 212 232 13 195 214 11 187 208 7 189 215 4 200 225 12 201 224 12 195 220 5 198 222 4 202 228 7 209 234 8 207 231 13 204 228 8 204 228 8 204 231 6 201 228 3 198 223 8 199 224 11 205 233 9 203 229 6 198 218 7 191 214 9 191 215 7 194 221 5 197 223 4 207 231 13 211 234 8 207 231 11 207 234 5 202 228 5 197 222 7 201 227 8 204 229 3 202 227 3 200 223 9 210 230 17 211 236 10 207 232 9 205 230 7 205 231 8 200 226 7 184 214 4 189 212 7 197 222 9 196 220 10 193 216 12 192 218 7 196 222 11 207 234 15 209 237 13 208 235 10 210 236 13 199 224 8 193 220 4 190 219 5 194 223 7 202 230 8 201 226 10 200 225 10 201 225 7 195 218 4 191 216 10 196 226 8 194 219 4 191 214 9 191 214 9 200 225 12 197 225 3 192 218 9 197 222 9 193 218 5 188 216 7 194 224 6 200 230 8 193 223 5 195 224 8 204 230 9 203 229 6 192 218 7 184 211 8 188 213 8 186 214 8 196 225 9 205 233 8 201 229 7 193 218 12 192 218 7 198 223 7 193 219 10 190 216 5 196 221 5 190 216 5 192 221 5 194 220 7 193 218 5 200 227 8 198 225 6 195 222 5 195 222 6 192 221 9 188 216 9 185 210 7 181 205 5 188 214 5 191 221 3 195 225 5 193 220 3 190 216 7 198 226 2 195 221 10 192 221 7 188 217 5 185 210 5 
185 208 4 190 216 5 192 218 9 198 224 13 203 229 8 192 219 2 195 224 10 202 228 17 203 228 12 190 219 5 189 223 4 193 224 7 200 227 8 188 216 7 180 209 5 186 214 7 187 215 9 189 218 6 196 226 6 197 223 10 192 216 6 195 222 5 191 220 6 188 217 5 196 221 6 190 214 6 194 216 11 199 223 5 193 217 7 193 218 12 202 230 6 205 233 8 196 226 8 186 214 8 188 213 8 184 211 8 192 218 7 203 229 6 204 230 9 195 224 8 193 223 5 200 230 8 194 224 6 188 216 7 193 218 5 197 222 9 192 218 9 197 225 3 200 225 12 191 214 9 191 214 9 194 219 4 196 226 8 191 216 10 195 218 4 201 225 7 200 225 10 201 225 5 202 230 6 194 224 6 190 219 3 194 219 4 198 223 7 210 236 13 206 234 10 207 238 12 208 233 18 197 222 9 192 216 6 194 217 12 194 220 9 195 222 6 189 212 10 186 212 1 201 225 9 205 231 8 205 230 6 209 231 8 210 235 11 208 232 14 200 224 8 202 227 3 207 228 3 202 228 7 197 224 7 204 229 6 208 235 8 208 233 9 211 233 11 208 232 12 197 222 6 195 219 3 192 217 4 191 214 12 195 219 9 205 230 6 206 232 11 195 224 8 193 224 7 200 228 6 205 230 6 205 229 11 203 230 39 207 231 85 208 234 124 202 227 188 203 224 191 220 225 205 226 227 211 231 224 214 235 226 217 234 225 218 235 228 222 235 233 218 236 237 221 238 231 223 238 223 226 236 227 218 237 234 219 236 232 220 235 228 220 235 233 220 236 237 223 235 226 217 235 230 224 238 234 223 241 233 220 238 231 221 235 225 223 235 225 216 234 224 222 223 225 212 207 230 174 202 228 69 204 230 7 200 235 19 207 226 22 197 222 9 194 217 3 193 216 4 205 230 14 199 223 5 197 220 8 206 231 5 205 230 7 206 227 10 201 221 8 203 228 5 203 229 10 205 227 5 204 230 11 195 224 8 199 220 5 203 227 7 204 229 14 203 229 10 202 229 2 199 225 4 197 222 7 196 220 2 199 222 8 208 236 11 208 233 18 206 232 13 206 231 5 213 240 15 200 226 7 198 223 10 202 225 11 197 220 8 205 226 7 205 230 7 193 217 9 194 219 4 195 220 5 192 216 6 189 212 7 191 219 10 190 216 7 182 205 3 189 212 7 190 214 6 183 205 6 183 205 6 186 208 9 203 224 7 211 232 3 213 236 6 201 228 12 195 222 5 204 229 5 208 233 9 203 231 6 201 228 11 
202 228 7 205 230 7 206 231 8 213 234 15 216 237 12 210 236 7 203 223 10 
204 226 29 202 225 11 192 214 5 190 215 2 199 225 6 202 227 4 199 223 5 195 218 4 200 227 8 207 233 4 203 224 7 203 227 7 208 235 8 209 230 15 207 227 14 196 220 4 194 218 8 194 217 5 198 221 7 202 226 10 191 215 7 189 212 8 193 217 7 194 217 13 194 217 12 197 223 10 197 223 10 197 223 2 200 224 14 205 231 10 206 231 7 209 230 13 204 228 8 196 219 7 204 230 9 212 239 10 203 227 9 197 221 5 203 227 7 202 226 10 198 222 6 198 223 8 199 224 9 200 225 9 197 222 7 197 219 12 201 223 16 194 219 6 195 219 3 208 229 12 213 236 10 209 230 11 202 225 11 195 219 3 200 222 15 205 230 14 207 231 11 203 228 5 198 223 7 202 229 2 199 224 8 193 215 6 193 222 8 199 224 8 202 228 7 200 221 6 202 225 11 197 222 9 197 227 7 203 223 12 199 222 10 196 223 24 194 220 49 200 227 70 205 226 87 203 225 88 193 217 79 195 216 59 206 226 31 202 222 11 201 225 9 202 232 14 195 226 9 195 221 12 201 223 14 206 227 8 207 231 11 203 229 8 191 212 9 186 207 6 186 207 6 183 205 8 187 209 2 198 224 13 210 231 14 211 230 14 202 225 11 198 220 15 199 225 4 204 228 10 209 234 11 210 234 14 202 223 6 205 226 7 206 225 9 198 218 7 193 218 5 196 224 17 202 227 14 197 224 7 208 230 7 215 239 19 204 228 10 201 227 8 206 233 6 196 221 8 183 204 3 186 207 4 201 224 10 196 220 4 188 210 1 201 221 12 197 220 6 200 224 4 199 225 6 191 214 10 185 206 7 180 204 6 193 218 5 200 226 5 192 217 4 190 213 9 197 222 6 205 231 8 203 229 10 200 225 10 205 233 11 207 234 15 188 214 3 186 214 5 192 220 11 196 223 6 200 226 5 198 223 10 184 212 3 191 216 3 194 219 6 190 218 9 193 222 10 191 217 8 191 216 3 198 223 8 200 225 12 191 214 9 191 217 6 181 206 3 184 209 6 190 219 3 200 230 8 207 235 10 201 229 7 204 230 9 196 224 2 194 223 7 186 211 5 187 212 6 189 218 2 203 231 7 208 239 11 201 229 5 196 223 6 190 216 7 191 217 6 193 219 8 185 210 4 188 213 7 180 205 2 189 215 6 187 216 4 187 215 6 192 218 5 198 226 4 200 227 8 192 218 9 195 221 8 201 228 11 200 231 6 194 224 4 182 209 6 184 211 12 186 214 7 194 220 7 194 221 4 188 216 7 192 223 5 197 226 12 200 229 13 
194 223 7 189 218 4 194 223 7 193 219 6 188 216 7 193 222 10 199 226 9 202 229 10 199 226 9 207 235 13 212 240 16 204 232 10 199 227 5 194 220 11 197 227 9 203 231 9 200 228 3 198 228 8 194 223 9 185 215 5 196 226 4 202 230 8 196 223 6 187 216 2 188 217 5 187 212 6 179 203 3 188 213 7 183 208 3 192 218 5 192 218 7 190 215 9 196 223 6 201 228 9 207 238 13 203 231 7 189 218 2 187 212 6 186 211 5 194 223 7 196 224 2 204 230 9 201 229 7 207 235 10 200 230 8 190 219 3 184 209 6 181 206 3 191 217 6 191 214 9 200 225 12 198 223 8 191 216 3 191 217 8 193 222 10 190 218 9 194 219 6 191 216 3 184 212 3 197 223 10 199 226 7 195 222 5 192 221 9 186 214 7 189 215 4 209 235 14 206 232 9 200 225 12 205 229 13 205 232 3 196 223 7 189 212 8 191 217 4 198 228 8 193 216 2 179 206 7 180 207 6 191 214 9 198 223 7 202 226 8 197 217 6 198 221 9 189 210 7 195 220 4 200 225 9 184 207 2 182 205 3 199 219 6 206 232 11 201 225 5 204 228 8 214 241 16 206 231 8 198 224 3 203 225 18 193 222 10 192 219 3 195 219 43 207 227 106 204 226 162 201 225 189 213 232 200 220 234 208 224 228 213 228 226 213 234 224 222 235 225 223 233 229 218 235 232 223 237 226 224 237 225 225 236 224 226 239 225 224 240 224 224 243 225 225 236 228 225 238 233 227 234 229 223 235 224 222 240 224 225 240 226 225 241 230 228 236 225 223 242 222 224 237 226 224 235 226 219 237 228 221 237 226 220 234 227 217 235 224 218 236 226 224 235 223 223 234 222 222 238 227 223 235 228 220 233 224 217 222 223 209 199 224 140 202 227 63 199 224 9 197 220 8 196 216 7 198 223 8 198 231 4 203 222 8 202 226 8 207 232 9 204 231 14 198 222 12 196 219 5 203 224 9 210 230 11 213 236 10 206 231 7 196 220 4 194 219 6 201 223 16 197 219 12 197 222 7 200 225 9 199 224 9 198 223 8 198 222 6 202 226 10 203 227 7 197 221 5 203 227 9 212 239 10 204 230 9 196 219 7 204 228 8 209 230 13 206 231 7 205 231 10 200 224 14 197 223 2 197 223 10 197 223 10 194 217 12 194 217 13 193 217 7 189 212 8 191 215 7 202 226 10 198 221 7 194 217 5 194 218 8 196 220 4 207 227 14 209 230 15 208 235 8 203 227 7 
203 224 7 207 233 4 200 227 8 196 220 4 198 222 4 202 226 6 199 225 4 190 214 4 193 215 6 201 226 11 202 220 10 
202 224 27 194 218 8 190 213 8 196 220 10 204 230 11 203 225 3 200 224 6 200 224 6 204 231 6 207 232 9 202 225 11 205 229 11 200 224 4 197 220 6 198 223 8 201 226 10 204 230 9 208 232 12 205 227 5 187 208 5 184 207 5 194 220 7 199 224 11 202 226 6 203 227 9 192 219 3 191 218 2 201 225 7 207 231 13 207 233 10 209 236 11 209 232 6 203 228 5 200 226 3 201 227 8 201 227 6 202 226 6 205 226 9 203 225 3 204 225 8 201 225 5 201 227 8 197 224 8 202 227 12 204 227 13 205 225 12 201 225 7 202 227 11 209 234 8 212 235 5 206 227 10 197 219 12 195 219 3 199 223 7 206 227 12 209 229 7 199 223 7 192 214 7 201 225 5 200 226 7 200 224 8 202 226 8 198 225 9 207 227 8 198 228 10 201 226 11 194 219 53 201 222 131 204 230 183 216 225 198 225 226 210 229 225 216 232 225 219 234 230 218 237 228 223 230 227 220 227 227 217 233 226 220 233 226 218 225 225 215 222 223 207 209 221 199 200 222 184 194 222 148 194 219 125 198 219 88 205 228 62 199 221 50 183 212 34 185 211 28 195 217 8 193 218 3 202 226 10 203 236 5 209 235 12 203 230 5 209 233 25 213 233 24 206 234 9 203 233 11 209 234 10 205 231 8 191 216 3 188 207 4 185 210 5 188 213 8 182 202 6 184 209 3 190 214 6 199 218 5 210 232 9 207 233 10 199 224 9 199 222 8 202 225 11 193 217 7 188 211 6 187 210 5 195 218 6 193 215 8 199 222 10 187 210 5 183 210 7 196 220 10 192 214 7 186 207 8 183 204 5 188 211 6 188 214 5 193 219 8 184 208 8 189 215 2 200 226 5 208 234 13 201 227 4 199 222 8 206 234 12 201 228 12 185 213 4 189 218 6 194 220 7 198 225 8 206 232 9 209 235 14 187 217 5 186 215 3 186 211 8 185 212 11 187 213 2 193 218 3 206 232 11 201 227 8 199 223 15 205 228 14 200 225 9 191 217 6 195 225 7 199 229 11 198 225 6 202 229 4 204 231 4 202 228 9 198 224 11 190 219 5 196 222 9 187 213 2 187 215 6 198 225 9 187 215 8 186 211 5 190 216 3 187 215 6 193 221 14 204 232 10 199 227 3 189 214 8 195 222 6 206 234 10 195 222 5 189 220 5 196 226 8 196 223 4 197 224 5 195 224 8 194 220 9 192 218 7 200 227 10 199 226 7 190 218 9 183 212 6 190 219 5 197 225 3 191 215 7 182 207 4 185 213 4 196 223 6 
203 229 6 204 232 7 203 231 9 201 228 9 203 233 15 195 224 10 192 218 7 191 217 8 191 217 4 184 212 3 193 219 6 204 230 11 198 227 11 192 216 8 186 211 5 180 209 7 188 216 9 196 223 6 191 220 6 193 221 12 192 223 8 192 221 9 200 227 8 202 234 3 196 228 7 197 224 7 209 237 15 197 224 8 188 216 7 198 228 6 205 233 11 193 221 12 187 215 6 190 217 1 185 210 4 190 216 7 198 225 9 187 215 6 187 213 2 196 222 9 190 219 5 198 224 11 202 228 9 204 231 4 202 229 4 198 225 6 199 229 11 195 225 7 191 217 6 200 225 9 205 228 14 199 223 15 201 227 8 206 232 11 193 218 3 187 213 2 185 212 11 186 211 8 186 215 3 187 217 5 206 236 16 206 234 12 198 225 8 194 220 7 188 217 5 185 213 4 201 228 12 207 233 12 198 222 4 200 228 6 208 234 11 201 227 8 188 214 5 184 209 6 193 218 5 189 213 3 188 211 7 181 203 7 185 206 7 192 216 6 196 220 10 187 210 6 187 212 7 202 221 8 195 215 6 194 216 9 187 212 7 188 213 8 192 215 3 200 226 7 199 224 8 194 225 8 201 233 8 210 232 9 198 221 55 189 222 135 207 224 188 223 225 211 232 223 218 238 223 226 240 226 223 236 229 219 233 229 217 236 234 219 240 233 223 240 233 225 243 235 224 233 233 225 242 229 220 239 236 221 242 235 225 237 227 225 237 225 227 237 226 222 237 226 220 236 227 222 237 225 225 236 228 217 234 230 221 232 224 221 238 224 224 237 226 224 233 223 222 238 227 221 233 228 222 238 227 225 239 225 225 239 223 226 245 225 227 236 227 220 239 230 223 241 222 226 241 223 219 237 226 220 237 225 225 238 229 224 236 225 219 239 224 227 237 230 222 231 228 211 217 227 200 200 222 88 201 227 6 200 223 9 200 226 5 200 226 7 192 216 8 201 222 5 206 231 7 204 227 15 199 223 7 194 218 2 197 218 15 207 228 9 211 234 6 208 234 5 202 227 11 201 225 7 205 225 12 204 227 13 202 227 12 197 224 8 201 227 8 201 225 5 204 225 8 203 225 3 205 226 9 202 226 6 201 227 6 201 227 8 200 226 3 203 228 5 209 232 6 209 236 11 207 233 10 207 231 13 201 225 7 191 218 2 192 219 3 203 227 9 202 226 6 199 224 11 194 220 7 184 207 5 187 208 5 205 227 5 208 232 12 204 230 9 201 226 10 198 223 8 197 220 6 200 224 4 
205 229 11 202 225 11 207 232 9 204 231 6 199 223 3 200 224 8 204 225 6 204 230 11 195 219 9 190 214 6 192 218 7 200 220 11 
196 219 27 196 220 10 201 227 8 208 234 15 217 238 19 206 227 8 199 221 12 205 231 20 208 233 10 201 226 2 197 220 6 194 217 5 196 221 6 193 219 8 198 223 10 205 230 7 205 231 8 199 223 7 190 212 3 184 207 3 197 223 10 204 232 8 203 229 8 210 235 11 205 226 9 194 219 6 201 227 8 210 232 23 208 228 17 204 228 8 208 233 7 201 222 7 189 213 5 187 211 3 189 213 3 200 224 8 207 231 11 206 228 6 203 224 7 194 216 7 193 218 5 199 225 4 202 228 7 208 233 7 209 232 6 205 226 9 198 222 6 200 223 11 206 231 7 211 233 10 200 220 11 193 215 6 200 225 9 212 237 14 212 235 9 204 224 5 200 224 8 203 228 2 206 231 7 206 232 9 205 231 8 209 233 15 200 230 10 199 222 30 199 226 157 224 225 207 237 225 225 235 224 218 235 232 217 240 224 224 243 228 225 236 227 220 235 228 222 237 225 225 238 223 226 236 227 220 236 227 220 239 226 220 240 232 219 232 230 217 232 228 225 238 229 220 240 227 218 238 228 216 235 234 216 233 237 223 234 234 222 232 222 221 229 225 216 230 223 215 227 226 208 220 228 204 208 228 193 200 228 188 207 230 162 214 231 153 210 230 105 204 225 72 203 224 43 198 221 9 200 224 4 191 217 6 181 210 6 186 209 5 199 221 12 196 221 6 194 220 7 203 227 9 200 226 3 205 229 11 209 234 10 208 233 7 201 227 8 201 225 5 199 223 5 192 215 1 196 219 5 205 229 11 203 228 5 201 227 4 204 230 9 194 220 7 196 223 7 198 223 7 190 215 9 191 221 11 185 213 7 186 211 8 198 225 9 204 232 8 197 224 5 202 228 7 208 234 11 205 231 10 191 215 7 193 215 10 207 231 11 200 226 7 191 221 3 195 225 7 197 224 5 202 230 6 207 235 11 203 233 11 194 224 4 196 223 6 192 218 9 198 225 9 199 225 4 192 216 6 204 228 12 206 231 7 200 226 7 203 227 7 196 219 5 185 210 5 179 208 6 186 214 5 193 219 8 199 224 11 195 219 11 193 220 4 192 218 5 193 218 5 198 223 8 195 219 9 193 219 8 198 230 9 198 228 6 197 225 3 199 227 3 197 227 5 198 228 8 197 227 9 192 218 7 186 215 3 197 224 8 196 223 7 183 211 4 184 211 8 190 218 9 195 224 10 196 223 6 195 225 5 195 222 6 193 219 6 202 229 12 203 229 10 192 219 3 182 210 4 182 211 7 189 218 4 199 225 6 197 222 7 
193 217 9 194 219 4 197 222 6 199 226 9 200 227 10 200 226 3 201 231 9 203 231 9 191 218 1 192 218 7 186 215 3 182 211 7 189 216 13 196 221 8 198 226 4 196 222 3 188 213 7 179 208 4 175 201 4 194 220 11 198 225 6 192 217 12 187 218 3 194 224 4 196 226 4 195 224 12 186 213 10 185 210 4 200 227 8 200 228 6 189 218 4 194 221 5 202 230 8 201 231 9 197 227 5 199 227 2 198 226 4 199 226 7 198 230 9 193 219 8 195 219 9 198 223 8 193 218 5 192 218 5 193 220 4 195 219 11 199 224 11 193 219 8 186 214 5 179 208 6 185 210 5 196 219 5 203 227 7 200 226 7 206 231 7 204 228 12 192 216 6 199 225 4 198 225 9 192 218 9 196 223 6 194 224 4 205 232 13 207 235 10 203 231 7 196 223 6 194 224 6 193 220 3 199 226 9 206 232 11 196 214 14 190 216 5 203 231 9 208 234 13 200 230 8 197 224 7 205 230 7 198 225 8 186 211 5 185 213 6 192 220 11 190 216 7 199 222 10 196 222 3 193 219 8 205 231 12 202 228 7 201 227 6 199 229 9 194 219 4 193 215 6 201 222 33 201 224 92 201 226 161 212 232 195 225 235 211 232 230 218 241 227 226 238 226 226 236 227 222 235 224 218 240 225 220 242 223 225 236 227 220 234 227 217 230 227 218 233 226 220 237 223 222 240 225 220 240 232 219 238 232 220 233 231 219 238 227 223 241 228 222 241 227 226 234 226 223 236 226 225 235 226 221 240 225 220 242 234 221 238 235 220 238 234 223 235 226 221 237 228 219 238 229 220 237 226 220 234 230 219 237 233 222 235 226 217 237 228 221 237 226 222 234 227 219 236 227 222 237 225 225 237 228 221 240 227 221 235 227 216 236 232 220 236 224 224 236 221 224 240 226 223 237 225 227 240 223 231 229 229 219 219 234 203 207 230 88 208 232 12 207 229 7 202 228 7 199 224 8 204 224 2 213 233 12 211 236 13 201 227 8 191 216 3 200 220 7 213 233 14 206 231 8 200 223 11 198 222 6 205 226 9 209 232 6 208 233 7 202 228 7 199 225 4 193 218 5 194 216 7 203 224 7 206 228 6 207 231 11 200 224 8 189 213 3 187 211 3 189 213 5 201 222 7 208 233 7 204 228 8 208 228 17 210 232 23 201 227 8 194 219 6 205 226 9 210 235 11 203 229 8 204 232 8 197 223 10 184 207 3 190 212 3 199 223 7 205 231 8 205 230 7 
198 223 10 193 219 8 196 221 6 194 217 5 197 220 6 201 226 2 208 233 10 205 231 20 199 221 12 207 227 8 214 239 16 209 233 15 201 226 10 195 221 10 194 213 9 
212 235 31 207 233 12 205 232 5 203 228 5 205 226 9 193 213 0 186 208 3 197 223 12 204 225 6 202 226 8 208 232 16 204 228 8 197 220 6 193 219 10 195 221 8 192 214 5 187 209 4 184 207 5 188 211 6 194 220 9 201 226 13 205 231 8 206 233 4 206 232 13 196 218 9 199 223 7 211 235 17 210 232 23 199 223 5 203 224 7 207 229 7 196 216 5 196 217 16 209 232 20 209 234 11 214 237 11 214 237 11 211 234 8 195 218 6 189 211 14 193 217 7 206 229 17 211 231 18 205 226 9 202 227 4 200 224 4 201 225 7 205 230 7 210 233 7 209 229 7 206 225 11 203 227 9 202 227 11 207 234 9 207 233 10 200 224 8 202 227 4 204 228 8 203 222 6 191 212 11 192 218 9 207 227 42 197 224 179 235 228 220 234 223 221 237 228 223 234 225 220 237 227 228 235 225 224 237 225 225 239 226 220 234 224 223 237 228 221 237 226 220 238 227 223 235 224 218 236 225 219 236 226 224 240 230 228 235 233 221 242 228 225 235 225 226 232 227 221 235 231 219 234 227 221 234 227 219 237 227 225 236 226 217 237 227 225 235 228 222 234 231 224 238 227 225 235 223 225 237 226 224 237 232 226 232 232 220 239 228 222 231 224 218 227 225 212 227 228 212 223 221 208 211 224 198 192 221 175 203 227 141 206 232 83 202 231 43 200 226 5 198 229 3 202 232 12 208 239 11 212 233 16 202 226 8 201 225 5 196 220 4 192 216 6 190 215 10 195 221 10 204 230 9 198 224 5 199 225 6 206 232 11 204 232 7 197 220 6 192 213 10 192 213 10 191 217 4 190 215 9 193 217 7 204 230 9 202 228 7 194 219 3 199 224 8 203 229 10 198 224 3 194 218 8 200 226 7 205 230 7 204 229 14 196 221 15 188 213 8 194 218 10 206 231 16 199 226 9 191 220 4 201 229 7 194 221 5 180 203 1 189 213 5 204 228 8 199 222 8 200 226 7 205 230 7 197 224 5 194 217 5 190 211 10 189 217 11 184 214 2 193 222 6 207 234 17 201 227 4 195 219 9 197 226 10 195 222 6 193 218 3 202 228 7 201 225 7 201 226 10 204 235 10 202 230 6 199 227 3 200 228 6 200 227 8 195 225 5 193 219 8 186 211 8 190 216 5 194 221 5 188 217 5 182 210 4 180 207 6 184 212 5 190 219 5 191 220 8 195 221 10 194 220 9 189 215 4 195 221 8 204 230 11 207 233 12 193 219 10 176 203 4 
180 209 3 187 213 4 192 218 5 195 221 10 199 224 9 196 222 11 185 213 6 184 211 8 192 219 3 199 225 6 201 229 7 200 230 8 201 228 9 198 224 11 193 222 10 191 219 10 195 224 12 196 222 3 190 219 5 195 225 7 197 224 7 195 225 5 195 221 8 201 226 10 202 228 7 195 221 8 192 222 4 196 226 6 191 220 4 186 214 7 184 212 5 191 217 6 198 223 8 193 219 6 188 211 7 193 217 7 196 224 2 200 228 6 200 226 7 199 225 4 203 229 6 204 235 10 201 226 10 201 225 7 202 228 7 193 218 3 195 222 6 197 226 10 195 219 9 201 227 4 207 234 17 193 222 6 184 214 2 189 217 11 190 211 10 194 217 5 197 224 5 205 230 7 200 226 7 199 222 8 204 228 8 189 213 5 180 203 1 194 221 5 201 229 7 193 220 4 199 226 7 205 232 16 192 218 9 188 213 8 197 222 16 204 229 16 204 230 7 199 226 10 194 220 7 198 226 4 203 229 8 200 224 8 195 218 4 203 229 10 203 230 13 193 217 7 191 212 11 192 218 9 190 215 9 192 214 7 193 219 6 197 232 6 204 231 12 196 226 70 200 223 133 206 231 192 213 225 205 222 223 209 234 225 218 231 228 223 235 225 226 240 227 221 236 232 220 237 240 223 235 232 223 234 229 226 235 225 224 238 231 225 231 232 218 237 226 224 237 225 225 238 224 224 236 224 224 238 227 225 237 225 225 238 223 228 236 229 221 238 233 227 235 230 224 236 222 221 241 226 221 237 226 220 235 231 220 234 225 220 240 226 223 238 227 223 234 224 223 240 228 230 235 225 224 238 231 223 234 227 221 237 228 223 240 229 225 238 233 229 240 230 220 239 229 220 236 224 224 236 226 227 235 226 221 241 222 218 236 227 222 235 227 224 241 222 226 242 223 225 238 227 221 234 227 219 237 225 225 240 225 228 235 228 222 237 226 224 237 226 222 232 227 224 237 223 220 215 221 193 202 225 46 197 227 5 202 227 3 201 225 7 209 231 8 208 233 9 202 227 11 202 226 10 207 226 12 208 228 9 210 233 5 205 230 7 201 225 7 200 224 4 202 227 4 205 226 9 211 231 18 206 229 17 193 217 7 189 211 14 195 218 6 211 234 8 214 237 11 214 237 11 209 234 11 209 232 20 196 217 16 196 216 5 207 229 7 203 224 7 199 223 5 210 232 23 211 235 17 199 223 7 196 218 9 206 232 13 206 233 4 205 231 8 
201 226 13 194 220 9 188 211 6 184 207 5 187 209 4 192 214 5 195 221 8 193 219 10 197 220 6 204 228 8 208 232 16 202 226 8 204 225 6 198 224 11 186 207 4 194 212 2 203 227 7 203 228 5 205 230 4 207 233 10 209 228 14 
217 236 33 202 223 8 192 215 3 191 215 5 195 217 10 193 215 10 196 218 9 207 233 12 209 234 11 207 233 10 202 226 8 201 221 8 197 221 5 201 227 8 197 224 5 196 221 5 190 212 5 191 212 9 197 221 11 201 226 11 202 225 11 201 226 3 204 229 6 199 222 8 192 216 6 197 220 8 199 224 1 202 229 4 208 232 14 209 229 16 205 226 7 207 232 8 215 238 12 217 240 14 210 232 9 206 226 7 206 226 7 196 216 3 190 212 7 196 222 3 200 225 9 204 227 13 209 230 11 207 227 14 205 228 14 212 237 13 206 230 14 205 225 12 201 222 5 201 222 3 202 221 15 196 219 7 192 216 6 200 224 6 203 227 9 201 225 9 195 221 12 194 219 6 188 214 5 187 212 33 199 227 179 238 225 219 235 223 225 239 220 222 237 225 227 237 227 218 239 226 218 238 227 221 234 225 218 234 225 216 235 228 222 230 229 227 240 225 222 237 226 222 240 233 227 238 229 222 238 234 223 236 232 221 235 224 218 234 230 219 239 226 218 236 226 225 235 228 222 236 225 229 240 226 226 239 225 222 238 227 221 235 226 217 238 227 221 235 225 224 238 236 224 236 225 223 238 227 221 240 225 220 242 227 222 238 223 216 234 224 222 233 228 224 236 227 222 236 227 220 235 224 222 236 224 224 240 237 228 238 235 220 237 226 222 232 225 215 225 226 212 217 220 203 199 220 187 206 227 136 193 220 81 194 217 41 203 224 7 198 223 8 187 215 9 190 216 3 198 223 7 199 224 8 197 223 4 200 226 5 200 227 8 194 219 3 182 203 2 178 200 3 182 207 4 193 218 5 201 228 12 190 216 7 187 210 6 192 216 8 198 223 8 197 224 7 195 222 6 195 220 7 194 218 8 195 220 4 193 219 8 194 219 13 189 214 8 185 211 2 192 217 4 195 219 9 189 212 7 189 213 3 196 221 6 185 210 7 182 206 6 200 225 12 208 232 14 197 221 11 194 219 4 196 221 5 185 213 4 185 209 9 188 214 5 185 210 5 194 223 9 202 232 10 203 230 11 201 227 6 205 231 8 213 239 18 205 232 13 201 229 7 200 226 5 196 219 5 200 225 10 203 228 5 198 224 5 197 222 7 201 227 8 205 233 9 199 227 5 192 217 2 190 214 4 195 221 8 200 227 8 194 223 9 190 218 9 184 209 6 186 211 8 186 214 5 197 224 8 203 230 5 196 219 5 189 215 6 186 214 7 188 214 5 200 227 8 196 223 6 182 210 4 
186 214 5 191 217 6 194 221 5 190 219 5 195 222 5 202 227 12 193 219 8 188 213 7 189 218 4 201 227 6 202 230 8 207 235 11 201 227 4 199 226 10 203 233 11 199 230 5 198 225 8 195 222 5 188 221 6 188 219 4 192 221 7 189 219 7 192 223 6 196 223 6 199 226 7 205 233 9 199 229 9 196 226 6 193 219 10 178 201 5 186 213 10 191 220 4 201 228 9 198 222 12 191 215 5 195 220 5 202 229 10 205 233 9 199 225 4 197 222 6 196 223 4 203 228 5 200 225 10 196 219 5 200 226 5 201 229 7 205 232 13 213 239 18 205 231 8 201 227 6 203 230 11 202 232 10 194 223 9 185 210 5 188 214 5 185 209 9 185 213 4 196 221 5 194 219 4 197 221 11 208 232 14 200 225 12 182 206 6 185 210 7 196 221 6 188 214 5 188 211 6 196 218 9 192 217 4 185 211 0 189 214 8 195 220 14 194 219 6 196 219 5 194 219 4 194 221 4 195 222 6 196 222 9 198 223 8 192 216 6 184 212 6 183 216 5 197 227 15 193 215 6 182 213 23 178 215 84 185 218 137 202 224 188 230 229 211 230 227 218 235 224 222 234 224 222 236 227 220 237 226 224 241 220 225 235 224 222 239 226 218 235 227 225 235 228 220 237 226 222 236 227 220 238 225 217 237 228 223 237 226 222 236 224 224 233 237 223 238 236 223 238 222 225 240 221 223 241 226 219 236 227 220 238 227 223 234 226 223 236 227 222 237 228 219 238 227 221 237 226 222 235 226 219 239 236 221 239 224 217 242 223 225 233 224 217 235 226 219 241 225 225 242 223 227 240 227 218 237 227 218 237 226 220 236 227 222 237 227 225 237 228 219 237 231 219 237 234 227 238 228 226 243 230 224 240 225 218 233 226 218 236 226 224 235 224 222 232 224 221 237 227 218 242 223 225 236 224 226 236 228 225 240 225 220 237 225 225 237 226 220 243 223 224 242 223 227 233 225 222 233 226 220 194 219 115 200 220 11 200 224 6 206 230 14 199 223 5 192 216 6 194 219 3 200 220 9 201 225 5 200 221 2 205 225 12 206 230 14 212 237 13 205 228 14 207 227 14 209 230 11 204 227 13 200 225 9 196 222 3 190 212 7 196 216 3 206 226 7 206 226 7 210 232 9 217 240 14 215 238 12 207 232 8 205 226 7 209 229 16 208 232 14 202 229 4 199 224 1 197 220 8 192 216 6 199 222 8 204 229 6 201 226 3 
202 225 11 201 226 11 197 221 11 191 212 9 190 212 5 196 221 5 197 224 5 201 227 8 197 221 5 201 221 8 202 226 8 207 233 10 209 234 11 206 232 11 196 218 11 195 214 8 195 219 9 191 215 7 191 213 4 200 224 8 214 231 13 
212 231 28 201 222 3 199 223 7 199 224 9 202 227 14 198 220 13 198 220 11 202 226 10 200 225 10 198 224 3 200 224 4 203 227 9 207 232 9 207 234 9 205 231 12 204 228 8 201 225 9 205 229 11 211 235 19 204 229 6 196 220 2 191 213 4 199 223 7 203 227 7 199 223 5 194 219 4 198 221 7 204 228 12 210 232 10 208 230 8 205 226 9 205 227 5 207 228 11 209 230 11 196 217 2 196 216 5 198 218 9 197 216 10 198 220 13 197 222 7 198 218 5 204 225 6 207 229 6 205 225 14 201 223 14 204 228 10 198 221 9 202 222 13 197 222 9 196 218 11 197 218 15 202 226 10 207 228 13 211 231 10 212 233 8 200 224 6 188 213 7 204 225 10 205 232 153 238 229 222 240 227 218 234 225 226 237 227 225 242 223 219 236 225 219 235 226 227 233 224 225 237 226 232 234 226 223 237 225 225 240 224 224 241 223 221 238 227 221 232 227 224 233 228 224 237 235 222 236 239 220 235 232 223 240 224 225 240 222 222 242 229 223 242 228 225 237 223 223 240 226 225 236 225 219 236 226 224 236 225 223 240 224 225 238 223 220 238 224 223 235 231 219 237 228 223 236 226 227 237 228 223 235 226 219 236 229 223 234 226 223 240 221 223 240 221 223 236 227 222 235 228 222 233 229 220 237 233 221 234 230 221 237 225 227 233 223 222 235 225 216 239 228 224 235 224 220 237 226 224 240 225 218 230 228 216 224 227 208 214 230 204 199 225 190 198 225 146 204 228 106 206 230 70 205 229 31 199 224 9 198 222 12 187 212 7 177 200 4 179 202 6 187 215 6 192 219 3 194 224 4 198 223 8 190 216 7 197 224 5 201 228 9 191 216 11 197 224 7 203 230 3 193 218 5 186 209 5 182 206 6 186 211 5 198 225 8 199 225 6 205 231 8 204 230 7 193 219 0 201 225 5 201 227 8 191 217 4 190 216 3 197 222 9 199 221 12 193 217 9 190 216 3 196 220 10 183 210 11 181 209 2 182 209 8 178 202 2 189 215 4 188 213 7 195 222 6 205 231 8 199 227 5 198 223 7 196 223 6 198 228 10 195 221 8 195 222 6 200 227 11 197 220 8 198 224 13 202 227 11 200 226 5 204 232 10 204 231 12 193 219 6 186 211 6 186 215 3 191 220 6 194 224 6 195 225 7 197 224 8 199 228 14 189 217 8 191 217 6 203 229 6 202 228 5 198 225 6 195 222 3 189 215 4 
191 217 8 190 218 9 184 211 8 189 215 6 190 214 4 189 214 8 186 214 8 188 214 5 191 215 5 199 224 9 200 227 11 197 224 7 203 231 6 204 232 8 206 231 7 208 233 10 203 230 11 202 232 10 209 237 12 209 236 11 201 231 9 197 229 4 193 226 0 190 220 8 189 220 2 185 215 5 180 209 5 194 226 5 198 225 6 198 227 11 200 229 13 200 228 19 195 224 12 195 225 7 193 222 6 192 221 9 188 217 5 187 212 6 194 220 7 205 233 11 205 233 11 199 227 5 201 228 11 197 223 12 197 220 8 200 227 11 195 222 6 195 221 8 198 228 10 196 223 6 198 223 7 199 227 5 205 231 8 195 222 6 188 213 7 189 215 4 178 202 2 182 209 8 181 209 2 183 210 11 196 220 10 190 216 3 193 217 9 199 221 12 197 222 9 190 216 3 191 217 4 201 227 8 198 226 4 193 218 2 205 231 8 205 231 8 199 225 6 199 226 9 187 213 4 183 208 5 186 209 5 192 217 4 202 229 4 195 224 8 187 216 12 199 229 9 196 225 39 189 217 81 195 223 120 196 225 179 222 225 206 233 222 218 233 226 218 237 224 216 239 225 222 236 221 224 239 223 226 237 230 220 234 230 218 236 228 225 238 222 225 238 224 224 235 230 226 235 227 224 238 226 226 241 227 226 243 225 223 242 221 226 236 226 225 236 227 222 236 226 225 237 225 225 234 230 221 236 232 221 237 227 226 235 225 223 237 228 219 235 228 222 237 223 222 240 224 224 240 226 225 240 224 224 242 223 225 239 225 224 235 227 225 234 231 226 240 226 226 239 223 224 243 225 223 237 226 222 233 226 218 232 228 217 230 226 217 226 226 216 219 230 213 207 230 204 207 224 190 198 225 190 209 231 192 221 239 201 225 234 213 226 228 217 235 226 219 242 224 220 235 225 224 238 230 219 239 225 222 240 221 223 242 223 225 239 226 220 235 224 218 240 224 225 236 221 224 237 225 225 228 227 222 235 228 218 237 226 222 235 231 222 230 226 215 196 223 172 201 223 24 202 233 5 211 233 11 204 228 10 201 225 15 198 220 13 194 218 10 200 220 11 202 222 13 198 221 9 204 228 10 201 223 14 205 225 14 207 229 6 204 225 6 198 218 5 197 222 7 198 220 13 197 216 10 198 218 9 196 216 5 196 217 2 209 230 11 207 228 11 205 227 5 205 226 9 208 230 8 210 232 10 204 228 12 198 221 7 
194 219 4 199 223 5 203 227 7 199 223 7 191 213 4 196 220 2 204 229 6 211 235 19 205 229 11 201 225 9 204 228 8 205 231 12 207 234 9 207 232 9 203 227 9 200 224 4 198 224 3 200 225 10 202 226 8 197 219 10 197 219 12 200 227 11 199 224 9 199 223 7 202 223 4 208 225 9 
209 230 37 199 223 5 204 225 8 200 224 6 200 224 6 197 221 5 199 223 7 201 225 7 203 227 7 204 228 10 198 222 14 198 224 5 200 226 3 203 228 13 207 231 13 202 223 6 189 213 5 191 213 4 197 220 8 195 217 10 186 209 4 194 219 4 204 229 6 208 231 5 205 227 5 199 223 7 201 225 9 211 231 9 213 234 9 207 228 11 204 225 6 205 225 4 204 226 4 198 222 6 197 222 9 202 228 5 198 224 3 201 223 14 201 225 17 202 227 14 208 227 14 205 226 7 200 220 9 200 220 11 202 226 8 198 222 4 205 229 11 205 230 7 199 223 7 201 223 14 205 228 14 207 228 11 209 229 10 211 228 10 204 223 7 198 220 11 199 223 87 221 229 208 236 233 228 237 225 227 240 225 220 235 225 216 238 222 225 236 226 225 237 225 225 237 226 222 236 227 218 239 226 220 235 226 221 239 224 221 237 226 220 236 226 225 240 225 220 238 227 223 237 226 222 239 232 224 238 229 220 237 226 224 236 226 227 237 227 225 235 233 220 233 229 218 233 226 216 237 228 223 234 225 216 236 227 222 238 229 224 237 225 229 237 227 218 237 228 221 236 229 219 237 226 220 234 223 219 237 225 227 237 225 225 237 226 224 236 228 217 238 227 221 236 226 227 242 224 224 242 223 225 235 224 218 237 223 222 235 227 224 237 221 221 240 224 227 239 223 223 242 224 224 236 234 221 236 227 220 237 228 223 237 226 222 241 227 224 237 226 222 239 225 222 240 224 224 234 222 222 231 229 217 228 226 214 230 221 216 219 222 205 192 221 165 178 221 113 178 217 66 184 214 22 190 215 9 190 223 10 190 223 8 195 225 5 201 228 9 195 222 3 198 225 8 207 235 11 199 224 8 198 223 10 197 221 11 196 223 7 201 226 10 203 229 6 204 231 6 207 234 7 195 222 3 188 213 7 191 214 9 196 220 10 198 224 11 189 215 2 189 212 7 192 214 7 186 209 4 188 212 4 194 218 10 191 220 6 198 230 7 200 231 6 204 231 6 200 226 3 207 234 9 205 233 8 200 226 5 191 220 8 186 214 8 192 218 5 201 229 5 197 227 5 194 225 7 184 212 3 182 209 10 191 220 8 199 226 7 200 228 4 194 223 7 190 218 11 179 206 7 175 201 4 181 210 6 191 221 9 196 226 4 196 223 7 188 217 5 188 217 3 193 218 12 187 210 8 183 208 5 182 210 3 192 218 7 208 235 8 207 232 9 
201 226 13 190 219 3 189 218 4 192 221 5 191 220 6 190 218 11 188 216 7 186 211 6 176 203 4 183 211 5 192 221 9 196 222 9 194 221 5 197 224 7 201 229 7 205 231 8 202 229 4 195 220 7 199 224 11 202 228 5 206 234 10 205 231 12 197 224 7 195 224 8 196 226 6 192 218 5 187 216 2 195 225 7 198 228 8 196 222 13 190 218 11 183 213 5 188 218 6 196 226 6 195 226 8 187 220 7 177 205 7 169 195 2 176 202 7 190 218 12 195 224 8 200 228 6 198 225 6 191 219 10 182 209 10 184 212 3 194 225 7 197 227 5 201 229 5 192 218 5 186 214 8 191 220 8 200 226 5 205 233 8 207 234 9 200 226 3 204 231 6 200 231 6 198 230 7 191 220 6 194 218 10 188 212 4 186 209 4 192 214 7 189 212 7 189 215 2 198 224 11 196 220 10 191 215 7 188 213 8 195 222 3 206 235 7 204 230 7 203 229 8 198 227 11 191 222 7 197 221 11 197 221 11 197 225 78 207 234 153 213 226 198 227 228 212 230 226 214 233 229 220 241 223 223 234 226 223 235 228 220 235 224 218 237 223 222 236 224 224 233 223 224 239 226 220 237 227 228 233 223 224 242 222 223 237 226 222 239 226 220 234 225 218 235 224 218 237 225 225 235 224 222 236 225 221 236 229 219 235 233 221 236 227 220 235 225 223 238 227 223 237 222 217 241 222 224 236 226 224 236 227 222 238 227 221 238 224 224 235 223 225 237 226 220 236 229 219 234 226 223 234 225 220 235 224 220 234 227 217 224 224 212 220 229 208 215 223 200 208 224 197 203 225 189 207 230 152 201 226 106 198 224 73 198 221 45 200 223 19 204 228 10 212 234 11 198 228 6 189 212 8 191 214 9 201 229 5 210 232 10 207 227 32 201 223 99 199 220 179 231 225 213 236 227 220 237 225 227 236 226 225 238 228 227 237 228 221 235 228 222 236 224 226 238 227 221 239 225 222 235 227 224 237 222 225 240 225 222 234 231 222 239 230 225 236 227 220 228 228 220 204 224 113 210 230 9 212 229 11 205 230 7 206 226 15 200 224 14 199 223 7 205 230 7 205 229 11 198 222 4 202 226 8 200 220 11 200 220 9 205 226 7 208 227 14 202 227 14 201 225 17 201 223 14 198 224 3 202 228 5 197 222 9 198 222 6 204 226 4 205 225 4 204 225 6 207 228 11 213 234 9 211 231 9 201 225 9 199 223 7 
205 227 5 208 231 5 204 229 6 194 219 4 186 209 4 195 217 10 197 220 8 191 213 4 189 213 5 202 223 6 207 231 13 203 228 13 200 226 3 198 224 5 198 222 14 204 228 10 203 227 7 201 225 7 199 223 7 197 221 5 199 225 4 200 224 6 203 224 9 198 222 4 207 225 19 
205 226 27 200 224 6 197 221 5 202 221 15 204 226 17 205 228 14 199 225 4 202 227 3 213 234 17 204 226 17 194 218 8 196 223 4 201 225 5 205 224 8 203 222 8 193 212 8 182 204 5 195 217 10 201 222 5 196 217 2 203 227 9 209 236 9 209 234 10 206 231 7 208 229 4 208 233 7 205 230 7 212 234 11 209 229 7 201 222 7 201 222 7 196 216 3 192 217 4 191 217 6 193 219 6 192 214 7 190 212 3 198 223 10 205 230 17 210 235 9 206 227 8 203 224 5 205 229 9 205 229 11 199 224 0 197 219 10 203 223 10 209 230 11 210 231 16 200 221 6 201 224 10 210 227 9 201 225 7 201 225 9 203 224 7 210 231 140 234 232 220 236 225 223 237 230 224 240 225 222 236 227 222 236 227 222 243 222 219 235 228 220 238 227 223 238 225 219 242 223 225 236 228 225 235 228 220 237 226 220 243 229 226 235 225 224 240 231 224 236 237 221 234 235 221 236 229 221 237 226 220 236 229 221 237 230 222 238 227 225 237 224 218 237 221 224 235 223 223 236 225 223 237 226 224 235 225 226 237 226 220 235 228 222 236 226 227 235 224 222 237 226 222 237 228 221 233 226 220 237 226 222 240 227 219 236 227 222 236 227 222 243 223 222 240 227 219 240 225 222 236 228 225 237 226 222 236 224 224 237 223 223 235 226 219 237 226 220 237 225 227 236 225 223 234 229 225 236 227 220 235 226 221 238 223 220 239 225 222 239 226 218 237 227 218 235 223 227 234 222 222 235 226 221 237 226 222 237 228 223 234 225 218 235 224 220 234 224 222 233 226 220 230 226 215 217 225 202 207 224 192 205 227 178 202 230 145 204 229 102 195 223 50 200 226 13 193 223 3 189 217 8 191 219 10 196 223 4 206 234 10 207 231 13 202 226 6 196 221 5 186 208 9 177 196 8 175 195 9 175 200 10 185 210 5 195 222 6 187 212 6 184 205 4 192 214 9 194 219 4 194 219 6 195 220 5 196 226 6 199 229 11 199 232 5 194 225 8 193 219 8 197 220 15 186 214 8 191 217 4 194 220 9 188 216 10 193 223 5 199 227 3 197 224 8 192 218 7 177 201 3 187 211 11 197 226 14 198 225 9 193 219 8 191 216 10 185 215 5 184 213 7 185 214 8 197 227 9 204 232 10 199 229 7 196 223 4 187 212 6 187 215 8 196 222 9 195 220 5 181 205 5 180 209 7 186 214 7 
199 226 7 205 231 12 201 228 11 194 223 7 201 228 9 206 230 10 200 226 7 199 227 5 193 225 4 190 220 8 181 208 5 185 210 5 189 215 6 187 212 9 181 208 7 172 197 7 179 203 3 190 214 4 197 222 7 195 220 7 194 218 10 193 220 4 196 223 7 209 236 19 202 232 10 196 221 6 198 224 11 184 217 4 195 225 7 200 227 8 198 225 8 196 227 10 197 226 12 189 215 6 185 214 10 190 221 3 195 225 7 207 234 17 202 229 10 185 214 8 186 211 6 183 211 4 186 216 6 193 222 8 198 225 9 199 225 12 187 212 7 176 199 3 189 219 7 194 225 8 199 227 2 195 221 8 188 216 7 191 220 6 191 217 4 186 214 7 196 219 14 193 219 8 195 224 10 197 232 6 201 228 11 195 227 6 195 222 5 194 218 8 196 219 5 191 214 9 183 205 6 188 211 6 195 222 5 182 210 3 177 200 8 170 196 9 176 199 5 187 212 7 198 221 43 200 227 96 207 231 143 207 234 189 219 222 201 224 224 212 235 226 221 237 226 224 235 225 223 234 225 218 237 228 219 238 229 222 235 228 222 237 226 222 240 224 224 237 226 224 240 227 219 236 226 224 242 224 220 240 224 227 242 224 220 234 225 218 234 225 220 237 225 225 230 230 222 237 222 225 243 223 225 235 227 224 242 223 225 237 227 218 235 226 219 238 226 226 236 225 229 237 226 220 239 226 220 234 224 223 242 224 224 237 228 223 232 225 219 235 226 221 234 225 220 231 225 213 222 223 207 213 225 205 205 226 187 197 219 137 198 220 86 193 216 48 194 217 21 205 226 7 202 223 6 190 220 12 194 219 6 203 227 11 200 224 6 201 226 3 197 219 12 198 217 11 193 215 10 195 217 8 202 226 8 210 230 9 206 225 11 199 222 8 204 229 6 213 236 8 211 237 8 202 232 12 203 227 9 208 230 96 200 224 188 223 226 207 237 227 225 236 228 225 237 226 220 236 227 228 236 227 220 237 222 225 238 227 221 241 222 226 240 226 226 234 231 224 240 226 225 235 231 220 236 231 225 243 225 225 200 228 180 203 223 10 206 227 8 204 222 12 199 219 6 210 231 14 206 232 9 204 222 12 200 220 9 200 225 1 204 228 8 204 229 6 201 225 5 206 228 6 210 235 9 205 230 17 198 223 10 190 212 3 192 214 7 193 219 6 191 217 6 192 217 4 196 216 3 201 222 7 201 222 7 209 229 7 212 234 11 205 230 7 
208 233 7 208 229 4 206 231 7 209 234 10 209 236 9 203 227 9 196 217 2 201 222 5 195 217 10 182 204 5 193 212 8 203 222 8 205 224 8 201 225 5 196 223 4 194 218 8 204 226 17 213 234 17 203 225 3 199 223 5 204 229 13 203 227 17 202 221 15 197 221 5 199 223 3 202 220 12 
209 228 25 198 223 7 195 219 9 199 223 13 201 225 9 194 216 7 188 211 7 200 227 11 201 226 11 195 220 5 196 221 8 206 232 9 208 234 5 208 230 8 204 225 8 194 217 5 192 217 4 196 221 6 200 226 5 209 236 11 213 240 13 213 238 12 209 229 7 211 229 7 204 225 6 201 224 10 197 222 7 206 228 6 208 229 12 198 219 4 194 217 3 193 214 13 192 214 9 188 209 6 188 210 5 193 215 6 196 218 9 201 221 8 204 225 6 203 223 10 197 220 8 198 221 9 198 222 14 198 223 8 198 223 10 198 223 8 204 228 8 214 238 20 207 226 10 193 213 4 201 218 15 201 221 8 200 223 11 195 217 12 204 226 187 237 226 222 238 224 223 236 227 220 237 225 225 237 226 222 234 227 221 239 225 225 237 233 224 239 225 224 238 228 227 236 227 220 230 225 219 237 222 227 239 223 224 240 226 225 233 229 218 228 228 218 225 227 213 217 224 206 218 226 205 219 223 208 221 226 206 223 227 212 225 224 219 233 226 218 233 226 220 236 229 223 242 236 220 242 227 220 241 226 219 237 228 221 236 227 220 233 223 221 239 231 220 235 236 222 235 231 222 236 231 225 233 239 225 235 239 224 236 232 221 239 232 222 241 227 224 236 225 223 235 227 224 237 227 225 234 238 224 234 232 220 234 229 226 234 236 222 236 227 220 235 224 220 240 224 225 242 224 220 241 231 221 236 227 220 239 221 221 240 224 225 242 222 231 239 224 227 240 224 225 235 224 220 236 225 221 239 223 223 239 225 224 235 225 223 235 225 224 237 225 225 237 225 229 236 224 224 239 225 225 241 231 222 242 236 220 241 235 221 237 226 220 233 226 220 231 226 222 226 223 214 216 220 203 200 226 191 182 224 148 192 219 116 205 233 52 197 225 16 190 216 5 189 219 7 178 209 7 169 193 7 182 204 8 192 221 9 196 226 8 200 228 4 198 222 6 185 212 9 177 205 9 185 208 6 185 210 7 190 215 9 202 228 15 192 218 9 188 213 8 180 209 5 192 221 7 198 223 10 196 225 11 200 231 5 198 230 9 193 223 5 197 225 3 196 226 8 191 220 6 192 219 3 190 216 5 187 215 6 191 220 8 185 213 4 189 215 4 197 223 10 192 218 7 189 215 6 193 217 9 193 217 7 190 216 7 197 223 10 198 222 4 195 218 4 197 224 8 194 221 5 194 219 6 184 207 3 180 202 5 
181 205 7 188 214 5 194 219 4 191 213 6 185 208 6 187 212 6 197 223 12 198 221 7 196 221 6 195 224 10 191 220 4 184 212 6 184 212 6 193 222 6 186 214 7 184 213 9 183 208 3 187 210 6 189 212 8 194 220 7 194 221 5 193 219 8 195 220 7 192 221 9 200 226 13 201 225 15 199 224 9 192 218 5 181 208 5 187 214 11 190 218 11 194 220 9 193 222 6 199 226 7 198 223 8 186 215 3 189 219 7 187 215 9 187 215 6 194 221 4 196 222 9 183 213 5 187 215 8 192 221 9 184 209 3 188 211 7 189 222 9 188 216 7 189 218 2 189 218 4 191 220 4 198 225 8 194 226 3 189 223 4 198 227 11 203 231 9 198 225 9 197 223 10 192 222 4 180 209 5 188 214 3 192 217 11 199 230 15 191 215 7 187 210 8 183 208 5 178 204 9 183 212 8 193 223 3 201 227 18 198 225 58 192 220 109 183 224 164 205 224 192 226 222 213 232 225 219 233 226 218 235 226 217 236 232 221 237 225 227 239 223 224 240 226 225 236 225 221 237 226 220 237 226 222 235 225 224 235 227 224 239 235 223 237 239 228 236 232 220 237 226 222 236 226 225 235 223 223 234 224 222 238 224 221 236 222 222 235 227 225 237 229 227 240 222 220 240 222 218 236 227 222 233 229 220 234 223 221 236 226 225 239 224 227 236 227 222 236 229 219 238 223 220 240 225 220 236 229 223 229 224 218 213 235 212 205 228 174 209 231 122 217 238 83 201 222 57 192 213 32 191 215 5 201 228 1 200 235 11 201 231 9 214 239 13 218 241 13 209 230 11 214 231 13 216 233 13 208 232 12 196 221 8 196 219 7 204 224 11 196 220 4 203 229 8 210 236 15 201 225 7 190 212 7 185 207 2 198 218 9 207 228 13 197 220 8 201 223 14 204 224 11 201 225 9 201 226 10 201 221 8 200 229 1 200 227 8 199 221 14 197 220 103 219 226 195 239 228 224 244 227 219 237 226 224 233 234 220 235 228 220 236 230 218 238 227 221 235 225 223 235 223 223 233 223 222 235 223 223 235 225 223 231 227 216 214 223 196 198 222 48 191 219 12 197 212 7 207 226 13 214 238 18 204 228 10 200 223 11 198 221 9 200 223 11 198 221 7 198 220 11 197 219 10 203 223 10 204 225 6 201 221 8 196 218 9 193 215 6 188 210 5 188 209 6 192 214 9 193 214 13 194 217 3 198 219 4 208 229 12 206 228 6 
197 222 7 201 224 10 204 225 6 211 229 7 209 229 7 213 238 12 213 240 13 209 236 11 200 226 5 196 221 6 192 217 4 194 217 5 204 225 8 208 230 8 208 234 5 206 232 9 196 221 8 195 220 5 201 226 11 200 226 13 188 212 4 194 216 7 201 224 10 200 222 13 195 221 10 198 223 7 206 223 7 
202 222 26 191 213 6 194 219 6 195 219 3 185 208 4 186 211 5 192 219 3 198 223 7 197 224 7 197 225 3 203 229 6 202 226 6 198 218 5 199 222 10 198 222 6 196 219 5 205 228 14 209 234 11 206 230 10 204 225 6 203 224 5 201 221 8 200 220 7 208 229 10 195 217 8 184 207 5 199 224 8 207 233 4 199 222 8 188 210 5 197 222 6 199 222 10 196 219 14 196 219 7 199 223 7 203 229 8 204 229 6 205 226 11 204 224 13 198 220 13 200 223 9 198 221 9 201 223 14 206 230 12 203 226 14 204 228 10 205 230 7 200 224 6 203 222 9 205 224 11 205 226 7 197 224 8 201 222 41 228 227 209 239 225 222 242 229 220 237 228 223 237 223 223 233 226 220 237 225 227 236 225 223 235 228 218 242 223 225 234 227 221 237 224 218 234 223 217 244 225 229 234 225 218 199 223 189 212 233 142 203 226 86 198 219 40 202 222 13 202 228 7 198 224 5 205 224 20 201 218 15 194 215 14 190 214 38 187 213 60 192 217 99 205 229 117 202 229 150 200 222 183 204 220 193 216 223 205 223 226 207 227 234 218 226 243 209 230 238 217 236 239 220 235 238 219 237 235 220 235 228 220 236 226 227 237 227 228 241 227 224 234 227 221 236 229 221 240 231 224 235 237 226 236 227 222 239 225 225 242 233 218 227 226 222 236 226 225 240 226 225 241 228 222 235 236 218 236 227 222 237 226 224 233 223 222 238 229 220 236 225 219 236 227 222 238 228 219 239 225 225 233 223 224 237 226 222 235 228 220 242 223 227 240 225 222 238 227 223 236 227 220 234 225 220 236 229 219 236 232 221 236 227 222 242 224 224 236 225 219 239 226 218 234 225 216 233 226 216 238 226 228 236 224 224 231 226 222 237 227 226 228 225 218 218 225 207 205 221 192 197 223 184 182 220 145 186 222 86 196 215 45 194 222 15 192 217 4 190 218 12 184 213 9 179 208 2 198 224 11 201 223 14 199 225 12 201 229 7 193 225 4 191 220 6 193 219 6 198 226 4 186 215 1 192 221 5 206 234 12 202 230 6 192 222 2 194 225 7 193 219 6 194 219 3 200 230 10 194 229 5 189 222 7 198 223 7 193 219 6 193 222 8 192 221 5 190 216 3 194 220 7 197 223 10 185 213 6 181 206 3 188 213 10 192 216 8 196 221 8 196 223 7 192 218 5 193 218 5 192 218 9 181 205 5 
169 194 6 178 207 5 196 224 2 199 224 9 192 217 11 178 205 6 184 214 6 193 218 5 197 222 9 198 224 13 193 219 6 187 213 4 185 209 9 186 214 5 196 225 9 193 222 6 193 219 10 196 220 10 196 221 6 190 216 7 184 209 3 190 216 3 192 216 6 191 217 8 196 223 4 195 219 9 179 206 5 183 212 6 189 218 4 178 207 5 183 210 9 199 222 8 201 227 4 199 224 9 196 218 9 187 212 7 184 209 6 184 209 4 179 203 5 184 211 10 195 226 9 195 221 12 182 210 3 188 218 8 192 217 11 195 221 10 198 223 8 188 221 6 195 227 6 200 231 6 195 222 6 193 218 5 197 224 5 193 223 3 202 230 8 205 235 13 191 220 6 186 217 0 199 225 6 191 220 8 192 221 5 187 222 6 194 229 5 197 226 14 200 224 14 197 224 51 184 217 113 193 220 169 216 224 201 223 226 209 228 229 213 232 223 216 236 227 222 236 224 226 236 225 221 241 226 223 239 224 221 242 224 220 236 224 224 236 227 228 242 224 222 239 224 219 239 224 219 237 224 218 234 225 218 236 225 219 237 227 218 237 226 224 237 230 222 235 232 227 240 227 221 242 224 222 237 227 218 235 225 223 237 228 223 237 228 219 235 228 222 237 226 224 242 223 225 243 223 224 236 223 215 235 226 219 236 229 221 236 227 220 237 222 225 231 227 216 223 238 207 206 228 192 203 225 140 201 224 54 199 223 5 203 233 11 196 225 9 201 226 10 214 235 16 207 233 10 203 227 19 200 224 6 204 226 3 202 226 8 203 226 12 207 228 9 214 236 14 214 238 20 215 239 19 216 238 15 216 242 11 207 234 9 200 224 8 203 223 10 198 221 9 196 221 5 203 229 8 204 231 6 191 216 3 183 203 8 186 208 11 192 215 10 200 219 13 206 226 17 199 223 7 203 227 9 200 224 6 199 220 5 205 226 9 209 233 13 199 224 8 190 219 7 190 214 6 199 221 76 214 226 202 242 227 232 237 227 217 235 223 223 237 226 220 234 225 216 233 225 223 236 227 218 241 222 228 235 228 218 238 224 223 245 223 235 236 227 222 224 225 209 205 228 78 199 224 8 205 222 6 203 224 7 205 230 7 206 227 8 203 227 19 206 230 14 201 223 14 197 220 6 199 224 8 198 220 13 204 224 13 205 226 11 204 229 6 203 229 8 199 223 7 196 219 7 196 219 14 199 222 10 197 222 6 188 210 5 199 222 8 207 233 4 199 224 8 
184 207 5 195 217 8 208 229 10 200 220 7 201 221 8 203 224 5 204 225 6 206 230 10 209 234 11 205 228 14 196 219 5 198 222 6 199 222 10 198 218 5 202 226 6 203 229 6 197 225 3 197 224 7 197 224 5 192 219 3 187 210 6 186 207 4 195 218 4 194 219 6 189 213 5 199 218 5 
206 227 26 202 226 8 203 227 11 195 217 8 189 212 10 199 226 9 201 229 5 201 225 5 196 223 7 198 225 8 205 232 7 206 228 6 206 229 15 203 229 10 197 223 0 206 231 7 213 234 15 204 225 8 192 211 5 197 217 6 203 224 9 196 215 9 195 219 11 196 222 9 192 216 6 194 217 13 195 219 9 195 220 4 189 212 7 190 214 6 201 227 6 195 220 4 200 225 9 204 228 10 205 229 11 206 231 16 207 231 13 206 231 8 200 224 8 195 217 8 205 225 16 200 223 9 196 218 13 196 218 11 196 217 2 203 224 7 212 233 18 215 236 17 208 231 5 205 225 6 190 218 9 193 220 53 227 224 215 226 228 217 241 226 219 239 224 219 235 223 223 243 224 226 235 230 224 238 230 217 241 226 221 233 223 222 241 233 220 235 236 222 236 227 222 228 228 220 193 222 132 196 220 12 201 228 12 198 228 10 193 215 8 201 221 10 195 221 8 202 227 11 201 224 10 201 224 10 198 221 9 193 218 5 190 215 2 186 209 7 194 221 5 209 233 15 202 226 8 190 216 7 197 226 14 203 228 12 201 221 10 205 228 26 205 231 38 200 223 44 199 221 51 202 224 77 196 221 117 191 219 158 203 223 188 218 224 196 222 225 204 223 227 212 225 225 213 233 226 218 238 228 219 240 225 218 235 228 220 234 231 222 240 225 220 237 224 218 235 228 222 233 234 226 237 234 225 240 224 225 239 225 222 235 231 220 235 231 220 237 225 225 240 226 225 236 227 218 235 225 223 236 226 224 239 229 227 241 226 221 237 227 218 237 226 224 237 226 224 237 225 225 237 225 225 237 226 220 237 226 220 239 225 224 233 226 220 237 224 216 235 224 220 236 227 222 244 224 223 239 224 219 237 226 222 236 227 220 235 227 224 233 226 220 236 227 218 236 227 220 238 231 223 239 230 221 236 227 222 232 228 217 226 227 211 219 223 200 210 225 194 196 225 171 189 221 122 203 228 64 199 225 16 193 219 8 196 223 4 190 227 8 193 227 8 195 222 5 193 218 5 190 215 9 196 223 7 208 234 15 197 228 11 190 216 3 182 203 2 182 206 8 186 216 4 187 217 7 187 216 4 196 223 7 191 216 10 183 211 5 191 219 12 190 219 5 191 220 6 197 223 12 192 218 9 191 216 10 189 213 5 186 211 5 187 213 2 197 223 10 199 225 12 197 223 12 193 219 8 195 221 8 196 225 11 
187 216 4 177 200 4 185 210 5 203 230 11 206 234 12 195 220 7 188 211 9 193 220 4 200 227 8 197 224 5 198 225 9 197 222 9 194 217 12 187 210 8 191 217 4 198 224 11 191 217 6 196 223 6 194 221 4 183 206 2 177 199 3 182 207 4 189 214 8 196 218 11 201 226 11 192 216 6 177 201 3 185 212 9 193 223 5 186 216 6 187 215 9 201 226 11 210 237 12 208 235 18 204 231 14 199 226 9 190 216 5 191 217 6 187 212 7 193 219 10 190 217 18 192 222 10 190 219 5 187 216 4 189 218 4 183 211 2 193 218 12 194 223 7 187 216 4 188 216 7 187 212 6 183 205 6 182 205 3 188 216 7 198 229 12 208 234 11 191 225 7 183 215 7 193 218 5 198 221 27 200 225 81 197 227 137 196 224 184 215 227 207 225 227 214 233 229 220 234 222 222 236 224 228 237 225 227 240 222 222 240 224 225 237 228 223 235 224 222 237 230 224 236 231 225 237 227 218 237 228 221 238 228 219 236 224 224 235 228 220 237 226 220 237 228 219 237 226 220 236 227 220 236 227 218 240 225 220 236 224 226 235 225 224 233 224 225 238 227 221 240 225 220 241 222 224 242 223 225 241 222 224 241 225 225 242 226 227 236 230 218 237 226 224 234 225 218 236 227 220 230 227 220 222 226 209 209 230 199 201 230 163 189 217 94 193 216 24 207 234 7 201 233 8 200 227 8 200 224 8 200 228 6 208 229 10 202 228 7 195 220 5 202 228 7 196 221 6 196 220 10 198 223 8 202 228 7 198 218 7 189 211 6 191 213 6 196 218 9 200 223 9 198 223 7 200 223 11 207 228 9 204 228 8 200 222 15 203 227 11 202 227 14 194 216 9 202 226 6 207 231 11 195 222 6 186 207 4 191 216 3 193 218 3 196 219 7 201 224 12 200 225 12 202 225 11 200 220 7 197 222 6 195 214 8 205 229 11 204 228 12 200 221 4 198 216 6 189 215 4 205 223 13 214 236 110 224 231 215 237 222 225 235 225 226 240 230 231 236 229 223 241 226 221 237 226 220 235 223 225 234 223 219 236 227 220 235 223 225 236 232 220 237 224 218 203 226 122 204 230 7 215 234 18 213 234 17 202 226 8 194 217 5 194 217 12 197 218 15 199 224 9 204 224 15 195 217 8 200 224 8 206 231 8 207 231 13 206 231 16 205 229 11 204 228 10 200 225 9 195 220 4 201 227 6 190 214 6 189 212 7 195 220 4 
195 219 9 194 217 13 192 216 6 196 222 9 195 219 11 196 215 9 203 224 9 197 217 6 192 211 5 204 225 8 213 234 15 206 231 7 197 223 0 203 229 10 206 229 15 206 228 6 205 232 7 198 225 8 196 223 7 201 226 3 201 229 7 197 226 10 189 214 8 196 216 7 205 226 11 202 226 8 202 223 8 
205 223 25 188 210 3 188 211 7 186 209 5 182 204 7 192 217 4 200 226 7 202 227 11 205 230 7 205 232 7 202 226 6 201 225 5 195 220 5 185 210 5 196 222 11 205 230 6 199 222 10 196 217 14 194 217 12 205 232 5 205 232 5 198 222 6 202 228 5 207 233 10 197 220 15 187 210 6 190 214 6 193 218 5 197 222 6 205 229 9 199 223 7 195 219 11 202 222 13 205 230 7 205 230 6 206 228 6 204 225 6 204 225 8 197 218 1 197 217 8 206 226 13 192 214 7 190 214 6 199 224 8 208 230 25 215 238 26 211 233 10 201 221 10 195 212 12 184 211 8 191 216 88 231 222 217 236 222 221 237 225 225 242 222 223 236 224 228 241 232 217 234 236 223 241 232 225 244 227 220 235 225 223 237 228 223 229 226 219 235 226 217 191 218 123 187 209 10 198 224 11 201 226 13 199 224 9 194 216 9 195 220 15 209 234 18 201 221 12 196 218 9 191 213 8 186 210 2 190 212 3 199 220 5 196 220 4 194 219 14 203 225 16 208 229 14 201 221 8 196 218 11 199 223 15 198 223 7 192 217 4 188 211 0 200 222 15 197 219 14 185 208 6 191 214 10 186 209 4 186 211 6 190 218 9 198 225 6 197 222 6 192 215 10 195 218 39 192 219 64 191 218 87 199 224 123 207 231 169 211 223 199 220 222 209 228 224 213 231 226 220 235 225 216 238 227 221 237 226 224 234 222 222 238 228 226 242 223 225 233 224 219 233 226 216 237 225 225 240 224 227 237 226 222 233 226 218 236 226 225 236 226 224 237 228 219 236 227 220 236 224 226 236 224 224 236 226 225 235 225 224 237 226 220 239 222 228 236 224 226 235 225 226 232 227 223 236 226 224 236 225 223 242 223 225 239 230 223 240 230 218 238 227 221 236 226 227 235 223 227 239 225 225 234 225 218 237 228 223 242 224 224 235 228 222 233 226 220 235 224 220 241 222 224 242 221 226 239 226 218 228 226 213 223 228 208 209 230 199 200 226 187 201 225 151 198 223 103 191 220 52 194 223 17 204 232 7 201 227 8 190 225 7 186 214 8 181 205 5 191 217 4 188 217 5 188 217 3 192 219 3 191 213 6 181 204 0 180 202 5 186 209 7 193 217 7 194 220 9 189 217 8 193 222 6 198 225 6 195 222 6 195 221 8 193 218 5 194 219 4 197 222 6 190 215 2 188 214 5 190 215 9 188 216 7 193 219 10 190 214 6 
183 208 3 185 212 9 192 218 7 195 220 5 186 204 4 173 199 4 187 212 7 198 224 11 199 225 14 198 224 11 197 224 5 192 219 3 194 220 7 194 219 6 190 216 7 197 224 5 197 224 7 188 211 7 186 208 9 183 208 5 191 217 4 198 225 8 197 224 8 197 224 5 201 226 11 196 221 8 189 218 2 193 223 3 191 220 6 201 227 6 197 222 9 198 223 8 199 226 9 195 221 10 191 217 6 191 220 4 193 223 5 197 222 7 194 220 7 187 217 5 196 225 9 194 220 7 184 211 8 179 203 5 180 203 1 190 214 4 192 216 6 191 217 6 188 218 10 187 217 7 178 205 6 187 215 8 198 225 52 203 227 133 208 231 161 210 222 200 220 223 212 228 225 216 234 227 219 234 225 218 235 230 226 243 224 220 237 226 220 240 226 223 237 226 220 236 227 218 237 226 220 237 225 227 242 223 229 237 226 220 239 225 222 243 225 225 235 225 226 234 226 223 236 226 227 236 227 220 241 231 221 240 230 221 237 221 222 237 222 229 235 222 229 234 225 226 236 227 220 240 225 220 235 227 224 238 227 223 243 224 220 237 225 227 237 226 224 236 226 225 237 227 218 233 231 219 228 224 213 233 225 223 221 225 208 210 225 192 192 223 145 189 219 89 183 214 33 182 211 5 193 222 10 196 226 14 190 216 5 180 202 5 182 207 4 192 215 10 186 209 4 189 211 6 189 213 3 193 217 9 206 231 15 200 223 18 191 213 8 195 217 10 193 217 7 194 218 10 196 221 6 203 224 5 194 219 3 187 211 3 187 208 5 195 214 10 185 206 5 197 218 15 202 222 13 188 210 3 192 215 1 199 223 13 199 223 15 196 218 11 201 221 10 207 231 13 202 225 20 196 217 16 195 218 4 197 220 6 192 214 7 188 210 5 190 212 5 196 218 9 199 221 14 208 233 18 197 220 16 193 217 7 202 222 9 201 225 15 200 225 12 184 209 4 192 211 5 198 228 8 202 226 28 192 222 168 229 226 217 241 228 220 242 231 225 234 234 222 242 232 223 237 226 222 236 229 221 240 226 225 240 221 227 238 224 224 240 220 231 241 227 214 193 218 116 197 223 10 210 233 7 215 240 27 206 230 22 205 224 8 191 210 6 192 214 7 207 228 13 197 217 8 197 218 1 204 225 8 204 225 6 206 228 6 205 230 6 205 230 7 202 222 13 195 219 11 199 223 7 205 229 9 197 222 6 193 218 5 190 214 6 187 210 6 197 220 15 
207 233 10 202 228 5 198 222 6 205 232 5 205 232 5 194 217 12 196 217 14 199 222 10 205 230 6 196 222 11 185 210 5 195 220 5 201 225 5 202 226 6 205 232 7 205 230 7 203 226 12 200 226 5 191 217 6 181 205 5 186 209 4 188 211 6 188 209 6 202 218 5 
202 224 27 196 222 3 200 226 5 196 221 5 193 219 6 198 225 8 200 227 8 201 227 8 206 226 13 202 226 6 197 219 10 195 220 5 194 220 1 195 220 5 205 231 10 199 223 7 196 220 2 195 218 6 199 222 10 207 232 8 204 228 10 195 217 8 197 221 3 197 221 5 184 206 7 195 217 12 200 223 11 200 223 9 208 232 16 200 224 6 202 223 8 206 230 10 208 229 12 207 231 13 201 225 7 201 221 8 197 217 6 194 217 5 192 214 9 193 212 9 199 218 4 195 215 6 198 220 13 205 231 12 210 234 14 207 228 11 196 215 9 190 211 8 188 213 8 190 218 118 236 224 224 242 222 224 235 223 227 234 227 221 234 226 224 237 229 226 236 232 220 235 228 220 232 225 217 242 223 225 236 223 230 234 225 220 200 225 131 187 210 5 180 204 4 188 211 7 193 212 9 194 217 3 202 227 4 204 225 10 205 227 18 202 227 3 194 216 7 200 222 13 193 215 6 190 212 5 196 220 4 211 232 7 204 225 6 196 218 11 202 224 15 208 233 9 212 236 20 208 233 18 200 224 8 197 215 7 187 208 9 189 216 13 206 227 8 200 226 5 200 223 9 208 229 14 200 225 12 193 215 10 196 216 7 196 221 5 195 220 7 196 220 4 197 220 6 195 217 10 192 213 10 204 228 18 190 220 8 177 200 6 175 202 3 182 212 28 188 220 83 194 219 135 191 220 174 208 222 196 222 223 209 230 223 215 240 225 220 236 226 224 233 223 224 234 222 224 234 225 218 238 229 224 240 225 220 238 226 228 237 225 227 237 228 223 237 226 220 238 227 223 236 227 220 238 227 223 239 226 220 241 225 226 239 226 218 237 228 219 239 226 218 236 224 224 236 224 224 235 223 225 237 225 227 241 230 226 235 228 222 234 225 220 236 222 219 240 227 221 234 227 219 230 225 219 236 222 219 241 226 223 240 222 218 242 223 227 237 225 227 235 226 221 235 226 227 236 228 225 238 227 221 238 228 219 242 231 225 232 224 221 237 226 222 237 225 225 231 223 221 224 228 213 215 234 202 205 231 194 202 227 187 192 224 139 189 221 84 199 230 40 197 226 14 195 224 8 192 223 8 190 220 8 193 222 8 194 221 5 194 220 7 193 219 8 188 213 7 182 209 6 184 212 6 184 212 3 184 217 6 189 218 6 189 215 6 193 218 5 196 221 6 190 216 3 185 213 6 188 213 8 192 218 9 187 210 6 174 197 5 
182 209 6 195 225 7 187 215 6 192 218 5 188 214 3 181 208 5 191 216 10 186 211 8 183 207 7 185 213 6 190 220 8 192 220 13 182 209 8 188 214 5 189 214 9 195 219 9 195 218 13 185 210 7 191 216 11 191 216 11 194 219 6 199 227 3 194 224 6 194 225 8 202 226 18 196 221 8 189 217 8 188 214 3 192 216 6 189 220 3 189 214 8 192 217 11 192 217 12 190 213 8 188 212 4 191 217 6 192 221 7 186 215 3 179 206 3 184 212 6 190 221 6 200 229 13 197 223 10 187 220 7 189 224 10 195 219 9 195 222 21 195 225 69 194 227 112 201 229 152 212 226 191 223 226 209 230 227 220 240 230 218 241 235 221 239 226 220 238 224 224 233 225 223 230 227 222 233 225 223 237 234 219 237 228 219 238 223 218 237 226 224 236 226 225 235 223 225 238 227 223 238 227 221 233 224 219 239 225 225 236 227 218 234 225 216 238 227 225 243 225 223 240 225 218 238 226 226 233 225 222 236 232 223 242 222 224 241 222 228 237 226 224 236 227 218 236 225 219 241 226 223 238 228 219 239 225 224 235 226 221 235 224 218 233 225 223 233 223 221 210 223 197 175 225 164 188 221 106 202 226 40 196 221 8 186 211 8 178 209 7 182 210 4 182 204 7 185 208 4 192 216 8 195 223 14 193 219 6 188 214 5 186 209 5 194 218 10 187 213 4 179 202 6 178 195 1 176 198 2 196 219 14 203 228 15 192 213 10 197 217 6 197 220 8 195 220 4 196 219 7 197 219 10 193 218 5 191 216 10 199 224 9 209 230 15 201 224 10 197 225 3 202 227 12 193 216 12 187 207 11 194 217 3 199 223 7 208 231 19 212 236 18 208 233 9 202 224 15 195 219 11 205 226 9 208 231 3 196 220 2 189 212 7 193 215 8 200 223 11 193 218 5 202 227 3 204 227 15 203 227 11 202 227 4 190 219 5 191 213 6 190 211 10 179 203 3 187 209 4 201 222 7 205 223 15 194 220 110 228 221 211 228 227 223 236 227 222 234 232 217 240 227 218 235 228 222 234 225 216 238 227 225 233 228 225 225 228 221 244 224 223 234 226 223 191 217 130 200 215 10 205 229 11 210 236 15 205 231 12 197 221 13 196 216 5 198 217 1 193 212 9 192 214 9 194 217 5 197 217 6 201 221 8 201 225 7 207 231 13 208 229 12 206 230 10 202 223 8 200 224 6 208 232 16 200 223 9 200 223 11 195 217 12 
184 206 7 197 221 5 197 221 3 195 217 8 204 228 10 207 232 8 199 222 10 195 218 6 196 220 2 199 223 7 205 231 10 195 220 5 194 220 1 195 220 5 197 219 10 202 226 6 206 226 13 202 226 8 201 227 6 198 225 8 192 218 5 195 222 5 199 227 5 196 222 3 201 217 7 
191 213 27 186 208 9 187 208 5 185 207 2 185 210 5 184 211 8 191 217 8 206 227 8 202 226 8 196 219 7 195 217 12 190 215 2 203 228 13 215 237 30 204 227 15 200 225 10 205 228 14 208 231 5 212 233 4 213 234 7 203 224 7 191 214 2 198 221 7 190 212 5 185 207 10 199 221 14 201 222 5 203 227 11 202 225 11 206 227 10 216 235 19 209 230 11 195 219 9 192 215 10 200 226 7 195 217 8 195 217 10 203 229 6 200 224 4 206 230 12 207 228 13 206 227 8 200 222 13 197 219 10 201 222 5 195 216 1 186 208 3 190 215 10 190 219 91 237 226 220 233 224 219 235 224 228 241 222 224 238 226 214 236 229 223 237 228 221 232 228 225 234 226 224 238 226 226 242 224 220 215 228 200 206 227 46 190 220 8 187 208 9 186 214 7 198 225 6 206 230 10 211 236 13 207 232 9 204 225 8 197 221 11 197 219 12 196 221 6 198 223 7 200 224 8 200 223 11 214 235 20 215 238 12 205 226 7 197 219 12 198 221 7 199 224 9 202 223 8 195 217 10 196 219 5 198 218 5 202 225 11 210 231 14 201 225 15 199 222 8 204 229 6 205 230 6 205 228 14 196 218 11 203 224 9 216 233 13 200 223 9 199 219 8 203 224 9 197 217 6 199 221 14 193 220 4 184 207 5 172 187 8 175 196 5 195 222 6 208 229 10 201 226 10 193 222 8 192 215 3 191 213 6 194 221 22 188 218 72 191 220 128 200 221 180 209 225 196 216 226 201 229 225 214 234 225 218 239 228 222 236 225 219 236 226 217 239 224 219 243 222 227 239 223 224 237 225 227 236 227 222 236 229 223 239 224 227 236 226 225 234 224 222 237 225 227 237 228 223 237 227 218 235 231 220 236 234 219 239 225 216 234 230 221 230 230 220 233 221 221 240 221 223 240 227 221 237 226 222 241 222 226 238 223 226 236 225 223 240 224 225 241 224 217 240 226 217 237 227 218 235 228 220 237 225 225 235 228 220 238 227 223 241 222 224 241 222 226 237 223 222 235 227 225 238 228 226 242 223 227 237 225 227 237 224 216 237 222 215 236 226 216 228 226 213 216 223 205 207 223 196 197 224 183 194 225 145 187 221 111 183 216 77 186 217 51 186 215 26 185 212 11 186 214 8 188 216 7 184 212 6 184 212 3 186 216 6 191 222 7 193 219 6 192 216 6 188 213 7 195 220 7 195 222 5 190 213 8 
180 202 5 183 207 7 197 223 10 195 220 7 191 216 10 189 219 7 194 224 6 199 227 3 195 220 4 187 212 6 177 204 3 181 209 11 184 211 12 185 210 5 187 215 8 193 219 10 197 222 7 191 214 9 181 205 5 189 218 6 192 218 5 189 214 8 190 213 9 187 212 9 178 205 4 187 214 11 196 225 13 189 217 8 184 212 6 199 226 10 205 230 15 200 222 13 192 218 7 189 219 11 193 222 8 194 221 5 194 223 9 198 224 27 196 224 52 191 221 71 180 215 87 184 215 95 186 218 109 185 222 142 195 223 172 209 222 194 217 225 202 225 227 214 234 225 220 240 224 225 240 224 225 238 221 227 236 222 219 236 227 222 235 224 222 236 229 223 237 227 225 238 224 224 235 225 216 237 226 222 239 225 222 237 223 223 238 224 221 237 227 225 236 226 224 235 226 219 234 226 223 235 224 220 237 223 220 240 225 220 236 224 224 234 224 223 235 224 218 240 224 227 241 222 224 238 222 223 239 224 217 236 229 219 234 234 226 239 230 221 234 226 215 235 226 219 236 224 224 237 225 229 234 224 225 228 224 213 219 230 200 198 222 186 189 219 131 179 218 67 189 216 15 179 205 8 168 200 5 186 216 6 196 221 6 198 220 11 198 221 7 199 223 7 193 219 6 188 211 6 192 216 8 190 216 5 198 219 4 190 214 4 192 214 7 201 222 5 206 227 10 207 232 9 196 219 7 175 194 4 169 187 3 185 206 3 194 221 5 198 222 14 196 216 5 204 225 10 196 220 10 199 223 5 213 235 13 203 224 9 196 218 13 206 230 14 206 228 6 203 227 9 200 226 7 202 224 15 208 232 16 202 225 11 196 219 5 195 218 6 195 218 4 202 222 9 202 226 10 198 222 2 196 220 10 203 224 9 217 237 15 214 235 16 201 224 10 198 222 6 200 223 9 195 219 9 196 218 11 197 221 11 202 226 8 210 230 9 210 237 12 205 229 9 198 223 8 189 212 8 185 207 8 197 220 8 202 229 13 197 226 10 203 226 32 212 227 196 239 222 228 240 225 228 235 230 226 230 229 225 243 223 225 238 225 219 233 226 218 239 227 227 232 221 219 235 227 224 238 223 218 185 219 142 193 216 2 200 224 8 196 218 11 199 223 13 203 228 5 208 228 17 206 230 12 200 224 4 203 229 6 195 217 10 195 217 8 200 226 7 192 215 10 195 219 9 209 230 11 216 235 19 206 227 10 202 225 11 203 227 11 
201 222 5 199 221 14 185 207 10 190 212 5 198 221 7 191 214 2 203 224 7 213 234 7 212 233 4 208 231 5 205 228 14 200 225 10 204 227 15 215 237 30 203 228 13 190 215 2 195 217 12 196 219 7 202 226 8 204 228 8 192 216 6 183 211 5 184 209 4 185 206 3 186 209 5 186 209 7 189 207 11 
180 199 22 186 209 5 200 226 5 195 218 4 186 209 4 194 218 8 203 229 8 201 223 14 195 219 11 196 219 5 200 225 9 198 223 8 200 224 4 207 229 7 198 221 7 197 224 7 205 231 10 205 230 6 206 228 6 199 222 8 192 216 6 191 217 4 191 216 1 192 214 9 200 226 7 204 227 13 208 230 8 209 234 10 209 233 13 213 233 14 207 226 10 202 221 5 196 218 9 197 217 8 201 222 7 199 223 7 206 231 8 211 234 8 204 224 11 199 223 7 196 220 10 198 222 14 194 217 15 190 212 3 196 220 2 195 220 5 194 223 9 200 222 77 232 223 218 237 228 223 242 235 227 232 228 219 232 228 217 240 229 223 237 235 220 233 228 224 244 222 225 241 226 219 238 232 220 194 225 165 184 212 14 193 219 6 196 219 5 194 220 11 199 224 9 207 232 9 208 235 10 204 233 5 204 229 5 195 213 3 185 207 8 189 213 5 200 223 11 196 220 10 198 223 8 203 228 5 209 230 11 207 228 13 194 217 3 187 210 8 192 214 5 195 220 7 197 218 3 194 213 9 195 218 6 197 219 12 200 226 3 210 231 6 211 229 19 208 232 12 207 230 4 206 227 8 199 224 8 200 221 6 207 226 13 197 224 7 186 209 4 200 223 11 206 231 5 206 227 10 213 229 19 195 220 5 187 210 6 188 212 4 204 231 14 213 234 17 197 220 6 194 213 10 186 211 6 180 202 3 188 211 6 192 215 10 184 209 4 190 211 10 186 216 8 188 223 9 196 222 11 194 220 9 193 220 53 195 222 109 193 221 173 202 223 192 214 224 200 228 224 213 231 227 218 235 227 224 236 227 220 237 230 222 233 228 224 237 225 227 239 225 225 243 223 222 234 225 216 234 225 218 235 223 227 234 222 222 238 227 225 239 225 224 237 223 220 237 227 226 235 227 224 234 225 218 236 227 222 236 227 220 237 226 220 237 226 224 235 225 226 236 224 224 237 225 227 237 226 224 239 224 227 238 224 224 238 228 226 239 228 224 235 223 223 234 225 220 239 226 218 243 225 225 238 227 221 236 226 225 235 223 223 236 226 225 237 227 228 233 223 224 237 228 219 237 226 222 236 224 224 237 223 223 239 225 225 235 223 225 235 226 221 235 227 216 231 224 214 228 225 218 221 225 211 216 228 206 216 223 205 207 223 197 196 224 183 187 221 145 192 221 115 192 218 93 187 217 87 185 216 78 197 224 59 
193 219 34 189 214 11 185 210 4 184 209 6 188 213 7 185 212 9 181 214 3 195 227 4 204 232 10 197 223 2 184 209 3 183 208 5 189 218 6 189 213 5 187 208 5 187 215 9 194 223 7 190 219 3 188 213 7 183 208 3 184 209 4 185 210 7 181 208 7 180 209 5 184 217 6 180 212 7 178 212 11 182 215 36 186 212 61 187 218 80 189 219 87 196 227 98 200 228 118 199 228 148 199 224 184 206 222 195 221 229 208 223 225 211 227 225 213 234 225 218 234 225 220 233 226 216 236 229 221 237 226 222 235 223 223 233 224 225 234 225 220 242 223 227 236 227 220 235 228 220 237 225 225 237 226 224 236 227 222 238 227 223 234 222 222 236 226 225 236 222 221 234 222 222 237 225 225 235 224 222 239 224 217 238 228 219 236 229 223 237 225 225 237 225 225 234 224 225 236 225 221 242 224 224 241 223 223 239 225 225 234 227 221 239 224 227 236 227 222 237 226 222 235 225 224 236 222 222 236 224 224 237 228 223 234 227 217 243 223 225 233 226 220 225 227 214 216 225 208 201 219 179 195 221 124 188 215 48 199 223 13 206 230 12 190 224 6 197 228 10 194 223 9 184 212 5 180 207 6 185 208 6 193 218 3 196 223 7 193 219 8 192 222 4 196 222 9 190 223 10 191 216 10 188 213 8 183 211 4 191 215 7 187 212 7 179 203 5 188 209 10 192 214 9 196 220 4 210 235 19 204 231 15 189 212 7 187 208 7 196 219 7 210 230 17 209 225 12 208 230 7 199 224 9 187 210 6 199 222 8 205 226 9 199 223 7 200 223 11 204 229 6 206 231 7 207 231 15 211 230 17 209 231 8 202 226 6 197 219 10 195 218 6 194 213 9 197 217 6 195 218 6 191 217 8 188 210 11 197 217 4 207 226 10 210 231 14 202 226 8 200 223 9 196 219 5 200 223 11 189 212 7 185 210 7 194 214 5 207 229 7 204 232 8 210 235 11 207 233 10 199 225 6 195 218 13 198 218 7 194 221 5 185 208 6 196 215 9 209 231 8 204 227 147 234 225 218 237 226 224 239 236 219 234 230 229 233 228 222 242 227 220 236 233 226 240 224 224 236 227 220 237 226 220 236 226 224 196 222 99 193 218 2 190 214 6 195 218 14 199 222 10 196 220 12 199 223 7 204 224 11 211 234 8 206 231 8 199 223 7 201 222 7 197 217 8 196 218 9 202 221 5 207 226 10 213 233 14 209 233 13 
209 234 10 208 230 8 204 227 13 200 226 7 192 214 9 191 216 1 191 217 4 192 216 6 199 222 8 206 228 6 205 230 6 205 231 10 197 224 7 198 221 7 207 229 7 200 224 4 198 223 8 200 225 9 196 219 5 195 219 11 200 222 15 203 229 6 193 220 4 186 209 5 198 219 4 201 225 5 186 209 7 176 195 9 
190 215 27 193 219 6 195 217 8 180 202 5 179 208 2 202 228 7 209 230 13 197 219 10 192 215 11 197 221 11 205 232 5 201 224 12 197 220 8 197 221 5 196 220 10 197 222 7 197 218 3 190 212 5 194 218 10 198 222 12 200 224 14 184 207 5 190 212 7 202 223 8 210 231 14 209 231 8 208 229 12 204 224 13 200 221 6 201 222 7 191 213 6 192 214 9 200 221 6 193 215 8 193 216 12 202 225 11 206 230 10 200 225 9 193 217 7 193 217 7 199 224 8 201 220 7 197 217 8 194 219 16 203 226 12 211 236 20 200 223 27 227 222 216 238 224 224 239 233 221 234 231 222 237 225 227 232 225 219 238 231 225 242 223 217 237 225 225 241 228 222 237 229 227 195 223 146 184 206 7 192 218 9 203 229 8 205 229 11 202 223 8 200 224 8 205 230 6 205 230 4 201 225 5 190 212 3 176 198 2 178 199 8 182 205 11 189 210 7 195 219 11 202 226 16 202 226 8 204 225 6 202 223 8 199 219 8 200 221 6 205 226 7 203 227 7 201 224 12 199 224 9 208 235 8 209 233 13 209 233 13 207 228 9 201 220 14 199 220 3 199 223 7 199 222 10 196 218 11 189 210 11 190 211 10 193 215 6 198 215 12 211 231 12 204 225 6 196 218 13 192 215 13 184 204 9 182 202 7 190 211 8 195 217 8 193 216 11 181 203 6 186 208 12 184 206 9 192 216 6 192 218 7 182 206 6 180 207 6 183 208 5 187 210 8 189 215 6 194 220 9 188 213 8 187 210 5 193 218 5 186 216 8 182 210 1 185 212 9 199 227 20 201 228 55 194 218 104 192 220 145 197 223 188 211 225 199 222 227 207 233 226 218 235 223 225 234 225 216 234 226 223 237 226 222 239 220 222 236 226 225 237 226 224 242 224 220 236 227 218 234 226 223 233 225 223 242 224 224 243 223 222 243 223 222 240 224 225 237 226 224 236 226 225 236 224 224 235 226 219 235 225 224 236 226 224 239 225 224 235 223 227 234 224 223 235 226 221 237 227 218 241 226 221 240 224 227 237 226 222 233 225 223 233 223 222 233 223 222 236 225 223 238 227 223 235 226 221 237 228 221 241 228 220 238 229 222 238 227 221 238 227 221 238 227 223 236 227 222 237 226 222 237 225 227 235 225 224 237 225 225 237 226 222 237 225 227 237 225 229 237 225 227 236 227 218 234 225 216 233 226 220 235 225 216 232 230 215 
226 231 211 220 223 206 214 222 201 205 224 194 202 223 190 199 220 187 192 225 172 197 225 140 202 226 114 196 222 97 189 216 83 193 219 66 196 223 50 189 218 40 188 217 28 195 220 32 195 220 40 186 215 47 185 215 65 195 220 93 203 225 125 197 222 154 204 221 187 208 221 193 218 226 203 223 226 209 228 226 214 233 226 220 234 224 222 234 224 222 236 227 222 236 227 220 239 225 222 238 227 223 236 224 224 237 226 224 239 225 224 237 230 222 238 229 222 236 227 220 237 226 224 236 226 225 236 226 224 239 225 224 237 226 224 237 227 226 235 228 220 239 222 228 245 223 225 234 225 220 235 228 222 242 223 225 239 220 222 236 227 222 236 222 221 235 227 224 234 229 226 237 227 218 241 226 223 239 225 224 235 225 223 236 229 223 236 222 222 238 227 221 239 224 221 236 227 220 236 224 224 237 226 220 236 227 222 235 223 223 236 224 224 236 227 222 236 227 222 235 224 220 231 224 218 223 225 212 209 223 198 197 220 178 194 219 127 191 217 68 186 213 12 188 213 10 182 211 7 181 209 10 176 200 2 182 202 7 194 218 10 194 218 10 191 217 8 202 228 15 202 228 19 187 212 7 187 212 6 191 215 7 193 218 5 187 210 5 188 213 8 194 220 9 189 215 6 187 210 8 183 208 5 180 207 6 182 206 6 192 218 7 192 216 6 184 206 9 186 208 12 181 203 6 193 216 11 195 217 8 190 211 8 182 202 7 184 204 9 192 215 13 196 218 13 204 225 6 211 231 12 198 215 12 193 215 6 190 211 10 189 210 11 196 218 11 199 222 10 199 223 7 199 220 3 201 220 14 207 228 9 209 233 13 209 233 13 208 235 8 199 224 9 201 224 12 203 227 7 205 226 7 200 221 6 199 219 8 202 223 8 204 225 6 202 226 8 202 226 16 195 219 11 189 210 7 182 205 11 178 199 8 176 198 2 190 212 3 201 225 5 205 230 4 205 230 6 200 224 8 198 223 7 206 231 8 202 228 7 194 218 8 183 203 7 196 219 5 199 229 9 204 226 92 234 227 217 235 227 224 234 231 224 240 225 222 239 224 219 239 231 218 239 232 222 242 223 225 236 229 219 239 222 228 230 235 215 203 228 75 189 218 14 198 217 11 200 220 9 200 223 11 192 216 6 195 217 8 200 223 9 206 230 10 201 226 13 193 217 9 192 216 6 198 221 9 192 214 9 191 213 6 
201 222 7 200 221 6 204 224 13 208 229 12 209 231 8 210 231 14 202 223 8 190 212 7 184 207 5 200 224 14 198 222 12 194 218 10 190 212 5 197 218 3 197 222 7 196 220 10 197 221 5 197 220 8 201 224 12 205 232 5 197 221 11 192 215 11 196 220 10 209 230 11 202 228 7 182 207 4 180 202 5 195 218 6 194 219 4 186 210 10 
198 221 29 189 215 6 183 208 5 181 208 9 181 210 4 196 222 3 203 224 5 188 211 7 185 207 10 200 223 9 211 234 8 201 222 3 194 217 3 188 211 7 190 213 8 195 220 5 196 220 10 191 214 12 201 227 8 204 229 3 199 219 10 194 215 12 203 224 7 202 224 2 204 223 7 203 222 8 194 214 5 192 211 5 199 219 8 196 219 7 192 216 6 195 220 5 198 223 8 190 216 7 190 216 5 198 220 13 200 220 11 206 227 12 196 220 12 193 219 10 194 219 4 202 220 10 205 225 14 206 227 12 208 229 14 201 225 9 217 222 200 234 225 218 236 227 220 237 225 229 234 225 218 236 227 218 238 226 226 242 227 220 234 225 228 239 226 218 227 229 218 202 223 96 193 219 6 188 209 6 189 210 9 188 211 7 185 213 7 185 208 4 187 210 8 201 223 14 199 220 5 191 210 4 183 203 10 177 197 11 180 201 8 192 216 8 206 226 17 207 232 9 205 230 6 209 230 11 211 231 9 203 224 9 194 217 5 195 217 8 191 215 7 187 209 12 190 213 11 202 227 14 200 226 5 197 219 12 198 218 7 197 217 8 191 210 7 187 209 4 189 213 3 192 216 6 198 220 13 199 219 10 202 224 17 206 231 16 205 229 9 201 225 9 186 207 4 185 207 2 191 213 4 188 210 3 181 201 5 192 214 9 199 222 10 200 225 10 194 218 8 188 211 7 190 215 2 196 221 8 193 219 8 188 213 8 187 214 11 197 222 6 199 221 16 199 223 7 204 230 7 188 211 7 185 208 4 196 223 7 196 223 7 193 219 6 196 223 7 196 225 11 193 222 10 191 217 8 182 207 4 176 199 5 178 204 7 182 211 5 182 211 22 191 221 65 192 222 110 197 222 167 210 230 193 214 228 202 232 226 212 232 225 217 235 225 223 239 232 226 242 236 222 238 228 226 237 225 225 234 224 223 236 227 220 233 229 220 237 227 218 237 227 218 239 238 220 240 227 221 241 226 223 237 223 220 242 224 224 236 229 219 234 227 219 239 224 227 240 223 229 236 224 226 237 225 225 238 227 221 240 223 216 239 225 224 237 226 224 236 227 222 233 224 215 239 224 217 241 221 220 237 226 222 237 226 220 237 227 218 235 226 217 234 225 218 236 226 224 236 224 224 235 224 220 233 224 217 241 225 225 237 226 220 240 226 225 237 228 221 236 227 218 238 227 221 236 226 225 237 226 220 236 224 226 237 225 225 238 234 225 
237 238 224 237 238 224 234 231 224 237 225 225 238 224 224 236 225 223 236 225 221 236 225 219 236 227 220 237 226 220 237 223 222 235 224 218 229 225 214 228 225 218 229 225 216 232 225 215 232 226 214 232 222 220 235 224 218 235 223 223 235 225 226 236 227 220 235 226 221 237 226 224 239 225 225 238 223 226 239 224 227 236 224 224 237 225 225 237 227 228 237 221 221 240 222 222 241 226 221 236 227 222 236 226 224 237 228 223 236 227 222 237 228 219 235 226 221 240 227 221 236 227 220 234 224 223 235 223 225 235 225 223 238 227 223 239 225 224 236 224 224 235 228 218 236 227 222 237 226 220 237 226 220 237 228 219 236 227 222 237 226 222 236 227 222 242 224 220 244 224 225 239 224 227 236 227 222 237 228 221 239 225 225 231 226 223 235 223 225 235 227 225 236 239 222 240 224 227 243 223 224 233 228 225 228 225 216 224 226 205 210 221 191 205 226 167 212 239 110 206 230 44 200 226 7 197 223 10 186 216 4 198 224 3 205 231 10 196 221 8 194 219 6 196 220 12 184 207 3 184 207 5 182 204 5 176 198 2 184 206 9 189 215 6 195 221 10 199 225 14 196 222 9 193 220 4 196 223 7 196 223 7 185 208 4 188 211 7 204 230 7 199 223 7 199 221 16 197 222 6 187 214 11 188 213 8 193 219 8 196 221 8 190 215 2 188 211 7 194 218 8 200 225 10 199 222 10 192 214 9 181 201 5 188 210 3 191 213 4 185 207 2 186 207 4 201 225 9 205 229 9 206 231 16 202 224 17 199 219 10 198 220 13 192 216 6 189 213 3 187 209 4 191 210 7 197 217 8 198 218 7 197 219 12 200 226 5 202 227 14 190 213 11 187 209 12 191 215 7 195 217 8 194 217 5 203 224 9 211 231 9 209 230 11 205 230 6 207 232 9 206 226 17 192 216 8 180 201 8 177 197 11 183 203 10 191 210 4 199 220 5 201 223 14 187 210 8 184 207 3 188 211 7 188 213 10 186 210 10 188 210 11 195 218 4 199 224 8 190 214 14 193 216 66 224 225 209 240 226 223 230 226 217 240 229 223 237 222 227 233 225 222 236 228 226 234 225 226 243 223 224 233 226 220 230 229 211 207 227 32 207 226 12 201 221 10 194 219 4 194 220 9 194 218 8 203 227 9 200 222 13 198 220 13 191 215 7 189 215 4 197 224 7 195 220 5 192 216 6 196 219 7 
199 219 8 192 211 5 194 214 5 203 222 8 204 223 7 202 224 2 203 224 7 194 215 12 199 219 10 204 229 3 201 227 8 191 214 12 196 220 10 195 220 5 190 213 8 188 211 7 194 217 3 201 222 3 211 234 8 200 223 9 185 207 10 187 210 5 203 224 7 196 221 5 181 211 3 181 208 7 183 207 7 190 213 8 196 218 13 
207 229 24 188 214 5 177 204 1 182 210 4 194 221 5 204 229 5 196 220 4 191 217 8 203 229 8 210 235 11 202 223 6 193 215 6 190 213 8 172 195 3 177 200 8 192 215 11 197 223 12 204 229 13 213 238 15 212 235 9 208 230 8 208 230 8 202 223 4 201 221 10 203 224 5 206 228 6 196 219 5 192 215 3 191 213 4 190 212 5 193 218 5 197 221 11 205 225 16 195 218 13 195 222 5 202 226 16 208 229 12 213 233 11 203 225 3 196 218 13 199 222 8 203 227 7 206 227 8 206 232 13 203 228 5 205 227 142 243 230 224 234 234 222 236 227 220 234 222 224 237 228 221 232 227 223 241 226 221 231 227 218 242 225 231 223 225 212 200 224 68 187 217 9 183 204 1 178 206 7 184 208 10 178 201 9 195 217 8 202 226 8 195 219 9 193 215 8 199 219 6 193 212 9 187 209 13 186 211 8 196 220 10 210 236 7 217 237 18 208 229 12 201 225 7 202 223 6 200 221 4 192 214 5 183 205 8 181 204 0 187 209 12 189 211 14 196 221 8 203 229 6 197 221 5 196 217 18 208 229 10 203 223 10 195 216 13 191 213 14 194 219 13 201 227 8 199 222 8 194 213 10 191 213 8 193 217 9 199 224 9 189 211 6 183 204 5 193 215 10 201 225 7 194 217 3 186 207 6 186 208 9 190 213 8 200 225 10 199 224 9 186 209 4 193 216 14 197 221 13 193 217 7 187 212 6 183 210 9 197 224 5 198 223 8 197 221 11 195 220 7 190 213 9 195 220 14 197 224 7 199 229 9 197 227 9 191 221 3 190 216 3 191 217 6 192 218 7 192 218 9 193 220 4 201 228 9 199 223 15 203 227 11 198 220 15 198 223 10 200 228 6 198 225 6 199 224 8 203 229 32 217 243 60 212 236 100 205 229 135 197 222 167 212 225 195 225 226 208 234 225 220 233 226 218 235 228 220 239 225 224 239 224 219 240 221 225 234 222 222 238 228 219 236 227 220 236 226 225 242 224 220 244 223 220 243 225 223 235 226 221 234 225 218 234 225 220 235 232 227 239 225 224 236 226 224 236 227 220 237 227 218 239 230 225 236 225 223 237 225 229 232 228 229 237 225 227 236 224 224 235 223 223 234 222 222 239 225 225 239 225 225 236 227 222 233 226 220 236 227 220 236 227 220 233 228 224 235 227 225 236 224 226 237 225 225 241 222 226 240 221 223 235 227 225 238 223 226 237 226 224 235 228 220 
235 228 218 239 225 222 242 224 222 239 226 218 235 225 223 239 225 222 242 224 222 240 225 220 237 226 224 234 225 226 235 227 224 236 227 220 237 227 218 237 225 225 241 227 226 241 222 224 242 224 224 239 225 224 238 227 223 237 226 220 237 226 224 238 226 226 235 223 223 237 225 225 236 226 225 236 227 222 236 227 220 236 227 220 234 229 223 234 224 222 234 227 217 236 227 222 235 227 224 237 223 222 238 224 224 240 222 222 239 224 231 235 223 223 236 225 219 237 228 223 239 225 225 242 224 224 237 226 220 236 227 218 233 228 224 241 226 223 239 225 222 237 229 226 236 224 226 237 226 222 241 223 223 241 224 230 236 232 223 233 225 223 233 226 218 238 224 224 239 223 224 231 226 220 233 226 216 243 225 223 238 222 223 231 221 219 224 227 208 220 223 206 209 223 200 198 225 144 202 226 76 192 222 28 193 218 12 185 212 9 183 211 4 192 218 7 204 230 11 210 236 15 215 241 18 203 228 12 201 225 9 200 226 7 202 230 8 196 222 9 198 222 14 201 226 10 197 222 16 200 230 12 194 219 6 193 216 11 192 218 7 191 218 2 188 217 1 193 220 4 198 225 9 202 229 10 197 224 7 195 220 14 190 213 9 195 220 7 197 221 11 198 223 8 197 224 5 183 210 9 187 212 6 193 217 7 197 221 13 193 216 14 186 209 4 199 224 9 200 225 10 190 213 8 186 208 9 186 207 6 194 217 3 201 225 7 193 215 10 183 204 5 189 211 6 199 224 9 193 217 9 191 213 8 194 213 10 199 222 8 201 227 8 194 219 13 191 213 14 195 216 13 203 223 10 208 229 10 196 217 18 197 221 5 203 229 6 196 221 8 189 211 14 187 209 12 181 204 0 183 205 8 192 214 5 200 221 4 202 223 6 201 225 7 208 229 12 217 237 18 210 236 7 196 220 10 186 211 8 187 209 13 193 212 9 199 219 6 193 215 8 195 219 9 205 224 10 195 217 10 178 201 5 182 209 10 182 206 8 182 205 1 195 217 10 200 222 15 181 206 3 188 212 26 224 225 209 240 227 221 236 228 225 241 223 221 237 226 220 237 228 219 237 234 227 237 231 217 239 228 226 236 227 228 206 232 184 203 227 9 207 227 6 201 222 5 194 216 9 205 227 5 212 235 7 208 229 12 202 226 16 195 220 5 195 217 12 204 224 15 197 221 11 193 218 5 190 212 5 191 213 4 
192 215 3 196 219 5 206 228 6 203 224 5 201 221 10 202 223 4 208 230 8 208 230 8 212 235 9 213 238 15 204 229 13 197 223 12 192 215 11 177 200 8 172 195 3 190 213 8 193 215 6 202 223 6 210 235 11 203 229 8 193 217 7 196 219 5 203 228 5 192 222 4 181 211 3 178 205 4 190 213 9 204 224 5 
206 227 28 195 221 2 188 212 2 201 226 10 212 237 11 198 219 4 192 213 10 196 226 6 197 220 6 192 217 2 192 215 10 186 208 9 190 213 9 190 213 8 187 212 6 189 218 6 205 230 15 208 232 12 203 227 9 207 228 13 194 213 7 189 211 4 188 209 6 187 208 5 187 209 4 189 210 11 188 211 9 187 208 9 190 211 8 203 227 11 205 229 9 210 235 9 211 230 14 192 214 7 198 222 12 205 231 8 208 229 10 209 229 7 204 224 5 205 225 12 206 226 17 205 227 5 203 223 4 196 225 9 198 220 85 235 228 220 237 230 220 236 227 222 239 220 222 243 222 219 234 224 223 236 227 222 234 225 220 237 228 213 227 224 215 197 218 65 189 215 20 180 204 4 188 211 7 204 228 12 198 219 4 196 217 14 211 232 15 210 237 12 202 228 9 196 219 5 201 222 7 192 214 9 184 206 7 190 214 6 199 224 11 204 228 10 201 221 8 193 215 10 191 212 9 192 214 9 194 216 9 183 206 1 176 199 7 179 202 6 189 213 3 203 229 6 200 226 5 198 223 8 198 222 6 213 235 28 208 231 17 194 213 10 185 206 13 185 207 10 192 214 7 195 217 12 187 209 4 196 219 7 202 225 11 205 228 16 206 229 15 200 223 9 195 216 13 187 209 10 194 219 6 194 218 8 189 212 10 185 210 7 195 220 7 200 226 7 197 220 8 192 214 7 200 222 13 201 225 7 192 216 6 190 213 11 190 216 7 192 217 2 190 214 6 190 215 10 187 216 4 199 226 9 199 224 8 194 218 8 193 217 7 187 210 8 186 211 8 186 210 10 189 214 11 199 223 13 202 225 13 202 226 6 198 225 8 195 220 14 187 210 5 184 207 5 199 225 6 203 229 6 202 228 15 203 229 8 200 226 3 200 226 15 196 222 13 191 214 9 182 206 8 181 205 5 181 209 10 185 214 44 186 217 80 200 222 111 200 224 162 207 225 199 218 225 207 225 226 210 229 225 214 236 225 221 236 226 225 237 228 229 234 223 227 236 225 223 238 229 222 235 225 226 236 224 224 240 230 218 239 226 220 240 221 223 240 225 220 236 227 218 235 224 218 238 225 219 237 226 222 242 232 223 237 228 221 236 226 225 237 225 225 236 224 226 237 225 225 239 226 220 238 227 221 233 226 218 235 225 223 236 226 225 238 223 226 235 224 222 235 224 220 235 225 216 234 225 218 234 225 218 241 226 221 240 225 220 237 226 220 237 226 220 
237 226 222 237 226 222 237 226 220 233 229 220 237 226 224 234 225 218 234 225 218 237 226 222 237 225 225 235 223 223 239 226 220 241 223 219 237 225 227 236 227 222 233 226 218 233 224 217 234 225 220 235 228 222 237 228 221 238 227 221 237 233 222 238 231 221 234 227 219 234 225 220 235 224 222 238 224 224 240 224 225 242 223 225 240 225 220 239 224 219 236 227 222 236 224 224 239 225 224 238 224 224 236 229 221 237 228 221 236 224 226 235 224 222 236 222 222 236 224 224 236 226 224 236 224 224 236 226 227 240 229 225 239 231 220 237 227 218 235 227 225 236 222 222 236 224 226 237 227 218 237 228 219 235 225 216 237 232 226 240 224 224 242 224 222 232 225 217 233 226 220 230 222 219 210 222 198 189 217 169 197 223 113 187 215 70 171 209 26 178 205 4 185 210 7 195 225 5 197 224 7 186 213 10 183 210 7 180 207 4 180 202 6 185 206 5 191 214 9 197 221 13 201 226 13 200 225 2 203 227 7 204 229 14 203 229 6 199 224 8 183 206 2 188 211 6 196 221 15 195 224 8 202 228 9 201 226 10 199 223 15 189 214 9 186 211 6 187 211 11 186 211 6 193 218 5 194 218 8 199 224 8 199 226 9 187 216 4 190 215 10 190 214 6 192 217 2 190 216 7 190 213 11 192 216 6 201 225 7 200 222 13 192 214 7 197 220 8 200 226 7 195 220 7 185 210 7 189 212 10 194 218 8 194 219 6 187 209 10 195 216 13 200 223 9 206 229 15 205 228 16 202 225 11 196 219 7 187 209 4 195 217 12 192 214 7 185 207 10 185 206 13 194 213 10 208 231 17 213 235 28 198 222 6 198 223 8 200 226 5 203 229 6 189 213 3 179 202 6 176 199 7 183 206 1 194 216 9 192 214 9 191 212 9 193 215 10 201 221 8 204 228 10 199 224 11 190 214 6 184 206 7 192 214 9 201 222 7 196 219 5 202 228 9 213 235 12 209 235 12 194 217 13 196 220 4 206 227 8 190 211 10 179 203 5 193 217 19 197 219 12 186 215 13 190 214 38 231 224 208 235 228 222 235 225 224 236 224 226 237 223 223 232 227 221 242 228 225 237 227 225 234 225 220 234 225 218 202 225 91 198 225 8 207 227 14 206 226 15 204 224 3 207 227 5 209 230 11 205 231 12 197 221 13 194 216 7 211 231 12 210 235 9 205 229 9 203 227 11 190 211 8 187 208 9 188 211 9 
189 210 11 187 209 4 187 208 5 188 209 6 189 211 4 194 213 7 207 228 13 203 227 9 208 232 12 205 230 15 189 218 6 187 212 6 190 213 8 190 213 9 186 208 9 192 215 10 192 217 2 197 220 6 198 225 6 193 215 10 199 220 5 212 238 9 200 227 10 188 214 3 196 220 4 203 222 9 
201 223 26 200 223 11 193 216 4 202 226 8 198 221 7 191 212 11 181 203 7 180 204 4 184 206 9 182 207 4 193 219 8 199 225 2 198 224 3 192 214 7 190 213 8 197 223 12 204 229 6 204 228 10 197 220 8 191 213 4 187 208 7 189 212 8 192 213 10 189 207 9 179 199 4 169 189 4 183 205 8 195 219 11 199 222 8 204 228 10 194 216 7 196 218 9 192 216 8 185 207 10 187 210 8 197 221 5 194 216 7 190 214 4 198 223 10 201 226 13 195 213 15 189 212 10 193 217 9 193 215 42 229 230 214 234 222 224 238 227 221 237 222 225 235 228 218 239 224 227 235 225 223 236 224 228 243 224 226 232 225 217 201 223 53 189 219 11 190 212 15 198 223 10 205 231 12 209 232 6 197 220 6 198 224 5 206 231 7 204 223 9 199 222 8 192 214 5 191 214 9 191 214 10 195 219 9 200 224 6 203 228 12 195 218 16 192 214 9 191 215 7 185 208 6 187 208 7 187 209 2 186 208 9 191 216 11 191 215 7 197 220 8 201 224 10 196 218 11 185 206 7 199 222 10 206 231 7 194 217 5 185 205 10 186 208 9 191 213 6 198 220 11 195 216 15 199 221 12 208 233 9 199 223 7 198 217 14 198 220 13 200 223 11 196 218 13 186 211 5 193 218 12 197 222 7 201 226 11 199 224 8 198 223 8 193 217 9 194 216 9 198 220 13 198 221 7 200 223 9 199 225 6 195 220 5 194 217 5 197 219 10 199 223 3 197 222 9 201 226 20 199 223 13 191 213 6 188 210 3 191 214 10 186 209 7 187 212 9 191 220 8 194 223 9 198 224 11 194 216 7 184 204 8 170 188 6 175 196 5 182 207 4 194 220 9 203 229 6 204 229 13 196 220 12 194 216 7 190 209 6 187 208 5 189 211 6 180 203 1 178 200 1 182 206 6 180 202 3 178 201 5 181 203 7 187 210 5 177 201 3 171 197 2 184 213 9 179 209 17 182 218 50 188 220 75 199 225 118 202 225 157 212 227 196 219 227 203 228 226 214 235 226 227 242 233 224 239 236 221 236 227 220 239 225 225 236 226 224 234 229 225 237 226 224 237 227 218 235 228 220 238 224 223 243 225 221 241 223 223 241 223 219 238 225 219 236 227 220 236 227 220 237 226 222 235 223 223 234 225 220 239 225 222 242 222 224 239 223 226 236 227 220 235 228 222 237 225 225 242 223 225 240 224 224 239 225 222 236 227 222 237 225 225 237 225 225 236 225 223 
237 225 225 237 225 227 238 228 226 238 231 225 237 227 225 235 224 222 236 225 223 237 227 226 237 229 226 236 226 224 233 224 225 233 226 218 233 226 218 236 227 220 237 226 220 241 226 221 243 225 221 243 223 225 239 225 225 239 225 225 239 225 224 237 226 222 238 227 221 237 226 220 237 226 220 237 226 220 237 228 223 235 226 221 236 225 219 237 226 222 242 224 220 239 225 224 236 225 221 234 223 219 239 225 222 238 227 221 239 225 224 236 225 223 237 226 220 237 226 222 236 226 227 237 225 225 237 228 223 235 228 222 239 225 222 237 226 220 240 227 221 235 225 224 235 227 225 228 228 220 222 234 214 215 237 199 196 224 165 195 222 105 200 228 47 201 226 11 202 228 7 189 226 9 187 217 9 185 212 13 178 206 10 186 211 6 171 197 2 179 199 4 186 209 5 182 203 4 178 199 8 179 203 3 182 206 6 179 201 2 180 202 3 189 212 8 186 210 2 187 210 6 193 215 10 197 220 8 204 228 12 205 231 8 194 219 6 184 206 9 175 194 4 170 189 3 184 206 9 193 218 5 199 224 11 196 222 11 193 219 8 187 212 9 186 208 11 191 214 12 188 210 3 191 213 6 199 223 13 201 226 20 197 222 9 199 223 3 197 219 10 194 217 5 195 220 5 199 225 6 200 223 9 198 221 7 198 220 13 194 216 9 193 217 9 198 223 8 199 224 8 201 226 11 197 222 7 193 218 12 186 211 5 196 218 13 200 223 11 198 220 13 198 217 14 199 223 7 208 233 9 199 221 12 195 216 15 198 220 11 191 213 6 186 208 9 185 205 10 194 217 5 206 231 7 199 222 10 185 206 7 196 218 11 201 224 10 197 220 8 191 215 7 191 216 11 186 208 9 187 209 2 187 208 7 185 208 6 191 215 7 192 214 9 195 218 16 203 228 12 200 224 6 195 219 9 191 214 10 191 214 9 192 214 5 199 222 8 204 224 11 205 231 8 198 223 7 197 221 5 209 231 8 205 229 11 198 223 10 191 212 13 195 218 13 200 224 6 190 215 2 190 216 55 225 226 220 242 223 227 234 225 218 239 225 222 242 223 225 237 225 225 232 225 217 240 227 234 240 220 219 228 224 213 191 213 17 192 215 10 201 226 13 200 223 11 195 214 8 195 215 4 197 221 5 187 210 6 185 208 4 193 215 8 196 218 9 194 216 7 204 228 10 199 222 8 195 219 11 183 205 8 169 189 4 179 199 4 189 207 9 
192 213 10 189 212 8 187 208 7 191 213 4 197 220 8 204 228 10 204 229 6 197 223 12 190 213 8 192 214 7 198 224 3 199 225 2 193 219 8 182 207 4 184 206 9 180 204 6 181 203 7 190 211 10 200 220 9 202 226 10 193 218 5 200 223 11 199 219 8 
200 222 26 193 218 5 192 217 4 184 209 3 183 206 4 182 207 4 183 205 6 195 217 8 198 223 10 194 219 6 196 221 5 198 223 8 192 216 8 190 215 2 197 222 7 201 226 10 201 227 6 201 227 6 196 222 3 197 220 6 203 228 13 197 223 2 202 223 6 199 218 5 183 203 8 188 209 8 205 228 14 206 231 8 194 217 5 187 208 9 187 210 6 191 215 5 199 222 10 202 225 11 201 226 3 200 224 6 190 214 6 190 213 11 201 227 8 199 222 10 191 212 9 182 205 3 194 219 6 208 223 190 237 223 220 233 228 225 241 223 221 238 227 221 237 225 229 232 221 219 238 232 220 237 226 220 234 224 222 194 219 125 176 204 6 177 199 10 195 220 15 205 232 7 204 225 8 200 222 13 196 219 7 202 228 9 202 223 8 201 222 7 198 222 4 193 216 12 192 215 10 202 226 18 197 219 10 192 214 7 187 210 6 197 222 9 198 222 6 194 217 5 185 208 3 190 211 8 191 212 9 198 223 10 204 229 6 200 223 9 207 227 18 202 222 9 193 212 6 192 214 9 202 225 11 200 224 4 188 212 4 185 208 4 200 224 8 205 229 9 198 222 4 203 227 9 213 235 13 202 223 8 181 202 3 182 202 7 198 220 11 196 218 9 183 206 2 183 207 7 191 216 10 203 227 9 209 230 11 196 216 3 184 206 7 192 216 6 198 221 9 207 230 18 206 230 12 195 220 5 196 220 10 199 225 6 203 229 10 204 229 3 203 227 7 201 226 13 193 217 9 188 211 7 188 211 9 189 212 8 188 212 4 186 208 9 199 221 12 199 221 12 192 214 7 193 218 5 188 213 7 180 207 6 174 196 7 183 206 12 197 223 10 203 229 10 205 231 12 205 231 12 194 219 6 191 213 8 187 213 4 190 219 7 190 216 5 192 218 9 192 215 11 186 214 5 185 207 10 173 195 8 183 204 3 183 207 9 166 184 2 181 203 4 189 212 7 174 200 5 176 199 3 187 212 6 194 224 6 191 220 4 194 218 8 198 223 7 195 222 29 197 225 62 209 238 94 198 223 121 195 222 169 208 225 189 220 229 208 227 224 215 233 224 219 232 228 219 236 232 221 236 225 223 236 227 220 239 226 218 239 225 225 236 224 224 237 228 223 237 227 225 236 226 225 236 224 226 236 225 219 239 226 218 236 227 220 237 226 224 236 227 220 234 227 221 236 225 219 234 225 218 236 227 218 238 228 219 238 227 221 237 226 222 236 227 222 235 228 220 237 226 220 
236 227 220 236 225 223 236 227 222 234 227 221 234 225 218 236 225 221 235 224 222 238 225 219 243 225 221 241 226 221 242 224 220 243 225 221 238 222 223 237 223 222 237 223 223 237 225 225 234 229 225 234 225 218 234 225 218 236 227 220 236 227 220 237 228 223 237 226 224 236 224 226 237 225 227 240 224 227 237 225 227 235 226 219 233 229 220 235 224 218 234 225 218 236 224 224 236 226 225 234 225 218 235 228 222 235 225 224 234 224 225 235 226 221 238 228 219 237 228 223 235 224 222 236 224 226 236 229 221 229 226 219 213 225 201 196 224 186 202 230 156 193 221 100 184 211 46 199 224 8 203 239 9 193 223 11 194 223 9 196 225 9 197 220 8 196 219 5 197 223 2 188 214 3 174 201 2 174 197 3 189 212 8 181 203 4 166 186 3 180 206 9 183 204 5 174 194 8 184 209 6 188 213 7 191 214 9 193 218 3 190 216 7 189 218 6 186 214 5 188 213 7 194 221 5 204 231 15 203 231 9 203 229 8 198 223 10 184 205 14 175 196 5 183 205 6 189 213 3 193 217 7 191 214 9 198 223 10 197 222 9 187 210 8 188 211 6 189 212 8 188 211 9 188 211 7 193 217 9 201 226 13 203 227 7 204 229 3 203 229 10 199 225 6 196 220 10 195 220 5 206 230 12 207 230 18 198 221 9 192 216 6 184 206 7 196 216 3 209 230 11 203 227 9 191 216 10 183 207 7 183 206 2 196 218 9 198 220 11 182 202 7 181 202 3 202 223 8 213 235 13 203 227 9 198 222 4 205 229 9 200 224 8 185 208 4 188 212 4 200 224 4 202 225 11 192 214 9 193 212 6 202 222 9 207 227 18 200 223 9 204 229 6 198 223 10 191 212 9 190 211 8 185 208 3 194 217 5 198 222 6 197 222 9 187 210 6 192 214 7 197 219 10 202 226 18 192 215 10 193 216 12 198 222 4 201 222 5 200 224 6 203 227 9 198 218 5 203 223 10 202 226 10 205 231 10 195 218 13 174 199 11 182 202 9 195 214 8 193 219 10 202 223 56 231 224 216 243 228 221 234 226 224 240 224 225 240 221 223 236 227 220 231 222 215 231 235 221 243 223 222 186 222 161 193 211 13 200 224 8 200 226 7 191 214 9 192 214 5 199 223 5 201 225 5 202 225 11 199 223 13 191 215 5 187 210 6 187 208 9 194 217 5 206 231 8 205 228 14 188 209 8 183 203 8 199 218 5 202 223 6 197 223 2 203 228 13 
197 220 6 196 222 3 201 227 6 201 227 6 201 226 10 197 222 7 190 215 2 192 216 8 198 223 8 196 221 5 194 219 6 198 223 10 193 217 9 183 207 7 184 207 5 183 206 4 185 208 4 192 217 4 194 217 5 196 218 9 
194 216 29 185 208 6 177 200 6 181 207 12 191 215 15 191 217 6 197 224 5 206 230 14 200 225 10 193 217 7 199 225 6 199 225 6 200 225 9 198 224 3 191 215 5 195 220 7 201 227 4 197 223 4 201 225 9 206 229 15 201 224 10 198 224 5 205 230 6 205 225 4 194 217 5 200 222 13 204 229 6 205 230 7 202 226 10 195 218 6 196 220 12 201 228 11 207 229 6 202 226 8 197 219 10 199 223 7 194 217 3 196 219 5 207 232 9 196 216 5 180 195 4 187 205 7 200 226 93 233 230 221 242 225 218 233 228 224 242 228 225 240 221 223 235 228 218 240 226 225 238 220 216 243 225 223 199 225 178 187 209 4 182 206 8 185 207 10 205 230 17 207 231 11 196 221 5 199 224 8 202 225 11 194 221 4 203 223 4 196 219 5 189 211 4 189 210 7 190 214 6 198 221 17 198 219 18 189 210 7 184 205 4 201 226 11 203 227 11 195 217 12 194 216 9 195 218 4 192 214 9 204 227 15 210 234 16 207 229 6 211 232 17 209 230 15 200 220 7 202 226 10 196 219 7 194 218 8 195 219 9 190 213 9 193 215 6 188 209 6 185 206 3 193 214 13 199 222 8 194 217 5 175 196 7 178 199 10 194 217 15 192 215 10 185 208 6 191 213 16 198 224 5 203 228 5 191 213 4 180 200 4 184 206 9 199 222 8 197 221 5 194 216 7 185 206 7 179 201 4 187 209 12 195 219 9 190 216 7 187 209 12 194 217 12 183 206 2 183 207 9 191 217 8 194 220 7 189 215 6 194 219 6 201 226 11 202 227 11 198 222 12 195 218 13 196 221 8 194 221 5 189 215 6 183 206 10 197 223 14 202 229 13 194 218 8 201 226 11 204 230 11 184 206 7 177 196 10 183 207 7 181 209 3 183 208 5 184 206 7 191 216 3 188 214 5 192 216 8 194 218 8 193 222 10 190 211 12 182 207 2 195 217 8 187 212 7 185 207 8 200 224 4 200 225 9 193 223 11 195 225 3 198 223 8 193 217 9 187 215 8 193 219 8 197 222 6 181 205 5 172 200 4 190 219 7 199 225 12 192 222 30 185 218 67 185 218 105 188 219 139 193 225 178 197 223 186 207 224 190 217 224 208 226 223 214 232 226 214 234 225 218 235 224 220 235 224 218 233 226 220 236 226 225 241 223 223 238 222 223 235 224 222 235 223 223 237 226 222 242 224 222 237 225 227 239 224 227 236 224 224 237 226 224 236 227 222 235 228 220 237 226 220 236 227 220 
238 223 216 240 225 220 240 224 224 237 221 222 237 222 225 236 224 224 237 226 224 238 224 224 236 227 218 238 227 223 236 226 227 235 227 225 233 226 220 235 226 217 235 224 222 237 228 219 237 226 224 237 226 224 239 225 225 237 225 225 237 225 225 235 225 224 236 226 225 236 226 225 240 225 220 239 226 220 238 223 226 237 225 227 236 221 224 237 225 225 233 226 220 225 225 215 228 223 217 220 224 207 213 223 199 211 223 199 210 223 197 204 221 189 192 222 172 185 220 152 192 220 101 189 218 50 186 215 9 184 216 8 187 220 5 194 224 12 193 217 7 178 200 4 179 206 5 197 221 3 193 219 10 189 213 13 192 216 8 199 223 7 198 223 7 196 222 11 197 227 9 199 225 4 186 209 7 188 211 6 195 220 7 181 206 3 189 211 12 196 220 10 195 217 10 191 217 8 187 215 8 190 216 5 184 207 3 183 205 6 183 208 2 183 207 7 176 196 10 185 208 6 204 228 12 202 226 10 196 219 7 201 226 10 196 225 13 180 208 9 190 216 5 194 221 4 195 220 5 194 217 12 198 223 10 202 228 9 201 226 13 193 217 7 189 215 6 194 220 7 191 217 8 183 207 9 183 206 2 194 217 12 187 209 12 190 216 7 195 219 9 187 209 12 179 201 4 185 206 7 194 216 7 197 221 5 199 222 8 184 206 9 180 200 4 191 213 4 203 228 5 198 224 5 191 213 16 185 208 6 192 215 10 194 217 15 178 199 10 175 196 7 194 217 5 199 222 8 193 214 13 185 206 3 188 209 6 193 215 6 190 213 9 195 219 9 194 218 8 196 219 7 202 226 10 200 220 7 209 230 15 211 232 17 207 229 6 210 234 16 204 227 15 192 214 9 195 218 4 194 216 9 195 217 12 203 227 11 201 226 11 184 205 4 189 210 7 198 219 18 198 221 17 190 214 6 189 210 7 189 211 4 199 217 7 202 223 8 197 221 3 200 226 7 199 224 9 198 221 9 206 230 12 206 230 20 185 207 10 184 207 5 184 209 3 195 218 4 191 224 9 195 219 123 232 223 218 240 225 218 237 224 218 236 227 228 235 228 222 240 225 218 237 228 219 235 226 221 235 223 223 180 218 97 190 214 4 207 232 9 196 219 7 194 216 9 199 223 7 196 219 7 205 226 9 207 228 9 201 228 11 196 220 12 195 218 6 202 226 10 205 230 7 204 229 6 200 222 13 194 217 5 205 225 4 205 230 6 198 224 5 201 224 10 206 229 15 201 225 9 
197 223 4 201 227 4 195 220 7 191 215 5 198 224 3 200 225 9 199 225 6 199 225 6 193 217 7 200 225 10 206 230 14 198 225 8 191 217 6 191 214 12 183 206 12 177 200 8 185 208 6 190 212 7 
198 221 25 183 206 2 183 208 5 193 218 13 196 218 9 199 225 6 202 229 12 200 224 8 190 212 5 187 211 3 185 210 4 186 212 3 190 211 8 185 206 5 190 213 11 196 222 11 197 220 6 204 228 8 205 226 7 198 217 11 198 220 11 191 215 5 197 222 6 196 220 4 188 211 7 182 203 10 188 211 9 195 219 11 193 215 6 191 213 8 188 208 12 193 216 11 199 223 7 198 222 14 192 216 6 201 225 9 201 221 8 201 222 7 194 217 5 185 207 2 186 209 5 201 224 20 218 224 196 239 225 225 233 223 224 237 226 220 236 227 218 235 227 225 235 223 223 236 226 224 237 225 225 212 224 200 196 219 7 197 219 10 198 220 11 195 225 3 204 229 16 206 226 13 196 218 9 191 213 6 191 213 6 188 213 7 198 218 9 194 213 7 195 218 13 199 223 7 197 221 5 199 223 3 197 220 8 189 209 13 189 210 7 198 221 9 199 223 5 190 212 5 183 204 5 186 207 8 198 223 7 205 231 12 208 232 16 208 230 8 207 227 14 200 220 9 196 216 7 194 216 11 192 213 10 189 212 8 192 215 11 181 203 6 184 207 5 195 217 8 206 226 13 202 224 15 197 222 7 191 218 2 186 209 7 187 210 8 196 220 12 204 226 19 201 223 14 197 220 6 195 217 10 192 213 10 180 202 5 176 199 5 189 212 7 198 221 7 201 225 9 196 218 11 184 207 2 187 210 8 188 211 7 195 219 9 190 212 5 193 214 15 192 215 10 186 211 8 186 213 10 191 216 13 180 202 5 191 214 9 201 226 11 194 218 8 184 207 2 187 210 6 188 211 6 186 209 4 188 213 8 187 212 9 191 216 10 188 213 8 188 211 7 201 222 19 206 231 18 196 222 9 171 194 2 167 188 5 187 209 12 191 214 9 185 207 8 196 216 5 198 226 2 192 219 3 193 219 10 196 218 9 191 213 6 187 215 9 192 216 6 198 223 8 190 214 6 196 221 8 204 230 9 199 229 7 202 228 9 193 219 10 195 220 5 198 221 7 192 216 8 193 218 5 197 222 7 190 213 8 188 209 10 181 203 7 177 198 5 187 212 9 182 209 10 176 199 3 190 216 7 181 214 3 182 214 9 182 211 9 183 211 2 184 213 11 188 215 42 193 221 74 191 221 99 186 219 114 189 218 128 195 225 139 195 226 159 197 222 183 203 222 190 207 221 196 216 223 205 221 224 213 232 226 214 230 226 215 230 226 217 234 225 218 235 224 218 234 225 220 236 224 224 235 225 224 235 223 223 
236 224 224 237 227 226 234 224 222 235 226 221 236 227 222 236 227 220 236 227 220 237 226 224 238 227 221 237 226 220 236 227 220 237 228 219 236 224 224 235 223 223 235 224 222 236 227 220 236 227 220 234 225 220 233 226 220 227 225 213 224 225 209 221 224 203 217 222 199 208 223 194 205 221 192 200 224 188 190 223 168 175 217 135 186 221 101 192 220 73 187 213 44 190 217 14 193 224 9 195 221 10 190 215 9 184 212 5 180 209 5 179 210 10 186 214 7 189 215 4 191 215 7 174 201 2 183 206 10 187 209 10 176 199 5 181 205 7 186 210 10 190 212 7 197 222 7 194 219 6 190 214 6 198 223 7 195 219 9 194 221 5 200 227 10 199 229 9 204 230 11 198 220 13 186 216 6 198 222 6 194 216 9 188 213 7 190 214 4 196 221 8 193 219 10 193 220 3 199 225 6 194 217 5 183 205 6 191 215 7 186 210 12 168 190 4 170 192 3 197 222 7 206 231 18 200 223 18 187 211 11 187 212 7 191 216 10 185 212 9 187 212 7 187 210 6 188 211 6 187 210 6 184 207 5 194 218 8 201 226 10 191 214 9 180 202 5 191 216 13 186 213 10 186 211 8 192 215 10 193 214 15 190 212 5 195 219 9 188 211 7 187 210 8 184 207 2 196 218 11 201 225 9 198 221 7 189 212 7 176 199 5 180 202 5 192 213 10 195 217 10 197 220 6 201 223 14 204 226 19 196 220 12 187 210 8 186 209 7 191 218 2 197 222 7 202 224 15 206 226 13 195 217 8 184 207 5 181 203 6 192 215 11 189 212 8 192 213 10 194 216 11 196 216 7 200 220 9 207 227 14 208 230 8 208 232 16 205 231 12 198 223 7 186 207 8 183 204 5 190 212 5 199 223 5 198 221 9 189 210 7 189 209 13 197 220 8 199 223 3 197 221 5 199 223 7 195 218 13 190 214 4 196 218 11 190 211 8 190 213 8 191 213 6 197 218 3 206 226 13 205 228 16 199 224 8 195 222 6 197 221 11 197 217 4 201 223 14 197 216 12 211 224 194 233 223 224 236 225 223 241 228 222 237 225 229 242 224 224 241 221 223 236 225 231 228 227 222 231 225 213 187 212 48 193 219 6 201 222 7 201 222 5 202 226 10 192 217 12 197 222 7 198 222 6 193 216 11 188 208 12 191 213 8 193 215 6 195 219 11 188 211 9 182 203 10 188 211 7 196 220 4 197 222 6 191 215 5 198 220 11 198 217 11 205 226 7 204 228 8 197 220 6 
196 222 11 190 213 11 185 206 5 190 211 8 186 212 3 185 210 4 187 211 3 190 212 5 200 223 9 202 229 12 199 225 6 196 221 8 193 218 13 181 208 7 183 206 2 195 218 6 
194 217 25 189 214 8 188 213 7 192 219 3 205 231 10 206 231 15 193 217 7 190 214 4 191 215 7 179 202 6 173 199 6 181 208 9 188 211 7 184 212 5 197 226 12 198 222 6 197 222 7 198 221 9 189 211 2 196 219 5 192 217 2 180 202 3 183 206 4 186 206 10 182 201 11 179 201 5 188 211 6 193 217 7 195 220 4 187 210 6 184 206 9 195 221 8 210 235 19 206 225 9 197 217 6 200 223 11 193 215 10 189 210 7 190 209 5 186 207 4 193 215 10 199 221 97 235 224 222 239 223 223 244 224 223 237 226 220 237 228 221 241 222 224 236 227 228 242 221 216 224 227 216 190 214 54 190 217 16 193 215 16 192 216 8 187 208 5 190 212 7 194 218 2 197 221 5 192 214 7 190 213 8 200 223 18 200 222 13 197 221 3 196 222 9 191 212 9 191 213 6 191 213 8 188 211 9 189 212 10 190 213 9 191 214 10 195 217 10 193 215 6 192 214 9 198 222 12 199 221 12 198 218 7 205 226 9 194 216 7 185 209 1 186 209 5 185 207 8 186 208 11 186 208 9 186 209 7 191 215 5 195 218 14 201 222 21 202 226 10 202 223 20 195 216 15 196 219 7 196 218 9 183 205 8 186 209 7 196 219 7 207 232 6 210 236 7 200 224 8 183 205 8 188 210 11 190 213 9 190 213 8 190 216 3 197 222 6 207 232 8 193 216 2 176 196 13 187 209 10 197 222 9 190 214 4 190 214 4 194 216 7 189 210 7 184 205 6 191 215 7 195 220 7 190 213 8 202 227 14 200 223 11 183 206 1 185 208 3 193 217 9 187 210 5 181 205 7 186 210 10 192 218 5 192 216 8 186 208 9 191 217 6 194 219 16 189 212 8 177 198 7 176 198 2 184 209 4 194 220 7 188 214 5 189 213 5 197 222 9 193 217 9 189 212 10 191 214 9 185 210 5 178 201 5 170 190 4 179 203 5 186 214 7 190 213 8 184 207 2 188 213 8 191 214 10 184 207 5 174 197 5 179 202 8 190 214 6 190 213 8 196 221 8 200 227 10 196 222 9 181 208 7 175 198 2 186 211 6 191 220 4 183 212 6 171 201 7 173 201 2 182 209 6 192 221 9 183 208 5 181 203 7 187 212 7 192 221 9 192 221 9 192 221 7 192 218 5 186 211 6 190 213 8 190 219 7 185 215 5 191 217 8 190 214 6 183 208 3 183 211 5 189 212 16 197 223 36 197 221 63 189 216 77 188 220 87 189 217 94 185 215 119 183 221 146 197 222 190 204 225 192 210 224 198 214 221 203 220 222 208 
224 225 209 224 225 209 226 227 211 232 223 214 228 226 213 224 226 213 225 227 216 223 225 211 218 223 201 207 222 193 203 228 188 197 224 157 191 217 130 190 220 86 191 218 61 192 218 35 194 222 13 198 225 9 190 215 9 181 208 5 182 209 6 185 215 7 179 207 8 171 196 8 181 203 4 183 208 3 183 210 7 188 218 10 187 215 8 192 218 5 201 227 14 194 220 11 179 202 6 184 209 6 193 219 6 182 209 6 173 201 2 171 201 7 183 212 6 191 220 4 186 211 6 175 198 2 181 208 7 196 222 9 200 227 10 196 221 8 190 213 8 190 214 6 179 202 8 174 197 5 184 207 5 191 214 10 188 213 8 184 207 2 190 213 8 186 214 7 179 203 5 170 190 4 178 201 5 185 210 5 191 214 9 189 212 10 193 217 9 197 222 9 189 213 5 188 214 5 194 220 7 184 209 4 176 198 2 177 198 7 189 212 8 194 219 16 191 217 6 186 208 9 192 216 8 192 218 5 186 210 10 181 205 7 187 210 5 193 217 9 185 208 3 183 206 1 200 223 11 202 227 14 190 213 8 195 220 7 191 215 7 184 205 6 189 210 7 194 216 7 190 214 4 190 214 4 197 222 9 187 209 10 176 196 13 193 216 2 207 232 8 197 222 6 190 216 3 190 213 8 190 213 9 188 210 11 183 205 8 200 224 8 210 236 7 207 232 6 196 219 7 186 209 7 183 205 8 196 218 9 196 219 7 195 216 15 202 223 20 202 226 10 201 222 21 195 218 14 191 215 5 186 209 7 186 208 9 186 208 11 185 207 8 186 209 5 185 209 1 194 216 7 205 226 9 198 218 7 199 221 12 198 222 12 192 214 9 193 215 6 195 217 10 191 214 10 190 213 9 189 212 10 188 211 9 191 213 8 191 213 6 191 212 9 196 222 9 197 221 3 200 222 13 200 223 18 190 213 8 192 214 7 197 221 5 194 218 2 190 212 7 187 210 6 192 214 5 195 216 15 194 216 17 189 210 7 192 214 9 204 223 45 230 226 215 239 223 224 244 223 228 237 226 220 236 227 218 235 225 223 240 226 223 235 225 216 237 226 222 221 224 207 191 210 7 189 210 7 193 215 10 201 223 14 194 217 3 205 224 11 211 235 15 195 221 8 184 206 9 187 210 6 195 220 4 193 217 7 188 211 6 179 201 5 182 201 11 186 206 10 183 206 4 180 202 3 192 217 2 196 219 5 189 211 2 198 221 9 197 222 7 198 222 6 197 226 12 184 212 5 188 211 7 181 208 9 173 199 6 179 202 6 191 215 7 190 215 2 
192 218 5 207 231 13 204 230 9 192 219 3 188 213 7 189 214 8 191 213 4 
198 219 28 193 217 7 190 214 6 197 221 5 200 224 8 187 208 5 183 206 4 189 212 8 191 215 7 181 203 7 175 198 6 190 216 5 202 226 6 196 221 8 197 224 5 201 225 7 198 222 4 197 221 5 201 222 5 197 220 6 199 222 8 194 219 4 198 224 5 202 227 3 206 228 5 208 232 14 205 230 7 207 232 8 199 223 7 196 219 5 194 217 3 202 228 9 211 237 6 201 226 3 188 210 11 182 205 3 188 210 13 189 207 9 192 215 3 195 218 6 202 222 13 215 226 194 242 226 229 242 224 220 240 225 222 234 224 223 233 223 222 237 228 221 237 226 222 238 224 224 182 220 109 177 208 9 197 220 8 192 217 2 187 209 4 180 199 9 181 203 6 186 208 12 189 210 9 196 220 12 194 218 10 195 219 11 188 211 6 191 211 15 185 207 8 191 214 2 199 219 10 196 218 13 191 214 9 193 216 11 191 214 10 191 213 16 203 226 14 201 224 10 197 219 12 197 222 7 198 221 9 205 230 7 202 226 8 201 223 14 195 219 9 193 216 11 187 210 5 194 217 3 197 220 6 196 217 16 200 222 13 199 222 10 192 213 14 190 213 8 183 205 8 185 208 6 197 221 11 193 217 9 184 207 5 191 215 7 197 219 10 201 224 10 200 223 9 194 215 12 183 205 6 187 210 6 193 218 5 194 218 10 191 215 7 194 216 9 201 220 16 190 209 3 181 201 5 194 218 10 192 215 10 180 202 5 187 208 9 193 216 11 190 213 8 185 210 7 190 215 9 196 223 4 201 227 6 197 220 8 188 209 8 188 212 4 196 220 12 195 219 11 192 216 6 189 214 8 190 216 5 199 227 5 194 219 4 184 207 5 183 205 8 187 210 16 190 215 10 186 211 5 196 219 14 203 229 10 196 222 9 187 212 9 187 212 6 186 209 4 188 211 9 193 216 11 201 224 19 191 216 10 173 199 6 169 191 4 185 210 7 182 205 1 179 200 7 179 201 5 185 209 9 183 208 5 175 196 5 176 199 5 173 199 6 186 210 12 190 214 4 185 210 4 189 214 8 187 213 4 187 212 6 186 211 6 189 211 14 194 219 14 183 211 2 176 202 5 175 201 4 185 210 5 189 218 4 184 209 6 191 215 7 197 222 9 181 206 3 177 204 5 182 206 8 180 204 4 179 201 5 181 203 6 180 207 6 184 212 5 188 213 7 187 210 8 183 208 5 187 212 9 186 215 3 189 218 6 196 222 11 194 220 7 190 216 7 191 217 8 185 210 7 176 202 5 178 206 7 186 215 3 192 219 2 191 215 7 181 206 3 184 212 5 
191 220 14 190 220 26 194 219 31 188 213 34 186 214 33 193 217 31 194 218 8 193 216 4 195 221 12 192 222 10 192 221 9 193 219 6 200 227 11 194 218 8 198 223 8 203 230 5 198 223 10 190 216 7 190 215 10 184 209 4 186 214 8 178 204 9 170 195 7 180 207 8 181 208 5 175 201 4 174 201 2 181 207 10 188 217 5 191 220 4 204 232 10 193 220 4 182 210 4 189 217 10 185 210 5 175 201 4 176 202 5 183 211 2 194 219 14 189 211 14 186 211 6 187 212 6 187 213 4 189 214 8 185 210 4 190 214 4 186 210 12 173 199 6 176 199 5 175 196 5 183 208 5 185 209 9 179 201 5 179 200 7 182 205 1 185 210 7 169 191 4 173 199 6 191 216 10 201 224 19 193 216 11 188 211 9 186 209 4 187 212 6 187 212 9 196 222 9 203 229 10 196 219 14 186 211 5 190 215 10 187 210 16 183 205 8 184 207 5 194 219 4 199 227 5 190 216 5 189 214 8 192 216 6 195 219 11 196 220 12 188 212 4 188 209 8 197 220 8 201 227 6 196 223 4 190 215 9 185 210 7 190 213 8 193 216 11 187 208 9 180 202 5 192 215 10 194 218 10 181 201 5 190 209 3 201 220 16 194 216 9 191 215 7 194 218 10 193 218 5 187 210 6 183 205 6 194 215 12 200 223 9 201 224 10 197 219 10 191 215 7 184 207 5 193 217 9 197 221 11 185 208 6 183 205 8 190 213 8 192 213 14 199 222 10 200 222 13 196 217 16 197 220 6 194 217 3 187 210 5 193 216 11 195 219 9 201 223 14 202 226 8 205 230 7 198 221 9 197 222 7 197 219 12 201 224 10 203 226 14 191 213 16 191 214 10 193 216 11 191 214 9 196 218 13 199 219 10 191 214 2 185 207 8 191 211 15 188 211 6 195 219 11 194 218 10 196 220 12 189 210 9 186 208 12 181 203 6 180 199 9 190 209 6 191 213 4 195 224 10 180 206 9 181 205 7 190 221 6 207 227 130 232 223 218 233 225 222 235 226 219 243 224 220 237 225 227 241 224 217 239 223 226 235 225 223 237 225 229 191 221 159 187 209 10 188 211 9 183 203 7 186 209 5 204 226 4 210 237 8 202 228 9 194 217 3 196 219 5 199 223 7 207 232 8 205 230 7 208 232 14 206 228 5 202 227 3 198 224 5 194 219 4 199 222 8 197 220 6 201 222 5 197 221 5 198 222 4 201 225 7 197 224 5 196 221 8 202 226 6 190 216 5 175 198 6 181 203 7 191 215 7 189 212 8 183 206 2 
187 208 5 200 224 8 197 220 6 191 213 8 193 217 7 195 214 8 
204 225 26 191 213 4 196 218 9 204 228 10 191 213 4 188 209 8 189 212 8 183 205 6 186 211 5 189 212 7 190 216 5 205 232 7 207 232 9 198 221 9 195 218 6 196 219 5 189 210 9 196 216 5 195 215 6 192 214 7 192 214 5 193 217 9 198 223 7 195 220 5 187 210 8 187 209 10 191 214 9 190 214 6 182 204 5 185 208 6 188 211 7 199 226 9 200 226 7 192 215 3 179 206 3 188 210 3 191 210 4 193 216 11 197 223 10 195 220 7 195 218 75 231 227 218 232 227 223 242 224 222 233 224 217 233 227 229 239 232 224 234 226 223 236 225 221 211 223 203 180 208 2 188 212 4 205 226 9 198 221 9 188 209 6 184 212 6 194 218 8 195 219 11 197 220 15 196 220 12 191 215 5 188 211 6 187 210 6 193 215 6 195 218 4 193 214 11 200 224 8 186 207 4 179 200 9 188 212 2 189 214 1 189 212 10 193 215 10 187 208 5 187 210 5 196 221 8 205 230 14 192 214 7 186 206 10 200 225 10 199 224 11 179 201 4 185 205 9 195 216 17 198 220 15 198 220 15 195 217 8 199 223 7 192 214 5 186 209 7 189 211 12 194 218 10 200 225 10 196 222 3 195 220 4 198 224 3 197 220 8 190 211 10 193 215 8 195 217 8 181 204 2 181 205 7 192 216 8 194 218 8 193 216 12 205 228 14 213 234 15 208 231 5 193 215 10 193 214 11 193 217 7 190 213 8 196 220 12 198 223 10 193 216 11 184 209 4 184 209 4 189 212 7 191 214 9 180 200 5 184 207 3 192 216 8 188 212 4 195 220 5 195 221 2 201 226 13 196 222 9 194 220 7 181 206 1 172 194 7 172 194 7 182 206 8 189 218 6 194 220 7 198 223 8 200 224 8 193 219 6 195 221 12 199 226 10 196 221 6 201 227 8 208 235 8 212 238 15 199 226 7 187 215 9 186 214 5 188 213 7 192 215 13 197 221 11 201 226 11 196 223 7 191 217 4 200 226 13 190 218 11 179 205 8 194 219 14 197 224 8 184 209 6 180 204 4 184 208 8 195 219 9 190 214 6 187 209 10 187 212 7 188 214 1 196 222 13 186 211 6 182 207 4 185 212 9 193 222 8 197 224 8 190 216 7 176 202 5 175 201 6 176 203 2 177 200 8 181 203 6 180 203 7 179 203 5 184 209 6 184 209 4 183 205 9 174 194 8 180 204 4 190 213 8 195 217 8 191 215 5 190 216 5 191 217 8 194 219 4 188 213 7 177 205 6 179 206 3 188 213 8 192 216 8 196 221 6 199 225 6 202 228 7 
196 221 8 191 214 10 196 223 7 190 214 4 186 207 4 189 210 9 186 209 5 191 214 9 201 228 3 204 228 12 191 214 10 185 208 6 193 217 7 188 211 9 185 208 4 197 223 2 206 233 6 203 229 6 194 218 8 197 223 14 197 224 8 191 215 5 180 204 4 176 204 6 183 212 6 179 202 6 176 198 2 182 207 4 181 209 0 177 204 3 191 220 8 202 230 6 194 223 9 184 213 9 182 207 4 186 211 6 196 222 13 188 214 1 187 212 7 187 209 10 190 214 6 195 219 9 184 208 8 180 204 4 184 209 6 197 224 8 194 219 14 179 205 8 190 218 11 200 226 13 191 217 4 196 223 7 201 226 11 197 221 11 192 215 13 188 213 7 186 214 5 187 215 9 199 226 7 212 238 15 208 235 8 201 227 8 196 221 6 199 226 10 195 221 12 193 219 6 200 224 8 198 223 8 194 220 7 189 218 6 182 206 8 172 194 7 172 194 7 181 206 1 194 220 7 196 222 9 201 226 13 195 221 2 195 220 5 188 212 4 192 216 8 184 207 3 180 200 5 191 214 9 189 212 7 184 209 4 184 209 4 193 216 11 198 223 10 196 220 12 190 213 8 193 217 7 193 214 11 193 215 10 208 231 5 213 234 15 205 228 14 193 216 12 194 218 8 192 216 8 181 205 7 181 204 2 195 217 8 193 215 8 190 211 10 197 220 8 198 224 3 195 220 4 196 222 3 200 225 10 194 218 10 189 211 12 186 209 7 192 214 5 199 223 7 195 217 8 198 220 15 198 220 15 195 216 17 185 205 9 179 201 4 199 224 11 200 225 10 186 206 10 192 214 7 205 230 14 196 221 8 187 210 5 187 208 5 193 215 10 189 212 10 189 214 1 188 212 2 179 200 9 186 207 4 200 224 8 193 214 11 195 218 4 193 215 6 187 210 6 188 211 6 191 215 5 196 220 12 197 220 15 195 219 11 194 218 8 184 211 10 187 208 5 200 220 9 203 227 7 188 211 6 182 203 4 188 206 6 190 213 8 203 228 173 239 233 219 241 220 229 233 223 224 235 227 224 236 227 222 238 226 228 238 224 224 234 225 220 237 227 226 190 217 78 185 213 6 187 210 5 183 206 2 191 213 6 200 224 6 199 226 9 188 211 7 185 208 6 182 204 5 190 214 6 191 214 9 187 209 10 187 210 8 195 220 5 198 223 7 193 217 9 192 214 5 192 214 7 195 215 6 196 216 5 189 210 9 196 219 5 195 218 6 198 221 9 207 232 9 205 232 7 190 216 5 189 212 7 186 211 5 184 206 7 188 213 8 189 210 9 191 213 4 
203 228 12 196 218 11 191 213 4 200 219 5 
193 212 24 187 211 3 188 214 1 190 216 7 186 211 8 185 208 4 187 210 5 185 209 1 190 215 10 187 210 6 191 215 5 193 218 5 190 213 8 189 210 7 185 206 3 191 215 5 196 218 11 199 222 10 198 222 6 196 218 11 185 206 5 187 210 6 189 212 7 181 201 5 172 193 4 177 198 5 191 214 9 194 219 6 188 209 10 180 200 4 188 211 6 196 221 5 199 219 8 195 214 10 188 209 6 191 214 10 190 215 0 191 215 5 194 213 7 189 210 11 204 220 183 232 226 214 233 228 222 237 225 227 240 222 218 239 223 223 237 222 219 238 227 223 238 224 223 190 217 78 190 212 5 197 222 9 202 226 8 200 220 11 184 204 11 184 207 11 190 216 7 195 220 5 192 216 8 186 209 7 195 219 11 190 214 6 190 213 9 195 217 8 182 203 4 175 195 9 195 218 13 189 213 5 175 198 6 181 204 8 180 204 4 174 195 4 178 200 4 193 215 8 197 223 4 192 218 9 184 209 4 180 202 3 184 206 10 186 211 6 182 204 5 176 197 6 187 209 10 197 219 12 197 220 8 193 214 11 191 212 9 195 218 6 188 209 6 190 211 12 194 218 8 200 222 13 195 217 8 203 227 9 199 221 12 191 212 11 179 199 3 184 205 4 201 224 10 199 222 10 180 201 10 178 200 4 193 216 11 192 215 11 198 222 12 211 237 8 215 240 14 199 222 10 187 208 9 191 214 10 191 214 9 192 215 11 201 226 11 200 225 10 192 216 6 191 213 4 193 215 6 191 215 7 189 212 7 184 207 5 190 212 13 191 213 16 190 214 6 197 223 4 192 216 8 189 212 7 194 221 5 181 206 3 172 194 5 174 196 9 178 204 7 189 217 10 195 222 6 192 215 11 190 215 2 196 223 7 201 226 20 203 230 14 198 223 7 198 222 12 204 230 11 209 235 12 202 226 18 188 211 9 187 210 8 182 209 8 189 214 11 199 226 9 198 229 4 202 229 13 198 221 9 190 213 8 192 217 11 187 215 6 191 220 8 199 226 9 191 216 10 187 212 9 190 216 7 198 223 7 200 227 10 205 233 8 196 223 7 195 221 12 201 228 12 197 223 12 182 209 6 176 202 5 186 214 7 192 221 7 189 214 9 183 211 4 181 209 3 180 206 9 183 208 3 184 209 6 184 209 4 180 207 6 185 209 11 187 212 6 193 220 3 188 211 6 175 194 6 173 195 6 175 203 7 185 208 3 195 218 6 196 221 6 188 217 3 194 219 4 185 208 3 178 202 4 183 205 6 193 217 9 196 221 8 190 214 6 186 209 5 
190 216 7 193 219 6 193 218 12 189 213 5 188 212 4 188 210 11 189 211 14 186 211 8 176 199 3 180 204 6 197 222 6 197 220 6 191 215 5 191 217 6 176 202 5 173 199 2 176 200 2 195 219 9 201 227 6 197 224 8 191 216 11 193 219 10 194 220 7 183 207 7 179 205 8 190 216 5 194 218 8 186 209 4 188 213 8 184 212 6 179 206 5 181 206 3 187 212 7 194 220 9 186 215 3 176 202 5 182 209 6 197 223 12 201 228 12 195 221 12 196 223 7 205 233 8 200 227 10 198 223 7 190 216 7 187 212 9 191 216 10 199 226 9 191 220 8 187 215 6 192 217 11 190 213 8 198 221 9 202 229 13 198 229 4 199 226 9 189 214 11 182 209 8 187 210 8 188 211 9 202 226 18 209 235 12 204 230 11 198 222 12 198 223 7 203 230 14 201 226 20 196 223 7 190 215 2 192 215 11 195 222 6 189 217 10 178 204 7 174 196 9 172 194 5 181 206 3 194 221 5 189 212 7 192 216 8 197 223 4 190 214 6 191 213 16 190 212 13 184 207 5 189 212 7 191 215 7 193 215 6 191 213 4 192 216 6 200 225 10 201 226 11 192 215 11 191 214 9 191 214 10 187 208 9 199 222 10 215 240 14 211 237 8 198 222 12 192 215 11 193 216 11 178 200 4 180 201 10 199 222 10 201 224 10 184 205 4 179 199 3 191 212 11 199 221 12 203 227 9 195 217 8 200 222 13 194 218 8 190 211 12 188 209 6 195 218 6 191 212 9 193 214 11 197 220 8 197 219 12 187 209 10 176 197 6 182 204 5 186 211 6 184 206 10 180 202 3 184 209 4 192 218 9 197 223 4 193 215 8 178 200 4 174 195 4 180 204 4 181 204 8 175 198 6 189 213 5 195 218 13 175 195 9 182 203 4 195 217 8 190 213 9 190 214 6 195 219 11 186 209 7 192 216 8 195 220 5 190 216 7 185 206 13 185 205 10 199 218 12 204 225 10 198 221 7 190 214 4 189 211 2 196 218 9 199 216 22 225 222 213 233 227 215 241 226 229 234 225 218 238 227 223 237 226 220 239 226 218 240 225 218 229 226 221 223 224 210 193 213 17 190 214 6 187 208 5 199 214 7 196 221 8 196 221 5 188 211 6 180 200 4 188 209 10 194 219 6 191 214 9 177 198 5 172 193 4 181 201 5 189 212 7 187 210 6 185 206 5 196 218 11 198 222 6 199 222 10 196 218 11 191 215 5 185 206 3 189 210 7 190 213 8 193 218 5 191 215 5 187 210 6 190 215 10 185 208 3 186 211 5 
185 208 6 185 210 7 189 215 6 189 213 3 186 210 2 189 206 4 
196 216 30 187 210 6 188 211 7 194 218 10 189 213 5 189 212 8 188 211 7 196 221 6 190 214 4 182 205 3 191 214 12 194 217 12 188 212 4 193 216 4 192 214 7 192 216 8 196 220 12 205 230 17 198 223 10 186 209 5 186 209 7 184 206 7 188 209 6 188 210 5 189 214 8 199 226 10 203 229 8 203 228 4 196 219 5 194 216 11 203 227 11 199 224 11 204 224 13 199 223 7 196 216 7 188 217 5 190 211 10 186 208 9 191 218 2 196 221 42 225 225 217 243 229 228 236 225 221 234 225 220 240 226 217 238 227 223 240 224 225 233 225 212 209 222 196 201 225 9 202 223 8 194 217 5 190 214 6 183 206 4 177 197 11 189 213 15 191 215 5 195 218 13 192 216 8 198 222 12 196 220 12 191 215 7 200 222 13 197 219 12 191 213 8 196 220 10 202 229 10 207 233 10 195 219 9 190 215 10 193 219 8 194 217 12 205 226 23 204 228 12 186 209 7 183 204 11 189 212 8 198 224 5 191 215 7 190 213 8 198 222 2 202 226 6 199 222 8 195 218 6 187 209 2 179 200 9 186 208 9 185 208 6 180 200 5 193 216 11 193 218 5 188 210 5 199 222 10 213 235 13 204 225 8 191 211 0 188 209 8 197 219 14 205 228 14 203 226 12 187 210 8 189 213 3 200 226 5 203 229 6 205 231 12 211 237 14 205 229 13 177 197 1 171 191 5 182 204 8 184 207 5 196 219 14 203 224 25 187 208 9 182 204 5 189 210 9 197 219 10 199 224 8 185 208 4 171 193 6 167 187 2 178 201 5 195 219 19 187 212 7 185 210 5 191 215 7 199 226 7 187 213 4 181 204 10 185 212 9 193 220 3 202 229 12 201 226 13 195 217 10 199 224 11 191 216 10 189 212 10 191 213 14 188 212 4 190 214 6 188 211 6 191 215 5 184 207 3 176 197 4 187 209 10 187 215 9 191 217 6 203 231 9 201 232 7 194 221 5 188 209 6 186 208 11 188 214 5 186 211 5 195 222 6 196 223 4 191 216 3 192 218 5 192 218 7 199 225 6 207 235 13 206 234 12 185 212 9 179 205 10 187 214 11 188 217 5 187 215 6 184 212 6 189 214 8 189 214 8 181 206 3 184 209 6 184 209 4 188 213 7 193 217 9 191 214 10 189 214 11 184 212 6 186 210 10 189 215 6 193 220 4 196 221 8 198 221 7 184 208 8 167 194 5 172 203 3 187 212 6 188 211 7 179 207 9 191 221 11 197 224 8 197 223 12 195 220 5 194 219 4 189 213 3 190 213 8 
187 212 7 182 207 4 189 214 8 201 226 10 199 225 6 194 219 4 192 218 7 189 214 9 182 204 5 180 202 6 175 196 3 192 215 13 200 222 17 189 213 5 189 215 6 178 205 2 178 205 4 182 207 2 191 214 9 190 214 6 200 225 9 193 217 7 185 210 4 192 218 9 185 208 12 179 200 9 189 215 6 202 229 10 197 222 16 196 222 11 196 223 6 186 214 5 179 206 5 176 203 4 189 215 6 189 215 6 184 212 6 187 215 6 188 217 5 187 214 11 179 205 10 185 212 9 206 234 12 207 235 13 199 225 6 192 218 7 192 218 5 191 216 3 196 223 4 195 222 6 186 211 5 188 214 5 186 208 11 188 209 6 194 221 5 201 232 7 203 231 9 191 217 6 187 215 9 187 209 10 176 197 4 184 207 3 191 215 5 188 211 6 190 214 6 188 212 4 191 213 14 189 212 10 191 216 10 199 224 11 195 217 10 201 226 13 202 229 12 193 220 3 185 212 9 181 204 10 187 213 4 199 226 7 191 215 7 185 210 5 187 212 7 195 219 19 178 201 5 167 187 2 171 193 6 185 208 4 199 224 8 197 219 10 189 210 9 182 204 5 187 208 9 203 224 25 196 219 14 184 207 5 182 204 8 171 191 5 177 197 1 205 229 13 211 237 14 205 231 12 203 229 6 200 226 5 189 213 3 187 210 8 203 226 12 205 228 14 197 219 14 188 209 8 191 211 0 204 225 8 213 235 13 199 222 10 188 210 5 193 218 5 193 216 11 180 200 5 185 208 6 186 208 9 179 200 9 187 209 2 195 218 6 199 222 8 202 226 6 198 222 2 190 213 8 191 215 7 198 224 5 189 212 8 183 204 11 186 209 7 204 228 12 205 226 23 194 217 12 193 219 8 190 215 10 195 219 9 207 233 10 202 229 10 196 220 10 191 213 8 197 219 12 200 222 13 191 215 7 196 220 12 198 222 12 192 216 8 195 218 13 191 215 5 191 213 16 176 199 7 183 207 7 191 215 5 195 214 10 202 222 9 203 226 12 190 214 6 180 207 8 184 215 62 236 227 220 233 225 222 236 224 224 235 227 224 241 230 228 235 228 218 244 222 224 240 223 229 235 226 219 187 221 134 187 215 9 194 216 7 200 221 4 202 224 15 199 224 11 203 227 11 194 216 11 196 219 5 203 228 4 203 229 8 199 226 10 189 214 8 188 210 5 188 209 6 184 206 7 186 209 7 186 209 5 198 223 10 205 230 17 196 220 12 192 216 8 192 214 7 193 216 4 188 212 4 194 217 12 191 214 12 182 205 3 190 214 4 
196 221 6 187 212 7 189 210 9 189 213 5 194 218 10 189 212 8 187 210 8 192 211 8 
199 222 30 195 220 4 198 222 4 202 223 8 194 213 9 185 203 3 192 214 7 197 222 9 192 214 9 198 223 8 205 231 12 208 233 10 203 228 15 201 226 13 199 223 7 196 222 1 192 216 6 184 207 5 186 209 4 188 211 6 195 220 4 194 219 6 196 218 13 194 217 5 194 220 11 196 221 15 196 221 8 195 217 8 195 218 4 203 227 11 202 226 6 188 212 2 189 215 6 198 221 7 193 215 8 184 205 12 190 206 9 194 219 6 197 227 7 208 230 145 230 226 215 237 225 229 234 227 221 242 224 222 231 226 223 235 225 224 236 224 224 235 223 223 198 222 74 198 222 12 195 212 9 186 209 7 185 206 5 177 201 3 178 201 7 190 214 4 194 218 8 196 221 8 200 225 12 193 216 11 182 205 3 192 213 10 200 223 11 205 229 13 197 220 8 196 221 8 195 220 5 194 217 5 192 214 7 196 220 10 195 221 8 198 223 10 210 230 21 199 218 14 185 205 10 188 211 7 199 223 13 198 221 9 193 215 6 200 223 11 206 230 14 196 219 5 188 209 8 187 208 9 190 211 8 189 210 9 189 213 5 189 212 8 186 208 9 195 220 7 188 211 6 185 207 8 203 227 11 207 231 15 190 212 5 184 205 4 196 219 14 203 227 11 204 229 6 201 224 12 186 209 5 194 217 13 200 224 16 190 212 5 194 218 10 203 228 5 192 214 5 173 191 7 175 196 5 187 210 5 189 212 8 190 212 5 188 210 3 187 209 10 190 215 12 191 216 10 193 219 8 191 216 11 175 198 2 179 203 5 192 217 11 205 232 13 196 222 11 185 210 7 189 213 5 191 214 10 191 214 10 187 212 6 177 203 6 184 209 6 203 229 8 203 229 6 190 213 9 192 216 8 192 218 9 186 211 6 195 220 7 188 211 9 188 211 9 188 210 13 183 205 8 184 206 7 186 208 11 190 214 4 192 218 9 187 212 9 189 215 6 191 215 7 190 213 11 189 211 12 188 211 7 197 224 8 190 216 5 181 205 5 191 215 7 195 220 7 196 221 6 200 227 11 198 225 8 208 234 11 202 229 10 187 212 6 178 201 5 180 204 4 181 209 3 184 212 6 178 205 2 175 198 4 182 209 8 181 208 7 177 203 6 183 210 7 188 216 7 185 213 6 189 214 8 188 213 7 182 206 8 182 207 4 184 208 8 186 211 8 185 210 7 189 212 8 202 228 9 199 226 7 187 212 6 174 202 4 175 198 4 184 207 5 177 204 3 182 207 4 187 210 8 185 210 4 193 219 6 182 206 6 172 194 5 170 192 5 176 199 5 
175 198 2 180 204 4 190 215 9 190 216 7 185 208 6 188 211 7 193 218 12 197 224 8 192 218 9 196 221 8 195 220 7 194 220 7 191 217 6 186 214 5 188 216 9 192 218 7 187 210 6 184 205 4 195 218 6 204 230 11 201 225 5 190 214 4 189 215 6 188 213 7 185 208 4 182 206 6 185 214 8 191 219 12 190 219 5 194 221 5 192 221 9 181 208 9 173 198 8 180 207 6 183 206 10 175 198 4 178 205 2 184 212 6 181 209 3 180 204 4 178 201 5 187 212 6 202 229 10 208 234 11 198 225 8 200 227 11 196 221 6 195 220 7 191 215 7 181 205 5 190 216 5 197 224 8 188 211 7 189 211 12 190 213 11 191 215 7 189 215 6 187 212 9 192 218 9 190 214 4 186 208 11 184 206 7 183 205 8 188 210 13 188 211 9 188 211 9 195 220 7 186 211 6 192 218 9 192 216 8 190 213 9 203 229 6 203 229 8 184 209 6 177 203 6 187 212 6 191 214 10 191 214 10 189 213 5 185 210 7 196 222 11 205 232 13 192 217 11 179 203 5 175 198 2 191 216 11 193 219 8 191 216 10 190 215 12 187 209 10 188 210 3 190 212 5 189 212 8 187 210 5 175 196 5 173 191 7 192 214 5 203 228 5 194 218 10 190 212 5 200 224 16 194 217 13 186 209 5 201 224 12 204 229 6 203 227 11 196 219 14 184 205 4 190 212 5 207 231 15 203 227 11 185 207 8 188 211 6 195 220 7 186 208 9 189 212 8 189 213 5 189 210 9 190 211 8 187 208 9 188 209 8 196 219 5 206 230 14 200 223 11 193 215 6 198 221 9 199 223 13 188 211 7 185 205 10 199 218 14 210 230 21 198 223 10 195 221 8 196 220 10 192 214 7 194 217 5 195 220 5 196 221 8 197 220 8 205 229 13 200 223 11 192 213 10 182 205 3 193 216 11 200 225 12 196 221 8 194 218 8 191 215 5 179 200 7 177 201 3 183 205 6 187 209 4 195 212 9 201 221 8 200 222 15 196 221 8 180 209 5 193 219 154 237 226 224 234 226 224 236 226 217 239 225 225 236 227 220 238 231 221 228 228 218 241 223 221 214 227 209 186 209 17 192 216 6 198 222 4 187 215 9 188 212 2 202 226 6 203 227 11 195 218 4 195 217 8 196 221 8 196 221 15 194 220 11 194 217 5 196 218 13 194 219 6 195 220 4 188 211 6 186 209 4 184 207 5 192 216 6 196 222 1 199 223 7 201 226 13 203 228 15 208 233 10 205 231 12 198 223 8 192 214 9 197 222 9 191 215 7 
185 203 5 193 212 6 202 223 8 198 222 4 196 221 5 194 216 11 
207 230 28 200 226 3 199 224 8 195 218 6 191 214 2 192 214 5 195 220 7 197 222 7 197 220 8 191 218 2 192 218 5 191 214 2 185 207 10 184 206 7 181 204 2 188 212 4 190 213 8 187 210 5 195 220 7 198 224 5 188 212 2 188 211 9 197 221 13 190 213 8 190 212 5 190 211 12 193 215 8 203 223 12 202 222 13 199 220 3 200 224 6 194 218 10 188 210 11 196 216 7 196 215 9 181 201 8 195 220 7 199 224 8 195 221 12 220 227 211 236 226 225 241 223 219 236 227 222 240 227 219 242 223 227 241 222 228 230 227 218 219 223 206 186 211 5 186 204 8 180 200 5 176 202 7 188 210 13 182 204 7 181 208 9 194 220 11 194 218 8 192 217 4 195 219 11 191 214 10 188 211 6 197 221 11 208 231 17 210 231 14 198 222 6 191 215 7 186 209 7 194 213 9 197 216 10 187 209 10 189 210 17 195 218 14 193 215 8 193 215 10 188 209 10 187 209 10 194 218 10 199 222 8 205 226 7 204 229 6 200 224 4 190 212 5 187 209 4 192 215 3 200 224 6 193 217 7 189 213 5 195 220 7 194 219 6 191 215 5 188 211 9 187 209 13 199 221 14 189 213 5 179 201 4 181 202 9 188 211 7 190 213 11 189 210 11 185 205 9 186 209 5 191 215 7 198 223 10 198 220 11 202 226 8 206 230 12 192 214 5 176 198 2 179 200 7 184 207 5 183 206 4 189 209 13 193 215 10 188 211 9 178 201 5 175 198 4 179 203 3 187 210 5 189 212 7 191 214 10 184 207 11 188 213 8 189 214 8 188 213 7 185 207 8 187 209 10 190 213 8 190 214 4 181 204 8 190 215 9 203 229 8 201 227 8 182 204 8 178 201 7 185 210 4 196 221 6 197 222 9 187 210 6 194 218 8 199 224 11 195 218 14 187 209 12 186 208 9 192 216 6 189 215 4 188 214 3 179 203 5 171 194 2 191 214 12 186 209 7 180 203 9 184 208 10 183 205 8 182 204 7 200 225 10 204 228 12 198 223 10 200 226 13 193 219 8 186 208 9 182 206 6 179 203 5 181 204 8 184 209 6 178 205 2 171 196 6 171 193 6 179 200 7 178 206 8 175 203 5 179 205 8 184 212 5 189 218 6 184 212 6 187 215 8 183 211 5 178 205 4 181 205 5 184 209 6 180 207 6 192 217 11 185 210 4 186 209 7 189 213 5 191 217 8 184 209 4 180 200 7 178 200 4 177 206 2 183 211 5 180 204 6 180 207 6 186 212 3 181 205 5 183 205 6 180 202 3 174 195 6 175 198 6 
182 206 6 182 206 6 184 212 5 188 216 9 192 223 5 189 218 4 188 214 5 182 204 7 189 212 8 199 226 7 195 220 7 191 214 10 188 211 6 184 207 5 185 208 4 181 203 7 185 208 4 190 213 8 195 219 11 203 228 13 196 221 8 186 211 6 190 215 9 186 214 7 177 201 3 181 205 5 189 218 4 194 223 7 189 218 6 192 220 11 185 213 7 177 203 8 176 203 2 180 207 6 179 200 7 171 193 6 171 196 6 178 205 2 184 209 6 181 204 8 179 203 5 182 206 6 186 208 9 193 219 8 200 226 13 198 223 10 204 228 12 200 225 10 182 204 7 183 205 8 184 208 10 180 203 9 186 209 7 191 214 12 171 194 2 179 203 5 188 214 3 189 215 4 192 216 6 186 208 9 187 209 12 195 218 14 199 224 11 194 218 8 187 210 6 197 222 9 196 221 6 185 210 4 178 201 7 182 204 8 201 227 8 203 229 8 190 215 9 181 204 8 190 214 4 190 213 8 187 209 10 185 207 8 188 213 7 189 214 8 188 213 8 184 207 11 191 214 10 189 212 7 187 210 5 179 203 3 175 198 4 178 201 5 188 211 9 193 215 10 189 209 13 183 206 4 184 207 5 179 200 7 176 198 2 192 214 5 206 230 12 202 226 8 198 220 11 198 223 10 191 215 7 186 209 5 185 205 9 189 210 11 190 213 11 188 211 7 181 202 9 179 201 4 189 213 5 199 221 14 187 209 13 188 211 9 191 215 5 194 219 6 195 220 7 189 213 5 193 217 7 200 224 6 192 215 3 187 209 4 190 212 5 200 224 4 204 229 6 205 226 7 199 222 8 194 218 10 187 209 10 188 209 10 193 215 10 193 215 8 195 218 14 189 210 17 187 209 10 197 216 10 194 213 9 186 209 7 191 215 7 198 222 6 210 231 14 208 231 17 197 221 11 188 211 6 191 214 10 195 219 11 192 217 4 194 218 8 191 219 12 184 208 8 180 204 6 187 210 14 178 201 5 180 202 6 184 205 6 186 208 1 191 215 7 189 210 11 186 209 4 215 223 200 235 226 217 237 226 224 237 224 231 236 227 222 236 225 231 235 225 226 234 225 216 239 224 221 183 216 85 191 216 10 193 218 5 188 213 10 194 218 10 200 224 6 199 220 3 202 222 13 203 223 12 193 215 8 190 211 12 190 212 5 190 213 8 197 221 13 188 211 9 188 212 2 198 224 5 195 220 7 187 210 5 190 213 8 188 212 4 181 204 2 184 206 7 185 207 10 191 214 2 192 218 5 191 218 2 197 220 8 197 222 7 194 220 7 192 214 7 
191 214 2 195 218 4 199 223 7 201 227 4 204 225 10 
193 212 26 176 197 4 176 198 9 172 198 5 173 199 4 178 205 2 188 214 5 193 217 9 178 198 5 158 182 0 164 188 6 174 195 6 173 195 8 176 199 3 180 202 6 196 220 10 200 223 11 196 221 8 192 217 1 186 209 5 187 210 6 193 217 9 193 216 11 189 213 3 199 222 8 199 225 6 197 221 11 207 231 11 194 219 4 178 200 1 174 200 3 175 203 7 171 197 4 177 203 8 183 208 5 173 194 5 175 196 3 175 202 9 179 215 125 234 223 221 241 222 224 237 225 225 235 227 225 236 224 228 235 229 217 237 228 221 242 222 224 183 220 114 188 216 7 187 211 3 178 205 2 184 211 8 192 215 10 182 211 7 192 215 10 196 221 6 194 217 5 190 214 6 196 220 12 190 213 8 182 204 5 197 222 9 209 232 18 198 216 20 183 203 8 182 206 8 190 216 5 205 226 11 201 221 8 192 214 5 190 213 11 191 214 9 184 207 5 187 210 6 190 213 9 195 221 8 204 228 20 206 230 14 204 228 12 198 220 11 197 221 13 190 212 13 187 209 12 193 217 7 198 224 5 191 215 7 195 219 11 200 226 7 206 230 14 209 230 27 198 222 6 195 217 10 198 220 13 194 219 4 191 216 10 188 213 7 190 213 9 189 212 10 192 216 8 198 223 7 196 219 14 195 218 14 194 218 8 204 227 15 198 223 8 182 204 5 172 193 4 175 198 6 179 203 5 191 217 8 200 226 7 203 226 14 198 221 16 187 211 11 184 208 8 190 214 6 196 219 7 205 229 11 206 230 12 185 207 8 182 204 7 196 222 13 198 225 8 197 222 7 192 216 6 191 216 3 197 222 7 200 225 12 195 217 8 195 220 4 202 230 8 191 221 3 175 198 4 181 202 13 196 221 5 198 224 11 194 217 12 189 212 8 195 219 11 189 215 4 178 202 4 173 195 6 180 205 2 188 213 7 197 224 5 189 213 5 166 190 8 163 187 3 181 205 5 185 210 7 186 212 3 187 210 5 190 213 8 197 221 11 206 230 10 204 229 5 196 220 10 189 214 8 186 211 8 174 197 1 181 206 3 186 210 12 186 208 11 188 214 5 187 217 7 175 203 4 179 203 3 191 215 7 184 209 4 177 200 6 182 207 2 191 217 6 187 212 7 186 212 3 186 212 3 180 204 4 185 213 6 189 213 5 186 212 3 183 211 5 188 214 3 194 221 5 185 209 9 178 199 6 178 201 5 175 202 3 168 195 6 164 188 6 169 191 5 180 207 6 181 208 5 179 206 3 180 207 4 186 214 7 184 209 3 189 215 6 190 216 7 179 203 3 
173 198 8 172 198 5 179 206 7 190 216 7 189 213 5 191 217 6 184 209 4 174 200 5 185 210 5 195 223 1 197 224 7 195 221 8 192 217 12 185 210 5 187 212 6 179 203 5 180 203 7 188 213 7 181 209 3 187 212 6 192 218 5 191 214 9 187 213 4 183 211 5 181 205 5 186 206 10 181 204 2 186 211 8 181 208 5 184 209 6 187 212 6 181 205 7 174 200 5 181 210 8 191 215 7 179 203 3 175 203 4 187 217 7 188 214 5 186 208 11 186 210 12 181 206 3 174 197 1 186 211 8 189 214 8 196 220 10 204 229 5 206 230 10 197 221 11 190 213 8 187 210 5 186 212 3 185 210 7 181 205 5 163 187 3 166 190 8 189 213 5 197 224 5 188 213 7 180 205 2 173 195 6 178 202 4 189 215 4 195 219 11 189 212 8 194 217 12 198 224 11 196 221 5 181 202 13 175 198 4 191 221 3 202 230 8 195 220 4 195 217 8 200 225 12 197 222 7 191 216 3 192 216 6 197 222 7 198 225 8 196 222 13 182 204 7 185 207 8 206 230 12 205 229 11 196 219 7 190 214 6 184 208 8 187 211 11 198 221 16 203 226 14 200 226 7 191 217 8 179 203 5 175 198 6 172 193 4 182 204 5 198 223 8 204 227 15 194 218 8 195 218 14 196 219 14 198 223 7 192 216 8 189 212 10 190 213 9 188 213 7 191 216 10 194 219 4 198 220 13 195 217 10 198 222 6 209 230 27 206 230 14 200 226 7 195 219 11 191 215 7 198 224 5 193 217 7 187 209 12 190 212 13 197 221 13 198 220 11 204 228 12 206 230 14 204 228 20 195 221 8 190 213 9 187 210 6 184 207 5 191 214 9 190 213 11 192 214 5 201 221 8 205 226 11 190 216 5 182 206 8 183 203 8 198 216 20 209 232 18 197 222 9 182 204 5 190 213 8 196 220 12 190 214 6 194 217 5 197 221 5 190 215 9 186 211 8 192 215 10 187 210 8 180 204 4 187 212 6 192 216 6 182 206 6 182 205 3 187 210 6 191 215 65 235 225 216 235 228 220 233 226 220 242 221 218 237 226 220 235 223 223 233 224 225 242 223 225 197 224 183 183 206 4 178 201 9 173 196 2 175 203 7 174 200 3 178 200 1 194 219 4 207 231 11 197 221 11 199 225 6 199 222 8 189 213 3 193 216 11 193 217 9 187 210 6 186 209 5 192 217 1 196 221 8 200 223 11 196 220 10 180 202 6 176 199 3 173 195 8 174 195 6 164 188 6 158 182 0 178 198 5 193 217 9 186 214 5 180 204 4 173 199 6 
171 198 5 175 198 6 177 198 5 190 207 7 
195 216 27 187 211 3 178 201 5 178 201 5 175 198 6 184 208 8 192 216 6 187 208 5 177 193 8 170 194 8 184 212 5 192 216 8 191 214 10 190 213 8 191 216 3 187 212 7 183 210 7 184 212 5 188 212 12 189 212 8 191 213 4 196 219 7 193 217 9 190 216 3 197 221 5 200 223 11 194 219 6 190 213 8 184 206 7 178 198 5 177 199 3 178 201 9 179 200 11 180 203 9 181 206 3 186 208 3 181 205 5 194 215 16 221 224 205 237 227 218 240 224 225 236 227 222 234 224 223 239 221 219 243 225 221 239 224 229 228 225 216 188 217 28 190 216 5 185 207 8 175 197 8 179 203 5 185 205 9 188 211 6 182 207 4 183 206 4 176 197 6 178 200 4 188 212 2 192 216 8 203 226 14 214 238 18 197 220 16 179 201 2 188 210 11 197 221 13 193 216 11 192 215 10 181 205 7 182 206 8 186 211 6 186 210 10 188 212 4 192 213 20 195 218 14 196 221 6 193 214 11 189 210 7 193 217 9 196 220 10 191 213 8 179 201 5 179 200 9 192 215 11 199 224 9 192 214 9 195 220 7 202 228 5 203 227 7 202 226 10 195 217 8 195 217 8 198 220 15 201 224 12 197 222 6 189 212 7 187 210 8 191 215 7 195 220 7 200 225 10 196 220 12 194 218 10 189 212 7 195 220 4 184 209 4 170 191 2 180 201 8 192 214 7 198 220 15 204 227 15 196 219 7 193 218 5 199 219 8 195 220 5 192 216 8 196 221 8 199 223 7 209 233 15 199 224 8 187 210 6 196 220 12 201 228 12 202 229 10 204 229 6 197 221 5 206 229 15 208 234 15 197 223 12 182 207 2 191 216 10 194 223 11 189 215 2 179 201 5 178 199 8 197 221 13 201 227 14 187 211 11 180 202 5 184 206 7 187 209 2 175 196 5 165 186 7 186 209 4 207 229 20 203 228 15 186 209 5 177 198 5 179 202 10 185 210 5 196 223 6 194 219 6 191 216 3 202 228 9 204 228 18 201 226 10 197 222 7 190 216 7 183 207 7 177 200 6 182 207 4 188 214 5 196 221 8 195 217 10 198 223 10 190 219 7 181 208 5 185 210 4 189 213 5 187 210 6 188 213 10 187 216 4 190 218 9 193 219 10 193 218 3 197 222 9 196 222 9 194 220 11 188 212 4 191 216 3 184 208 8 180 203 7 185 209 1 188 213 7 183 210 7 181 205 7 181 205 5 184 209 6 175 201 4 171 194 2 175 198 6 188 216 7 192 219 2 183 206 2 187 212 7 185 213 6 192 217 14 200 225 9 
191 215 7 177 204 5 169 196 7 178 201 5 190 215 9 189 215 4 193 219 6 192 216 6 190 214 4 187 212 7 183 211 5 189 217 8 191 220 8 195 222 6 189 215 4 183 207 7 184 209 4 180 204 6 181 205 5 185 210 5 185 210 5 179 203 5 180 204 4 185 210 4 182 206 8 180 204 6 199 226 10 199 224 9 195 220 7 193 218 3 191 214 9 194 220 9 191 217 6 189 214 9 186 210 10 189 213 5 185 210 4 181 208 5 190 219 7 198 223 10 195 217 10 196 221 8 188 214 5 182 207 4 177 200 6 183 207 7 190 216 7 197 222 7 201 226 10 204 228 18 202 228 9 191 216 3 194 219 6 196 223 6 185 210 5 179 202 10 177 198 5 186 209 5 203 228 15 207 229 20 186 209 4 165 186 5 175 196 5 187 209 2 184 206 7 180 202 5 187 211 11 201 227 14 197 221 13 178 199 8 179 201 5 189 215 2 196 222 11 191 216 10 182 207 2 197 223 12 208 234 15 206 229 15 199 220 5 204 229 6 202 229 10 201 228 12 196 220 12 188 211 9 198 223 7 209 233 15 199 223 7 197 222 9 192 216 8 194 219 3 199 219 10 193 218 5 196 219 7 204 227 15 198 220 13 192 214 7 180 201 8 170 190 4 184 209 4 195 220 4 189 212 7 194 218 10 196 220 12 200 225 10 195 220 7 191 215 7 187 210 8 189 212 7 197 222 6 202 225 13 198 220 15 195 217 8 194 216 7 202 226 10 204 228 8 202 228 5 195 220 7 192 214 9 199 224 9 192 215 11 179 200 9 179 201 5 191 213 8 196 221 8 193 217 7 189 210 7 193 214 11 196 221 6 195 218 14 192 213 20 188 211 6 186 210 10 186 211 6 182 206 8 181 205 7 192 215 10 193 216 11 197 221 13 188 210 11 179 201 2 198 219 16 214 238 20 204 227 13 193 215 8 189 213 3 178 200 4 176 197 6 183 206 4 183 206 4 189 212 7 185 205 9 180 204 6 176 197 8 185 207 8 189 215 4 190 213 9 185 208 6 186 211 8 185 213 6 192 221 173 240 225 220 237 224 216 234 224 223 236 225 231 237 227 218 235 226 221 228 229 224 226 227 211 182 209 6 178 204 11 178 201 9 178 201 9 177 199 3 178 198 5 184 206 7 190 213 8 194 219 6 200 223 11 197 221 5 190 216 3 193 217 9 196 219 7 191 213 4 189 212 8 188 212 12 184 212 5 183 210 7 187 212 6 191 216 3 190 213 9 191 214 10 192 216 8 184 212 5 170 194 8 177 193 8 187 208 5 192 218 7 182 209 10 
175 198 6 180 202 5 179 201 5 189 211 6 195 212 10 
199 221 25 195 219 1 187 208 7 185 210 7 185 209 9 200 222 13 208 230 7 196 216 3 176 197 6 184 211 10 193 219 6 197 223 4 189 212 8 178 202 4 188 212 4 188 211 6 182 210 3 194 221 5 200 226 5 200 225 9 198 224 3 192 216 6 191 215 7 192 216 6 195 222 6 193 216 11 189 211 4 183 206 4 179 202 6 183 207 7 192 218 9 184 212 6 182 207 4 177 208 6 186 210 10 189 210 11 184 214 6 199 223 109 234 231 226 237 226 220 235 225 226 238 223 218 238 227 225 229 229 219 233 223 222 235 226 219 194 221 168 191 217 8 196 218 11 191 213 6 182 205 3 192 216 8 200 226 7 196 221 6 181 205 7 184 206 7 194 219 4 198 223 10 199 224 11 207 232 19 201 223 14 185 205 9 173 193 7 175 196 5 189 212 8 189 212 7 182 204 7 179 201 4 182 204 5 194 218 10 196 220 12 197 221 13 196 219 5 187 210 6 182 203 10 187 208 7 191 213 6 192 215 10 191 215 7 189 213 5 183 205 8 177 199 3 179 200 7 191 214 9 199 222 8 189 211 2 190 213 8 202 225 20 196 219 7 191 213 8 191 213 6 182 203 4 186 206 11 187 209 10 189 213 3 187 210 6 188 211 7 192 216 6 196 221 8 194 218 10 194 219 3 191 215 7 184 206 9 181 203 4 182 205 9 184 208 8 195 220 7 197 220 6 197 220 8 203 227 9 200 224 8 192 213 10 183 204 5 190 213 11 184 208 8 189 212 7 204 228 12 201 226 11 200 226 5 189 215 2 192 216 6 199 224 19 204 231 14 203 228 4 200 220 7 197 220 15 190 213 8 184 207 5 186 208 9 193 217 7 194 220 7 198 223 10 191 215 5 188 210 3 197 222 7 193 219 8 175 196 3 176 197 6 179 201 4 189 210 7 180 202 5 174 196 7 197 222 7 204 228 10 196 220 12 196 221 8 195 220 7 187 212 9 192 218 9 203 231 9 202 228 9 197 222 6 195 220 7 191 214 12 189 212 8 177 199 3 171 193 6 171 193 4 184 209 6 198 225 6 202 228 9 200 227 8 195 222 6 199 225 12 189 215 6 186 211 5 191 217 6 186 211 6 188 211 7 192 218 7 192 218 7 189 215 6 190 216 7 188 211 6 193 218 5 196 221 5 190 214 6 186 209 5 192 215 10 194 219 6 191 215 5 188 211 6 189 213 5 191 217 8 186 212 1 180 208 2 182 206 8 185 210 5 192 217 11 186 211 6 195 222 5 203 231 9 196 221 8 187 212 6 195 221 8 196 223 7 202 228 7 189 212 7 179 206 7 
193 223 11 190 215 9 191 217 4 187 212 6 177 200 4 178 201 5 191 217 4 196 226 8 190 219 5 182 209 8 185 213 6 191 217 6 193 220 4 191 217 8 191 217 8 189 215 4 188 216 10 190 214 6 196 221 8 198 223 7 194 219 3 201 226 11 195 218 13 182 204 7 187 210 5 195 220 5 196 221 6 190 214 6 192 218 9 194 220 7 194 221 5 193 218 5 188 211 7 186 211 6 191 217 6 186 211 5 189 215 6 199 225 12 195 222 6 200 227 8 202 228 9 198 225 6 184 209 6 171 193 4 171 193 6 177 199 3 189 212 8 191 214 12 195 220 7 197 222 6 202 228 9 203 231 9 192 218 9 187 212 9 195 220 7 196 221 8 196 220 12 204 228 10 197 222 7 174 196 9 181 203 6 189 210 7 179 201 4 176 197 6 176 197 4 193 219 8 197 222 7 187 211 3 191 215 5 198 223 10 195 220 7 193 217 7 185 207 8 183 206 4 190 213 8 198 220 15 197 220 6 203 228 4 205 230 14 199 224 19 192 216 6 188 214 3 200 226 5 201 226 11 204 227 13 189 212 8 184 208 8 190 213 11 183 204 5 192 213 12 200 224 8 203 227 9 198 221 9 197 220 6 195 220 7 184 208 8 182 205 9 181 203 4 184 206 9 191 215 7 194 219 3 194 218 10 196 221 8 192 216 6 188 211 7 187 210 6 189 213 3 187 209 10 186 206 11 182 203 4 191 213 6 192 214 9 196 219 7 202 225 20 190 213 8 189 211 2 199 222 8 191 214 9 179 200 7 177 199 3 183 205 8 189 213 5 191 214 9 192 215 10 190 212 5 187 208 7 182 204 8 187 210 5 195 220 5 196 220 12 196 220 12 193 217 9 182 204 5 180 202 5 182 204 7 189 212 7 189 212 8 175 196 7 174 193 5 184 205 6 201 223 16 206 230 20 199 224 11 198 223 8 194 219 4 184 206 7 182 206 8 195 220 5 201 227 8 192 216 8 183 206 4 190 212 5 196 218 11 192 218 5 195 215 4 193 216 11 189 214 8 185 218 85 233 222 216 235 228 222 235 223 227 236 227 222 234 230 218 236 224 224 237 226 220 233 229 220 186 219 78 178 209 9 179 208 2 184 212 6 192 218 9 183 207 7 179 202 6 183 206 4 189 211 4 193 216 11 195 222 6 192 216 6 191 215 7 192 216 6 198 224 3 200 225 9 200 226 5 194 221 5 182 210 3 187 210 5 188 212 4 178 202 4 189 212 8 197 223 4 193 219 6 184 211 10 176 197 6 196 217 2 208 230 7 198 222 12 186 210 10 182 209 8 185 210 7 
193 219 0 194 217 12 
200 221 28 200 222 13 193 217 9 190 216 7 194 222 13 197 222 7 191 215 7 181 205 7 183 207 7 188 217 5 188 213 7 182 204 5 176 199 3 175 202 3 187 212 7 185 210 5 183 211 4 195 221 10 190 213 11 188 210 5 190 213 11 189 214 8 183 205 6 185 208 4 191 217 6 183 204 5 178 197 7 179 201 5 179 203 3 179 202 8 173 199 4 176 201 11 185 208 3 190 215 10 197 222 9 211 234 8 212 233 14 226 231 209 240 226 223 235 227 225 235 226 221 238 222 222 237 226 220 237 228 221 233 227 227 235 227 216 200 225 59 206 231 5 208 230 8 200 223 9 191 215 7 188 211 6 194 219 6 193 218 5 189 212 7 196 221 8 196 221 5 201 226 10 199 225 12 194 218 8 184 207 3 179 200 7 187 209 13 192 215 13 193 217 9 186 210 2 186 209 4 190 213 9 197 222 7 203 228 12 201 226 10 191 215 5 189 211 6 182 204 5 187 209 10 201 224 10 199 223 7 186 208 9 179 202 8 182 204 7 178 200 13 179 203 3 184 209 4 197 222 9 200 223 18 189 212 8 191 214 9 201 228 12 199 222 18 186 208 11 172 192 6 171 192 3 178 199 8 181 203 7 189 212 8 190 213 8 185 208 4 189 212 7 199 223 7 194 217 5 196 218 13 195 217 12 191 216 3 194 219 6 194 218 10 186 209 5 191 213 8 198 220 13 199 222 8 198 220 11 191 212 11 169 187 5 168 188 5 179 201 5 184 209 6 191 215 5 202 225 11 201 227 8 200 227 8 195 221 12 200 226 5 205 231 10 199 222 10 190 212 5 188 209 6 186 207 14 187 209 12 193 215 10 196 220 10 196 220 10 193 217 7 194 219 3 193 215 8 184 206 9 184 206 7 188 213 10 184 207 5 195 220 7 192 215 10 182 204 8 179 200 7 184 209 6 196 222 11 195 219 11 191 215 5 197 222 7 195 219 9 189 214 9 186 212 3 188 213 7 183 205 8 180 202 3 184 206 7 180 202 6 178 200 3 175 196 5 170 192 5 180 204 6 191 216 13 185 210 7 191 215 7 188 211 7 179 203 5 187 212 6 189 215 2 194 220 9 192 218 9 178 201 5 178 199 6 189 214 8 182 206 6 179 203 3 181 205 5 175 198 4 183 208 5 188 214 5 187 210 6 191 214 9 192 216 6 193 218 3 196 221 6 197 220 6 195 220 5 196 222 11 198 225 9 188 216 7 181 205 7 181 205 5 188 216 7 192 218 7 191 215 7 201 228 11 197 224 7 189 215 2 194 221 4 200 227 8 201 227 4 194 219 4 
182 207 4 185 215 7 188 217 5 199 226 10 198 224 11 184 208 10 176 202 7 177 204 5 188 216 7 190 219 5 182 209 6 187 215 8 189 214 9 190 216 5 196 223 6 188 213 7 188 214 3 189 218 4 193 218 13 193 218 12 190 213 8 188 211 7 192 216 6 197 222 6 190 216 5 182 206 6 189 212 7 186 209 7 175 197 8 181 208 5 181 209 3 188 213 8 190 213 9 178 200 4 178 201 5 192 218 9 194 220 9 189 215 2 187 212 6 179 203 5 188 211 7 191 215 7 185 210 7 191 216 13 180 204 6 170 192 5 175 196 5 178 200 3 180 202 6 184 206 7 180 202 3 183 205 8 188 213 7 186 212 3 189 214 9 195 219 9 197 222 7 191 215 5 195 218 13 195 221 12 184 209 6 179 200 9 182 204 8 191 214 9 195 220 7 184 207 5 188 213 10 184 206 7 184 206 9 193 215 8 194 219 3 194 218 8 196 220 10 195 219 9 192 215 10 188 208 12 187 207 14 187 210 6 190 212 5 200 223 11 205 231 10 200 226 5 194 220 11 200 227 8 200 226 7 202 226 10 191 215 5 183 208 5 179 201 5 168 188 5 169 187 5 191 212 11 198 220 11 199 222 8 198 220 13 191 213 8 186 209 5 194 218 10 194 219 6 191 216 3 195 217 12 196 218 13 194 217 5 199 223 7 189 212 7 185 208 4 190 213 8 189 212 8 181 203 7 178 199 8 171 192 3 172 192 6 186 208 11 199 222 18 201 228 12 191 214 9 189 212 8 200 223 18 197 222 9 184 209 4 179 203 3 178 200 13 182 204 7 179 202 6 185 210 7 199 223 7 201 224 10 186 208 9 181 203 6 189 210 7 193 215 6 200 225 9 203 228 12 198 223 8 190 213 9 186 209 4 186 210 2 193 217 9 192 215 13 187 209 13 178 199 6 184 207 3 194 218 8 200 225 12 201 226 10 196 221 5 196 221 8 189 212 7 192 217 4 194 219 6 188 211 6 191 215 7 200 223 9 208 230 8 209 229 10 199 225 2 200 227 10 193 218 12 183 212 6 226 226 218 236 229 219 237 226 222 237 228 219 236 226 225 240 233 225 236 234 222 233 234 220 202 222 150 184 213 7 185 210 5 176 201 11 173 199 4 179 202 8 179 203 3 179 201 5 178 197 7 183 204 5 191 217 6 185 208 4 183 205 6 189 214 8 190 213 11 188 210 5 190 213 11 195 221 10 183 211 4 185 210 5 187 212 7 175 202 3 176 199 3 182 204 5 188 213 7 188 217 5 183 207 7 182 204 7 191 213 6 196 221 5 196 222 11 
190 215 9 192 216 8 200 223 11 195 218 16 
203 225 26 188 211 9 183 208 3 187 212 6 187 212 6 181 206 1 168 193 3 177 200 4 186 210 0 186 209 5 173 193 7 168 189 6 178 202 2 174 200 5 175 202 3 188 216 9 193 222 6 194 220 7 187 211 3 183 205 6 184 207 3 191 216 13 189 215 6 189 215 4 194 217 3 192 214 9 186 209 5 186 211 8 187 212 6 184 207 5 185 208 4 197 225 3 199 223 7 199 223 7 211 230 14 205 230 14 200 223 107 229 225 214 243 226 219 236 227 218 241 222 226 238 227 221 235 223 223 241 218 228 239 226 217 194 220 181 191 217 6 197 222 7 195 218 6 191 216 10 188 211 9 176 197 4 186 211 8 199 225 2 200 221 2 189 211 4 193 218 5 196 219 14 185 210 5 178 201 5 173 193 7 178 199 6 187 210 6 188 211 7 183 203 7 188 210 5 196 217 14 197 221 13 184 206 9 183 206 2 185 208 6 182 204 5 186 207 4 182 205 11 194 219 16 200 224 6 203 224 9 188 213 10 182 205 9 195 216 13 196 219 14 191 214 9 191 214 10 195 217 10 195 217 8 201 223 16 206 228 23 197 221 11 193 216 11 184 206 7 176 197 6 191 214 9 188 211 7 182 204 7 189 212 8 189 212 10 189 212 7 194 216 11 195 218 4 201 222 7 202 222 11 200 224 6 208 232 14 198 224 5 193 215 6 194 217 5 199 222 10 198 221 9 196 218 9 184 206 7 184 206 9 174 195 6 187 207 12 191 215 7 194 219 6 199 222 8 197 219 10 199 222 8 201 226 10 199 224 9 197 224 7 200 221 6 194 213 7 193 217 7 195 221 8 190 213 8 197 220 8 196 223 4 190 214 6 185 208 4 186 209 5 186 209 4 186 208 9 175 198 4 176 199 3 178 204 7 177 198 5 184 206 9 181 203 4 179 201 5 191 217 4 201 227 16 198 223 20 188 211 6 193 218 5 202 228 7 199 224 9 186 211 8 182 206 6 184 209 6 186 209 7 189 212 7 195 219 9 183 205 6 189 212 8 190 213 8 188 211 6 193 219 6 195 220 7 187 211 1 187 210 5 181 203 4 181 203 4 179 201 5 180 204 4 187 212 7 176 199 7 172 193 2 180 204 4 190 216 7 181 205 7 177 204 5 178 205 4 175 201 8 181 205 5 185 210 7 180 204 6 179 203 5 186 209 4 190 214 6 193 217 7 196 221 6 190 216 3 193 219 6 200 226 7 192 218 5 186 212 3 192 218 5 187 212 7 188 213 7 192 216 8 187 213 0 189 214 8 184 209 4 183 208 3 200 226 7 201 227 6 193 217 7 186 211 8 
183 211 4 187 215 6 201 228 11 205 231 8 194 220 7 184 212 6 176 202 7 179 206 5 194 220 7 191 217 6 183 208 5 178 203 0 189 213 5 199 225 6 194 221 5 192 218 5 192 218 5 187 215 8 192 220 11 191 217 8 184 209 6 182 206 6 183 208 5 175 198 4 175 200 10 185 210 5 187 212 7 172 198 5 176 202 5 181 208 7 184 209 3 189 215 6 180 202 5 172 193 2 176 199 7 187 212 7 180 204 4 179 201 5 181 203 4 181 203 4 187 210 5 187 211 1 195 220 7 193 219 6 188 211 6 190 213 8 189 212 8 183 205 6 195 219 9 189 212 7 186 209 7 184 209 6 182 206 6 186 211 8 199 224 9 202 228 7 193 218 5 188 212 4 198 223 20 201 227 14 191 217 4 179 201 5 181 204 2 184 206 9 177 198 5 179 205 8 176 199 3 174 197 3 186 208 9 187 210 5 186 209 5 185 208 4 190 214 6 197 223 4 196 221 8 190 213 8 195 221 8 193 217 7 194 213 7 198 222 6 197 222 6 199 224 8 201 226 10 199 222 10 198 220 11 199 222 8 194 218 8 192 216 8 186 206 11 174 195 6 184 206 9 184 206 7 196 218 9 198 221 9 199 222 10 194 217 5 193 215 6 198 224 5 208 232 14 200 224 6 202 222 11 201 222 7 195 218 4 194 216 11 189 212 7 189 212 10 189 212 8 182 204 7 188 211 7 191 214 9 177 198 7 184 206 7 193 216 11 197 221 11 206 228 23 201 223 16 195 217 8 195 217 10 191 214 10 191 214 9 196 219 14 195 216 15 182 205 9 188 213 10 201 225 9 203 224 7 194 219 14 182 205 11 187 208 5 183 204 5 186 207 6 184 205 2 183 205 8 198 222 14 195 218 14 186 209 4 183 205 8 188 211 7 187 210 8 178 199 6 173 194 5 178 202 4 184 209 6 195 220 14 193 218 5 189 211 6 198 222 2 199 225 2 185 210 7 176 197 4 186 211 8 191 216 10 195 217 8 196 222 3 192 216 8 194 218 10 196 218 11 191 217 8 201 225 189 236 227 220 244 225 221 236 227 218 236 225 229 238 222 222 240 221 223 235 232 225 210 232 194 199 224 9 202 221 5 197 225 3 185 208 4 184 207 5 187 212 6 186 211 8 186 209 5 192 214 9 194 217 3 189 215 4 189 215 6 191 216 13 184 207 3 183 205 6 187 211 3 194 220 7 193 222 6 188 216 9 175 202 3 174 200 7 178 202 4 168 189 6 173 193 7 186 209 5 186 210 0 177 200 6 167 192 4 181 206 3 186 211 5 189 212 8 183 206 1 
189 210 7 200 220 9 
186 207 24 178 205 4 183 208 5 188 213 8 188 211 6 185 208 3 186 209 5 188 209 8 178 199 6 174 195 4 163 184 1 175 198 6 186 212 3 181 204 10 189 214 9 195 224 10 197 221 11 188 214 5 185 210 7 187 210 8 190 213 9 189 213 5 191 216 10 190 216 7 194 217 3 188 212 4 182 206 8 173 196 4 177 201 3 185 208 4 196 219 7 193 218 5 197 222 6 199 221 14 201 221 12 189 215 6 200 224 190 241 226 223 237 227 225 241 225 225 236 226 224 233 222 220 234 227 219 240 221 227 231 229 217 171 211 60 182 205 3 185 206 7 179 201 2 178 205 6 171 193 6 161 182 0 179 201 12 189 213 5 184 205 6 179 200 7 183 205 6 183 205 6 188 213 7 187 212 6 177 199 2 181 203 4 192 216 6 200 224 14 196 217 14 193 214 11 189 209 13 182 204 7 174 195 6 183 205 6 187 209 12 179 201 4 167 186 6 175 200 12 191 215 17 195 217 8 197 220 6 185 211 2 186 211 6 207 231 15 208 231 3 209 230 11 205 225 12 203 223 10 211 231 10 209 229 10 193 213 4 188 209 8 190 213 11 177 198 5 181 203 7 190 213 9 188 211 6 189 212 8 198 223 8 199 224 11 202 227 14 199 223 13 204 228 10 204 228 8 198 220 13 194 216 9 196 218 11 192 216 8 182 205 3 186 209 5 182 204 5 185 208 6 182 205 3 187 210 6 189 213 5 195 219 11 201 224 10 195 219 9 199 222 10 206 230 14 204 229 6 199 224 8 197 222 7 191 215 7 184 206 7 191 211 2 202 222 11 194 217 12 178 205 6 173 196 2 183 204 11 189 213 15 186 208 11 187 210 6 185 207 8 185 208 6 189 215 6 188 213 7 189 216 13 178 205 6 174 197 5 180 203 7 186 210 12 184 207 13 191 217 6 193 219 8 191 215 7 192 216 6 197 222 7 202 227 14 183 205 8 173 195 8 180 203 7 187 210 5 191 215 7 192 215 10 183 205 6 182 204 5 192 215 10 194 218 8 194 220 9 197 223 12 193 217 7 193 218 3 203 228 5 195 221 10 189 217 10 177 200 6 173 194 3 179 201 5 179 200 7 187 215 8 199 227 3 198 225 6 191 217 8 188 214 5 187 213 4 188 213 7 186 211 5 186 211 5 186 211 5 189 214 9 188 213 7 191 215 7 191 215 5 191 215 7 185 210 7 183 208 5 193 218 5 190 212 7 181 203 7 193 219 6 192 216 6 180 205 2 189 214 8 187 212 9 184 209 4 188 213 8 184 208 8 188 212 4 194 218 8 195 220 7 
185 210 7 180 207 6 181 210 6 189 215 6 198 223 7 204 230 9 199 227 5 182 209 6 183 207 7 196 223 7 188 213 7 187 212 9 185 208 3 181 204 2 194 218 8 194 218 8 190 215 12 187 211 11 182 206 6 179 203 3 182 207 4 177 198 5 186 209 5 200 226 7 191 217 6 189 215 6 192 221 7 193 222 6 193 219 10 188 213 7 191 216 3 196 220 10 197 224 7 199 227 3 187 215 8 179 200 7 179 201 5 173 194 3 177 200 6 189 217 10 195 221 10 203 228 5 193 218 3 193 217 7 197 223 12 194 220 9 194 218 8 192 215 10 182 204 5 183 205 6 192 215 10 191 215 7 187 210 5 180 203 7 173 195 8 183 205 8 202 227 14 197 222 7 192 216 6 191 215 7 193 219 6 191 217 6 183 206 10 186 210 12 180 203 7 174 197 5 178 205 6 189 216 13 188 213 7 189 215 6 185 208 6 185 207 8 187 210 6 186 208 11 189 213 15 183 206 12 173 196 2 180 204 6 194 217 12 202 222 11 191 211 2 183 205 6 191 215 5 197 222 9 199 224 9 204 229 6 206 230 14 199 221 12 194 218 8 201 225 9 195 219 11 189 213 5 187 210 6 182 205 3 185 208 6 182 204 5 186 209 5 182 205 3 192 216 8 196 218 11 194 216 9 198 220 13 204 228 8 204 228 10 199 223 13 202 227 14 199 224 11 197 222 7 188 211 7 188 211 6 190 213 9 181 203 7 177 198 5 190 213 11 188 209 8 193 213 4 209 229 10 211 231 10 203 223 10 205 225 12 209 230 11 208 231 3 207 231 15 186 211 6 185 210 4 197 220 6 195 217 8 191 215 15 175 200 12 168 187 7 180 202 5 186 208 11 184 206 7 175 196 7 181 203 6 189 209 13 194 215 12 196 217 14 199 223 13 192 216 6 181 203 4 177 199 3 187 212 7 187 212 6 182 207 4 183 205 8 179 200 7 184 205 6 190 214 6 179 201 12 162 183 0 170 192 5 180 204 6 178 200 1 184 207 5 183 204 5 171 196 8 179 201 5 185 209 11 195 220 93 227 227 219 242 224 220 234 224 222 236 226 224 238 223 218 242 224 222 233 226 218 232 225 219 200 221 30 197 222 6 193 218 5 196 219 7 185 208 4 177 201 3 173 196 4 182 206 8 188 212 4 194 217 3 190 216 7 191 216 10 189 213 5 190 213 9 187 210 8 185 210 7 188 214 5 197 221 11 194 223 9 189 214 9 181 204 10 186 212 3 175 198 6 163 184 1 174 195 4 178 199 8 185 210 7 185 210 5 184 209 4 189 213 5 
187 212 6 184 209 4 180 204 4 182 202 6 
186 213 24 185 210 7 179 202 6 183 210 7 184 209 4 179 200 7 177 198 5 169 194 4 174 200 7 185 210 5 184 212 5 189 217 8 195 218 14 192 215 11 194 218 8 187 210 6 188 211 6 190 214 6 188 214 3 191 215 5 192 214 7 186 207 4 186 209 7 179 203 3 174 200 3 185 209 9 186 209 7 177 198 5 183 207 9 185 210 5 183 208 5 182 206 8 185 210 5 181 201 5 181 206 1 192 214 25 224 221 212 242 222 223 233 225 223 237 225 229 234 227 217 242 223 225 230 228 216 239 223 226 198 222 186 174 202 3 187 210 5 176 205 3 177 198 5 185 210 5 179 202 6 177 200 4 181 205 7 186 211 5 184 208 10 178 205 6 180 202 6 188 211 6 189 212 8 189 214 8 184 209 6 182 204 8 188 211 9 189 212 8 187 208 7 187 210 6 180 201 8 178 199 6 183 206 4 185 209 9 187 212 7 176 199 5 176 198 9 181 207 10 181 205 7 188 209 6 192 214 5 188 213 8 191 216 11 200 223 11 201 223 16 194 216 7 193 215 6 198 219 16 200 222 15 194 216 11 184 205 4 181 203 7 176 197 4 176 198 2 186 208 9 183 205 8 184 206 7 189 212 8 193 216 12 202 226 16 194 220 11 189 212 10 188 211 7 185 208 6 184 207 3 182 205 1 189 212 8 189 212 7 182 209 6 182 206 8 178 201 7 182 207 4 186 209 5 187 210 6 188 211 7 196 218 11 196 221 8 193 217 9 190 214 6 198 220 11 194 219 6 189 213 5 195 218 13 188 212 4 189 211 6 201 225 5 192 215 10 177 198 9 178 201 5 180 205 2 181 206 3 188 213 7 194 217 12 191 214 9 188 212 4 194 218 8 192 218 9 186 211 5 186 211 6 184 209 6 182 207 4 186 214 7 191 216 10 193 220 3 198 223 8 193 217 9 195 219 11 190 213 8 193 218 5 196 219 14 182 204 5 186 209 7 186 211 6 185 207 8 185 208 3 189 214 1 194 219 6 193 217 7 188 211 6 181 206 3 189 214 11 190 215 10 187 212 6 188 211 6 193 220 4 194 221 4 192 218 9 183 207 9 176 199 7 179 203 3 191 217 4 198 224 13 198 225 9 188 213 7 186 209 5 188 212 4 193 217 9 189 215 6 184 209 4 182 206 8 184 209 6 187 213 4 188 213 7 191 215 7 194 219 6 194 220 9 187 213 2 183 208 5 189 213 3 196 219 5 187 212 9 184 212 5 189 213 5 182 206 8 181 208 5 186 212 3 186 211 8 180 203 7 181 204 8 181 206 3 187 211 3 195 222 6 189 214 8 185 214 2 
187 216 2 192 218 7 189 213 5 194 219 4 200 225 9 182 206 6 180 203 7 195 221 12 192 215 10 187 211 3 184 207 2 184 207 5 190 214 4 197 222 7 196 220 10 192 216 6 188 213 7 187 213 2 186 211 6 187 210 5 190 214 4 196 220 12 194 217 12 189 212 7 187 212 7 189 215 6 197 222 6 198 220 11 188 210 5 183 206 4 189 215 4 197 223 10 198 224 13 191 217 4 179 203 3 176 199 7 183 207 9 192 218 9 194 221 4 193 220 4 188 211 6 187 212 6 190 215 10 189 214 11 181 206 3 188 211 6 193 217 7 194 219 6 189 214 1 185 208 3 185 207 8 186 211 6 186 209 7 182 204 5 196 219 14 193 218 5 190 213 8 195 219 11 193 216 11 198 223 10 193 220 4 191 216 10 186 214 7 182 206 6 184 209 6 186 211 6 186 211 5 192 218 9 194 218 8 188 212 4 191 214 9 194 217 12 188 213 7 181 206 3 180 205 2 178 201 5 177 198 9 193 215 10 201 225 5 189 211 6 188 212 4 195 218 13 190 213 8 194 219 6 198 220 11 191 214 9 192 216 8 196 221 8 196 218 11 187 210 6 187 210 5 186 209 5 182 207 4 178 201 7 182 206 8 182 209 6 189 212 7 189 212 8 182 205 1 184 207 3 185 208 6 188 211 7 189 211 12 194 220 11 202 226 16 193 216 12 188 211 7 184 206 7 183 205 8 186 208 9 176 198 2 176 197 4 181 203 7 184 205 4 194 216 11 200 222 15 198 219 16 193 215 6 194 216 7 201 223 16 201 224 10 192 217 11 189 212 8 191 213 4 187 208 5 181 204 8 181 207 10 176 198 11 176 199 5 188 213 8 185 209 9 183 206 4 178 199 6 180 201 8 186 209 5 186 209 7 189 212 8 188 211 7 182 204 8 185 208 6 189 214 8 188 213 8 186 211 5 180 202 6 179 203 5 184 208 10 186 211 5 181 205 7 176 199 3 180 203 7 185 210 5 177 198 5 181 203 6 187 211 3 175 198 4 172 194 5 185 208 6 188 212 14 224 227 218 235 226 217 242 224 222 236 227 220 239 229 227 233 232 214 239 223 226 239 225 225 180 215 95 186 207 6 182 206 8 183 208 5 185 210 5 183 207 9 177 198 5 186 209 7 185 209 9 174 200 3 179 203 3 186 209 7 186 207 4 192 214 7 191 215 5 188 214 3 190 214 6 188 211 6 187 210 6 194 218 8 192 215 11 195 218 14 189 217 8 184 212 5 185 210 5 175 201 8 169 195 2 178 200 4 179 200 7 184 209 3 183 211 5 178 204 7 186 210 10 
183 208 5 
182 206 22 173 200 1 178 205 6 177 205 6 180 207 4 174 197 5 167 191 7 163 191 8 174 202 3 186 211 8 189 214 8 178 205 4 177 200 8 175 198 2 176 199 3 178 201 7 188 213 10 187 212 7 186 211 5 189 214 8 183 206 2 173 196 0 170 192 5 167 188 7 175 202 9 182 205 9 179 200 7 179 202 8 177 201 1 176 199 5 177 200 6 180 203 7 178 202 4 180 207 6 185 212 9 184 214 84 239 230 225 237 225 225 237 226 220 236 224 224 240 225 220 239 223 224 235 225 215 238 225 217 189 215 62 186 216 8 189 214 8 194 213 9 191 217 8 186 211 5 180 204 4 191 217 6 190 216 5 185 210 5 184 211 8 188 215 12 193 217 17 184 209 3 184 208 8 191 216 11 184 210 1 186 211 6 182 206 8 174 195 4 179 202 6 190 216 7 183 207 7 184 209 4 186 210 10 184 208 10 182 207 4 177 200 4 178 201 5 183 208 5 190 216 7 195 219 9 190 213 8 188 212 12 186 211 6 192 216 8 191 215 15 185 209 9 181 205 7 180 203 7 183 208 5 186 211 5 182 206 6 174 201 2 183 205 6 190 214 6 188 211 7 183 205 6 180 202 6 180 202 5 185 208 6 195 220 4 188 212 4 177 198 5 178 202 4 183 207 7 184 208 10 186 209 5 189 212 7 183 205 8 185 210 7 179 203 5 182 207 4 192 218 7 195 220 5 198 223 8 197 221 11 192 214 7 193 216 11 192 215 10 186 209 5 185 208 4 186 209 7 187 212 6 185 210 7 188 211 9 192 214 9 190 215 10 174 196 7 181 202 11 192 214 15 190 215 10 193 219 6 194 219 4 195 219 9 194 218 8 194 219 4 191 217 6 182 206 6 185 210 7 186 212 3 185 208 4 181 203 4 183 208 5 194 220 7 202 227 11 200 226 5 197 222 9 197 223 4 190 214 4 186 209 7 190 213 8 197 221 11 196 221 6 191 215 7 188 211 7 193 218 3 203 229 8 203 229 6 191 215 7 186 211 8 189 214 8 185 210 4 180 204 4 178 202 4 189 212 10 179 206 7 187 212 7 196 221 6 190 216 7 180 207 4 185 213 4 195 222 6 197 223 2 191 220 6 185 210 5 184 207 2 192 217 4 196 220 10 189 215 6 184 209 3 182 206 6 182 204 7 181 206 3 177 203 6 181 206 3 184 207 2 184 209 6 188 213 8 185 208 6 186 209 5 183 208 5 184 209 4 183 210 9 183 207 7 186 211 6 192 218 7 194 221 5 194 220 7 185 210 5 183 208 5 178 202 2 183 207 9 178 202 4 177 200 4 180 207 6 
187 212 7 188 213 7 191 216 10 190 214 6 190 214 4 190 216 5 187 213 4 187 215 8 197 224 7 185 210 4 179 203 5 180 205 2 186 211 5 192 218 5 192 219 3 188 212 4 185 210 4 190 216 3 183 207 7 184 208 8 179 203 3 184 207 11 192 218 7 185 210 4 184 209 4 185 208 6 193 218 5 201 227 6 194 218 8 184 206 7 184 209 3 193 219 6 197 223 2 195 222 6 185 213 4 180 207 4 190 216 7 196 221 6 187 212 7 179 206 7 189 212 10 178 202 4 180 204 4 185 210 4 189 214 8 186 211 8 191 215 7 203 229 6 203 229 8 193 218 3 188 211 7 191 215 7 196 221 6 197 221 11 190 213 8 186 209 7 190 214 4 197 222 6 197 222 9 200 226 5 201 226 10 194 220 7 183 208 5 181 203 4 185 208 4 186 212 3 185 210 7 182 206 6 191 217 6 195 220 5 194 218 8 195 219 9 193 218 3 193 219 6 191 214 10 192 214 15 181 202 11 174 196 7 191 214 10 191 214 9 187 210 8 185 210 7 187 212 6 186 209 7 185 208 4 186 209 5 192 216 8 193 216 11 192 214 7 197 221 11 198 223 8 195 220 5 192 218 7 182 207 4 179 203 5 185 210 7 183 205 8 189 212 7 186 209 5 184 208 10 183 207 7 178 202 4 177 198 5 188 212 4 195 220 4 185 208 6 181 203 6 181 203 7 182 204 5 188 211 7 190 214 6 183 205 6 174 201 2 182 206 6 186 211 5 183 208 5 180 203 7 181 205 7 185 209 9 191 215 15 192 216 8 186 211 8 187 211 11 189 212 7 195 219 9 190 216 7 183 208 3 178 202 4 177 200 4 181 206 3 184 208 10 186 210 10 184 209 4 183 207 7 191 217 8 179 202 6 173 196 4 182 206 8 185 210 7 183 209 0 191 216 11 184 208 8 183 208 3 193 218 15 188 215 12 184 211 8 184 209 4 190 216 5 190 216 5 181 205 5 185 210 4 191 217 8 190 215 10 190 213 8 187 215 6 188 211 6 185 206 5 179 207 8 211 223 199 234 227 221 243 223 222 234 224 225 236 226 225 235 228 220 241 222 224 228 228 220 192 221 167 173 204 2 180 203 7 177 200 6 176 199 5 177 201 1 179 202 8 179 200 7 182 205 9 175 202 9 167 188 7 170 192 5 173 196 0 183 206 2 189 214 8 186 211 5 187 212 7 188 213 10 178 201 7 176 199 3 175 198 2 177 200 8 178 205 4 189 214 8 186 211 8 174 202 3 166 192 7 169 191 5 175 198 4 180 205 2 178 204 7 179 203 5 176 200 2 178 201 5 
178 201 23 176 202 5 184 212 6 183 211 5 188 213 7 180 204 6 174 200 3 177 206 2 186 216 6 191 214 9 183 206 4 172 198 3 170 196 3 164 190 5 169 196 3 177 203 6 177 205 6 180 207 6 184 209 6 178 202 2 174 200 7 175 201 8 176 202 5 181 208 5 188 211 6 174 197 5 169 191 4 173 198 8 178 201 5 178 201 5 180 204 4 182 210 4 185 208 6 182 210 4 183 208 5 176 219 139 231 226 230 241 224 216 234 225 226 242 224 220 236 226 224 237 225 225 241 226 223 219 223 206 190 216 7 187 212 7 185 210 7 181 207 10 185 213 6 183 208 3 184 208 10 190 216 7 190 215 2 189 212 8 193 219 10 196 220 10 192 218 9 188 213 7 187 212 6 187 212 6 189 214 8 189 214 9 180 204 6 181 203 4 183 211 4 187 215 9 185 213 7 181 205 7 172 194 7 180 203 7 182 205 11 177 200 6 180 207 6 187 212 6 197 222 9 190 213 9 180 203 7 181 204 8 174 197 5 172 194 7 176 197 4 172 195 1 180 203 9 180 203 9 176 199 5 176 199 5 169 191 5 170 195 7 189 214 9 188 213 8 184 208 8 188 213 7 186 209 5 182 204 8 193 217 7 198 223 10 185 208 6 181 203 4 185 207 10 183 207 9 181 203 4 191 215 7 189 211 6 188 210 5 192 214 5 191 212 11 190 213 8 191 214 9 186 211 6 183 207 7 187 210 6 188 212 4 196 221 8 192 216 8 190 214 6 194 217 12 191 215 7 183 208 3 181 206 3 186 208 9 189 212 7 184 207 11 179 206 7 185 210 4 188 211 6 196 218 9 193 217 7 185 207 10 191 215 7 194 218 8 192 218 5 186 211 6 179 206 7 181 209 3 188 214 5 188 211 7 190 213 8 191 215 7 196 221 8 192 215 10 193 215 6 197 222 7 192 216 8 186 209 5 182 204 5 189 212 7 191 215 7 192 215 10 189 212 10 191 215 7 201 227 8 203 229 10 193 219 8 177 201 3 181 205 5 190 216 3 186 214 7 177 200 4 185 210 7 190 216 7 195 222 5 205 231 10 203 229 8 194 219 4 192 218 7 193 219 8 190 214 6 193 218 5 192 223 6 185 213 6 186 209 5 191 214 9 185 208 6 183 207 9 181 205 5 180 204 4 179 201 4 174 200 5 171 196 6 176 199 5 181 205 5 174 201 2 175 202 3 186 209 5 180 204 4 177 204 5 184 212 6 179 207 1 180 207 4 181 205 7 185 208 6 188 213 7 187 213 2 182 207 4 174 197 5 170 192 6 172 194 7 175 198 4 179 206 5 181 208 7 187 212 6 
180 205 2 181 204 8 185 207 8 180 202 3 189 215 6 187 215 6 181 211 3 184 209 3 184 212 6 180 207 8 182 209 8 184 211 10 190 216 7 191 217 6 193 219 10 188 214 5 185 210 4 184 209 4 183 208 5 178 201 5 176 199 3 182 207 4 184 207 5 185 207 8 181 203 4 182 206 8 190 216 5 194 220 7 186 211 6 187 212 7 195 222 3 193 218 5 190 214 6 193 219 8 192 218 7 194 219 4 203 229 8 205 231 10 195 222 5 190 216 7 185 210 7 177 200 4 186 214 7 190 216 3 181 205 5 177 201 3 193 219 8 203 229 10 201 227 8 191 215 7 189 212 10 192 215 10 191 215 7 189 212 7 182 204 5 185 208 4 192 216 8 197 222 7 194 216 7 192 215 10 196 221 8 191 215 5 190 213 8 188 211 7 188 214 5 181 209 3 178 205 6 186 211 6 192 218 5 194 218 8 191 215 7 186 208 11 193 217 7 195 219 9 189 211 6 186 209 4 179 206 7 182 208 11 188 211 6 186 208 9 181 206 1 183 208 2 192 215 10 194 217 12 190 214 4 193 217 7 196 220 10 188 212 4 187 210 6 183 208 5 186 211 6 191 214 9 190 213 8 191 212 11 192 215 3 188 210 5 189 211 6 191 215 7 181 203 4 183 207 9 185 207 10 181 203 4 185 208 6 198 223 10 193 217 7 182 204 8 186 209 5 188 213 7 184 208 8 189 214 9 189 214 9 170 195 7 169 191 5 176 199 5 176 199 5 180 203 9 180 203 9 172 195 1 176 197 4 172 194 7 175 198 6 182 205 9 181 203 7 190 213 9 196 222 11 187 212 6 182 206 6 178 201 7 182 205 11 179 202 6 172 194 7 181 205 7 187 212 7 188 213 8 185 210 4 179 206 5 180 204 4 189 214 9 189 214 9 187 212 6 187 213 4 189 214 8 192 218 9 195 221 10 192 218 9 189 212 8 190 215 2 191 217 8 182 209 10 183 208 3 184 214 6 182 206 8 184 211 10 187 212 9 190 216 5 189 218 6 175 207 2 189 225 164 242 223 227 233 226 218 239 226 220 234 224 225 243 223 224 231 226 222 242 224 220 219 222 203 183 211 4 182 210 4 180 204 4 178 201 5 178 201 5 173 198 8 169 191 4 174 197 5 188 211 6 181 208 5 176 202 5 175 201 8 174 200 7 178 202 2 184 209 6 180 207 6 177 205 6 176 202 5 169 196 3 164 190 5 170 196 3 172 198 3 183 206 4 191 214 9 186 216 8 177 206 2 174 200 5 179 203 5 188 213 7 185 209 9 184 213 7 176 203 2 176 197 8 
181 207 20 173 198 8 173 201 5 179 208 6 188 210 11 186 209 4 184 212 3 187 213 4 188 214 3 182 207 4 173 199 4 172 194 5 174 200 5 175 201 4 177 203 6 180 207 4 183 211 4 190 216 5 185 210 4 177 201 3 184 208 8 183 207 9 184 209 4 183 211 5 176 202 9 176 199 5 178 203 0 190 215 10 190 216 5 196 221 6 190 214 4 188 214 5 183 211 5 184 207 3 182 210 1 195 219 183 237 227 226 239 224 227 241 222 224 235 224 218 236 226 224 237 223 220 236 227 222 196 223 170 171 202 3 178 202 4 176 203 4 181 205 7 184 210 13 186 214 8 191 216 10 194 219 16 190 215 10 183 208 2 180 203 7 184 205 12 188 211 6 182 207 1 186 211 8 183 208 5 180 204 6 174 196 7 176 199 5 181 205 5 175 198 2 168 190 3 172 194 7 173 195 8 177 198 7 188 211 9 190 213 8 189 212 8 186 211 6 189 213 15 191 214 10 189 211 6 188 209 6 186 208 9 174 200 5 167 192 4 172 198 5 169 194 4 166 191 1 171 196 6 174 200 5 170 192 6 169 191 2 181 206 3 195 221 12 197 220 15 186 207 8 175 196 5 178 200 4 192 218 9 197 221 11 189 213 5 184 209 3 185 210 5 186 211 8 187 212 6 196 220 10 198 220 11 192 215 10 189 215 6 192 217 4 188 211 7 189 212 8 184 207 5 177 201 3 178 201 5 185 209 9 195 218 13 190 214 6 184 207 2 188 211 9 187 211 3 195 217 12 194 216 11 197 222 7 194 221 5 185 207 8 187 209 10 189 213 5 187 213 2 192 218 9 191 217 8 182 207 2 182 206 6 194 220 9 193 219 8 197 222 9 194 218 8 191 217 8 192 218 9 190 213 9 194 216 9 196 220 10 203 228 13 196 222 9 187 213 4 189 212 8 187 210 6 185 208 6 180 202 3 185 208 4 188 211 7 187 212 6 191 217 8 194 218 8 200 225 9 206 232 13 192 218 7 183 208 3 184 209 6 183 211 5 179 206 5 179 203 5 191 214 9 198 223 7 189 218 4 189 217 11 192 220 14 191 217 6 189 214 8 191 215 7 189 213 5 190 216 7 192 218 7 188 213 7 179 202 6 182 207 4 186 212 3 183 207 7 179 203 5 188 211 7 186 209 5 185 208 3 184 206 7 178 201 5 179 206 5 181 210 8 180 207 8 183 211 5 187 216 4 180 207 6 182 206 8 183 207 9 183 208 3 178 205 4 180 207 8 187 212 7 185 210 7 177 204 3 178 204 7 179 203 5 179 203 5 170 196 3 174 202 4 183 210 7 182 207 4 
181 205 7 183 206 10 175 201 4 181 208 7 193 219 6 193 218 5 194 221 5 195 222 6 189 215 6 178 202 2 171 197 4 176 202 7 175 201 4 186 211 6 187 210 5 189 212 7 199 224 8 193 218 5 191 215 5 183 208 3 176 203 4 180 207 6 187 212 6 192 216 6 198 222 6 191 213 8 184 207 3 186 211 5 184 209 4 181 205 5 180 204 6 186 214 7 193 219 8 190 215 9 189 215 6 191 215 7 189 214 9 191 217 4 192 220 14 188 216 9 191 217 4 197 224 7 191 216 10 180 204 6 179 206 5 182 210 4 184 209 6 184 207 5 192 218 5 207 233 14 200 225 10 193 217 7 191 217 6 186 211 5 188 211 9 185 208 4 181 203 4 184 207 5 187 210 6 189 212 8 188 212 4 197 222 9 203 228 15 197 219 10 194 216 11 191 215 7 191 217 6 192 218 9 194 218 8 197 222 7 194 220 9 194 220 11 183 207 7 183 205 6 191 214 9 193 217 9 189 213 3 189 213 3 187 210 8 185 207 10 193 220 3 197 222 9 194 216 9 194 216 11 187 210 6 187 212 7 184 207 2 191 213 6 195 219 11 186 209 13 178 201 5 179 201 5 184 207 5 189 213 5 189 212 8 191 217 6 190 213 8 191 214 10 197 221 13 196 221 8 187 213 4 185 210 7 185 210 7 185 210 5 189 213 5 197 221 11 193 217 9 178 200 4 175 196 3 185 207 8 197 220 18 197 221 11 181 206 3 169 191 4 170 192 6 176 199 3 170 195 7 166 191 1 170 196 3 173 199 6 167 191 5 176 199 5 186 209 7 187 210 8 189 212 7 191 214 10 189 213 13 184 212 5 188 211 6 190 214 6 188 211 9 178 199 8 173 194 5 172 194 7 169 191 4 176 199 3 181 203 4 176 199 7 174 196 9 180 204 6 183 208 3 187 212 9 182 207 1 188 212 4 183 205 9 179 203 3 183 208 5 190 216 7 194 219 13 191 216 13 188 213 8 184 210 13 179 206 5 178 201 5 179 202 6 176 202 5 181 203 4 188 214 5 186 216 84 235 228 222 234 224 222 242 225 218 234 222 224 238 224 221 236 227 222 235 225 223 226 226 216 185 214 38 188 212 2 189 214 8 197 222 7 190 216 5 187 215 6 180 204 4 175 201 8 176 202 5 185 210 5 182 209 6 183 207 9 184 208 8 174 201 2 185 210 4 192 216 6 184 212 6 181 208 7 179 203 5 177 200 4 174 200 7 170 195 5 175 198 4 181 206 1 188 214 3 186 214 5 186 211 5 185 208 4 187 211 11 179 207 8 173 201 3 173 199 6 178 201 5 
178 204 19 177 200 4 176 203 4 179 206 5 181 206 3 186 211 5 183 208 5 186 209 7 187 212 9 180 204 6 172 194 7 172 194 5 177 203 8 178 204 7 176 203 2 174 200 7 180 208 2 189 214 8 182 207 4 174 196 7 175 201 6 181 206 3 175 198 2 169 194 4 176 199 5 179 202 8 180 203 7 178 201 7 185 207 8 190 213 8 189 212 8 187 212 6 188 213 8 186 209 5 185 215 5 208 223 194 236 227 222 237 227 218 240 227 221 236 224 226 242 224 220 236 227 222 235 228 220 177 215 132 179 206 5 179 203 5 177 200 6 184 211 8 186 211 6 181 203 7 181 202 9 184 208 8 180 208 2 179 203 5 177 200 8 177 200 4 187 209 10 187 212 7 179 202 6 171 193 7 179 203 5 184 209 4 186 210 12 185 209 9 185 209 11 186 211 6 181 206 1 188 214 5 192 218 7 192 218 9 192 216 6 184 207 2 179 206 3 189 218 4 189 215 6 184 209 6 187 210 5 184 207 3 183 206 4 192 216 6 187 212 6 182 205 9 178 201 5 182 207 2 189 214 9 183 205 8 183 207 7 186 211 6 189 213 5 190 216 3 187 212 9 185 207 8 193 217 9 195 219 11 192 215 10 187 212 9 189 212 7 196 220 10 188 213 7 191 215 5 194 218 10 186 209 7 185 208 4 182 206 6 173 196 2 178 200 3 185 208 4 182 205 3 184 206 7 190 213 8 194 219 6 199 224 9 190 214 6 188 210 11 184 207 3 192 217 4 202 225 11 204 228 12 196 221 8 186 209 5 189 213 3 194 218 8 190 214 4 189 212 7 192 215 10 191 214 9 182 205 3 186 209 7 188 211 7 186 211 5 184 209 6 190 214 4 204 230 9 199 224 8 190 214 4 189 212 7 192 215 10 198 223 7 197 222 6 192 216 6 190 214 6 190 213 9 183 205 6 182 207 4 190 213 9 189 212 7 187 212 7 190 215 9 192 218 5 191 217 6 186 211 6 185 210 4 183 208 5 191 215 7 185 208 4 180 204 4 182 206 8 186 211 5 187 210 5 185 208 3 183 207 7 184 209 6 187 210 8 184 207 5 187 210 5 192 216 8 197 222 7 196 221 6 187 212 6 184 209 4 183 207 7 183 207 7 186 211 6 185 210 5 187 212 7 191 217 8 193 217 9 187 210 6 179 202 6 176 202 5 177 204 3 186 211 8 183 208 5 179 206 7 176 202 9 171 196 6 169 195 2 173 199 2 183 207 9 189 214 8 193 219 6 195 225 7 194 220 9 189 215 6 190 216 5 188 213 7 180 207 8 183 210 7 187 216 4 189 215 4 186 211 5 
185 209 9 177 204 5 181 208 5 197 223 10 189 213 5 191 217 6 203 231 7 203 229 8 188 212 4 179 202 6 175 199 1 181 205 7 184 209 6 184 207 5 189 212 8 194 218 8 197 222 9 196 220 10 187 212 6 183 210 7 179 206 5 187 213 4 201 226 10 198 223 7 191 215 5 190 214 4 188 213 7 182 206 6 182 206 8 184 211 8 186 215 3 196 221 8 197 222 7 193 216 11 187 210 5 184 206 7 186 209 7 184 209 4 184 208 8 184 209 3 185 210 4 187 210 5 182 206 8 180 204 4 184 209 4 190 215 9 185 207 8 186 209 7 187 210 6 191 217 6 191 217 4 189 214 8 188 213 7 188 213 7 188 213 7 182 207 4 183 205 6 189 212 8 191 215 7 192 217 4 196 221 5 199 224 8 192 215 11 189 212 7 188 212 4 199 225 6 204 230 9 188 214 5 186 211 8 185 210 4 189 212 10 184 209 6 180 205 2 191 214 9 192 215 10 188 211 6 191 215 5 193 217 9 188 212 2 186 209 5 197 221 5 204 228 10 202 225 11 192 217 4 183 209 0 188 211 7 190 213 8 199 224 8 194 218 10 190 213 8 184 206 7 182 205 3 186 209 4 179 201 4 174 197 3 182 206 6 186 209 5 186 208 9 194 218 8 192 216 8 189 213 5 195 219 11 190 213 8 188 211 9 192 215 10 195 219 9 193 216 11 185 207 8 188 211 7 189 215 4 189 215 6 186 211 8 183 205 6 182 204 8 190 213 11 183 208 3 178 201 5 181 204 10 187 212 7 192 216 8 182 204 5 184 207 5 188 211 7 185 208 6 189 215 6 190 216 3 182 207 4 183 208 3 190 216 7 192 218 9 192 218 5 187 213 4 182 207 4 185 210 7 185 208 14 185 210 5 186 210 12 184 209 4 179 203 5 171 193 6 179 202 6 187 212 7 187 209 12 177 200 4 177 200 8 179 202 8 182 207 4 185 209 9 181 204 12 181 205 7 186 212 3 189 212 10 176 199 3 176 203 0 178 206 10 173 200 1 187 210 8 188 214 29 227 224 215 238 224 223 240 224 224 240 224 225 234 227 217 237 223 223 236 224 228 237 225 225 188 220 97 184 212 5 188 213 10 189 212 7 184 208 8 180 203 11 181 203 7 178 201 7 177 200 8 171 193 4 173 200 1 181 206 3 177 200 6 172 197 7 182 207 2 190 216 7 180 208 2 175 201 8 178 202 4 180 203 7 177 203 10 172 194 5 172 195 3 181 203 6 186 211 6 187 210 8 183 207 7 185 210 5 183 206 4 182 206 8 176 203 2 177 201 3 176 197 4 
184 208 22 180 203 9 181 205 7 171 197 2 165 189 3 182 209 10 193 219 8 194 217 5 179 206 5 176 200 2 175 198 4 182 210 4 188 216 9 185 209 11 180 204 4 179 206 5 181 205 5 179 202 6 179 202 8 176 199 3 172 198 3 182 206 8 185 210 7 185 210 5 184 209 4 182 207 2 190 215 9 193 219 10 188 211 6 180 202 3 184 206 10 176 199 3 178 201 5 176 199 7 177 205 6 220 223 206 234 225 218 237 226 220 235 224 218 237 225 229 240 225 222 236 225 223 237 228 219 181 216 96 191 215 5 181 203 4 183 207 7 193 219 6 178 201 5 166 188 2 175 197 8 185 209 9 190 215 9 195 220 14 184 209 4 190 216 7 194 218 8 190 215 9 184 209 4 185 210 7 189 214 9 184 209 6 183 206 10 185 209 11 187 212 9 185 210 7 179 202 6 188 211 15 193 219 10 187 212 6 179 202 8 176 199 5 183 210 9 190 218 9 190 215 9 189 215 4 195 220 5 192 217 4 194 217 3 198 222 6 188 214 5 179 203 5 183 207 9 190 213 8 194 217 13 191 214 9 194 218 10 194 220 11 182 206 6 178 202 2 182 206 8 185 210 7 190 214 6 187 210 5 180 203 1 181 204 8 185 208 6 189 212 7 182 204 5 188 211 7 191 215 5 187 210 5 184 209 4 180 204 6 176 199 5 182 206 6 194 218 10 187 210 8 186 208 11 189 212 8 192 216 8 190 212 3 186 208 9 183 205 6 183 205 9 186 209 5 194 217 5 195 218 4 193 216 4 192 215 10 187 210 6 186 209 5 189 211 12 184 206 9 190 213 11 188 211 6 187 210 6 188 212 4 183 205 6 182 206 6 191 216 10 199 226 9 198 221 7 192 214 5 197 222 9 192 218 7 186 210 2 187 211 3 189 212 8 187 210 6 183 206 2 180 203 7 175 197 8 183 206 10 183 207 9 185 210 7 181 206 3 173 196 2 176 198 9 175 198 6 183 207 7 191 215 5 193 217 7 190 215 9 178 201 7 185 209 9 195 218 13 195 220 7 190 213 8 191 215 7 194 221 4 190 216 5 190 216 7 190 216 5 190 215 9 180 203 7 186 211 6 187 213 4 180 205 2 181 205 7 183 208 5 188 213 8 184 209 4 183 208 2 189 215 6 186 211 6 182 206 6 187 210 6 183 208 5 180 207 4 181 208 5 179 203 3 182 207 4 180 207 6 173 199 2 173 199 4 176 203 2 179 203 5 182 204 7 188 211 6 191 215 7 191 217 6 188 210 5 181 205 5 183 210 7 188 214 5 186 211 5 185 210 4 182 210 3 189 217 8 
197 223 4 190 216 5 185 213 6 182 209 6 196 223 7 193 218 3 189 212 7 196 221 6 199 225 4 196 221 6 189 212 7 184 209 4 183 207 7 187 212 9 186 211 8 183 208 3 189 213 5 189 213 5 190 214 6 191 217 8 185 210 7 180 207 6 182 207 2 182 207 4 191 217 6 191 217 8 183 208 3 185 210 5 188 213 8 181 205 5 179 206 7 178 205 6 186 212 3 187 212 7 179 202 8 190 215 9 191 217 6 190 215 9 190 216 5 194 221 5 191 215 7 191 214 9 194 219 6 195 218 13 185 209 9 178 201 7 192 215 10 192 216 6 191 215 5 182 207 4 175 198 2 176 198 9 173 196 4 181 205 5 185 210 7 183 206 10 184 207 11 175 197 8 181 203 7 183 206 2 187 210 6 189 212 8 187 211 3 186 210 2 192 218 7 198 223 7 192 215 3 198 221 7 199 226 7 191 217 8 183 207 7 183 206 4 188 212 4 186 209 4 188 211 6 189 212 10 185 207 8 188 210 11 186 208 9 188 211 7 193 215 10 193 216 4 196 219 5 194 216 7 185 208 4 183 205 8 183 205 9 186 209 7 190 212 3 191 215 7 189 212 7 185 207 10 186 209 7 194 218 10 182 206 6 176 199 5 181 205 5 183 208 3 187 210 5 191 215 5 188 211 7 183 205 6 190 213 8 184 207 5 181 203 7 180 203 1 188 212 4 190 214 6 185 209 9 182 206 6 178 202 2 182 206 8 194 220 11 194 218 8 191 214 9 193 216 12 190 214 6 185 207 8 179 203 5 189 213 3 196 221 8 193 218 5 191 216 3 196 221 5 191 215 5 189 214 9 192 217 11 185 209 9 176 199 3 180 203 7 187 212 6 192 218 9 187 210 14 179 202 6 184 209 4 187 212 7 186 210 10 183 207 9 183 208 3 189 214 8 184 209 6 183 208 5 189 214 9 194 218 8 190 214 6 184 209 3 195 220 14 191 216 10 186 210 10 176 198 9 166 188 2 178 201 7 193 217 9 185 208 4 180 204 6 188 214 3 182 207 2 178 200 1 187 212 7 208 223 194 240 224 225 239 223 224 241 223 223 232 229 220 235 225 226 236 225 219 239 223 226 206 221 190 175 203 4 183 205 8 182 203 4 187 213 2 193 219 6 190 213 8 182 207 4 182 209 8 186 211 6 186 211 6 182 206 8 174 197 3 174 201 2 179 202 6 180 202 5 180 207 6 180 207 4 181 205 5 185 210 7 190 216 7 184 209 6 176 197 6 177 198 5 181 205 5 194 217 5 192 218 7 180 208 9 165 189 3 173 196 4 179 206 7 178 204 7 181 203 7 
189 214 24 178 201 7 174 197 5 165 190 2 164 188 4 178 204 9 182 205 9 174 193 5 164 188 4 173 196 2 179 203 5 185 212 13 190 218 9 187 211 3 179 201 5 180 207 8 187 212 7 189 213 3 188 211 9 182 207 2 185 210 5 185 210 7 181 203 4 185 208 6 184 208 10 184 208 8 188 214 5 189 215 4 191 214 9 190 213 8 185 209 9 175 198 4 174 197 5 180 207 8 183 211 15 230 226 215 232 224 221 237 226 222 232 225 215 237 225 227 240 226 223 233 223 222 235 224 218 179 215 65 185 208 4 184 209 6 186 211 6 176 202 7 171 193 6 163 186 7 174 199 11 184 208 8 182 207 2 186 211 5 183 208 2 191 215 7 195 219 9 181 205 5 177 200 8 181 205 7 182 206 6 185 210 5 187 212 6 183 208 5 185 210 4 175 198 2 174 196 7 187 211 13 182 206 8 176 199 5 180 204 4 181 204 8 181 204 8 188 212 2 197 222 7 201 224 10 198 221 9 189 213 5 183 206 4 175 198 4 179 203 5 187 212 6 191 217 8 194 220 7 192 215 10 187 212 6 184 208 8 178 205 6 171 197 4 173 199 4 186 211 8 187 210 6 183 207 7 172 195 3 176 197 8 185 207 10 190 213 8 192 216 6 189 212 8 185 208 6 192 214 9 192 215 10 188 210 11 187 212 7 189 214 8 189 212 7 190 215 2 192 216 8 187 210 6 188 211 6 186 210 2 191 215 5 188 211 7 186 210 2 188 211 7 191 215 5 193 216 4 189 210 7 190 212 7 190 214 6 187 210 8 184 208 8 185 210 7 180 203 1 187 210 5 189 212 7 185 207 8 184 207 5 182 204 5 186 211 6 194 220 7 190 214 6 183 205 8 180 201 8 180 202 6 185 210 4 187 210 8 180 202 5 184 206 9 187 210 6 186 209 5 184 208 8 186 211 8 188 214 3 188 214 3 192 217 12 191 214 12 183 206 4 184 209 6 186 211 6 196 220 12 195 220 7 193 215 8 187 212 7 180 207 6 191 217 4 196 221 8 194 218 8 187 212 9 186 209 7 187 212 6 185 210 7 188 214 5 190 216 7 185 210 5 178 202 4 177 200 4 180 205 2 188 213 10 189 215 4 190 216 3 192 218 9 191 217 6 192 218 7 188 213 7 182 207 4 182 206 6 184 209 6 182 207 2 185 213 6 186 214 7 184 208 8 179 202 6 173 199 6 171 197 2 176 203 4 183 208 3 181 205 5 177 201 3 182 207 4 188 213 7 187 212 6 183 206 4 182 207 4 186 211 5 187 213 4 191 215 5 192 219 3 189 215 4 182 206 6 183 205 6 
177 201 3 172 197 7 177 204 5 184 209 3 181 205 5 179 201 4 182 205 3 193 219 6 192 218 5 186 211 5 184 208 8 180 203 7 190 216 7 188 214 5 180 204 6 181 206 3 191 216 10 194 220 7 193 219 6 186 214 7 178 205 4 180 207 6 180 204 6 183 207 7 192 218 5 192 218 7 189 215 4 192 218 7 189 215 6 190 216 7 188 213 7 181 206 3 177 200 4 179 203 5 185 210 5 190 216 7 189 214 8 185 210 5 187 212 7 187 210 8 187 210 8 194 218 8 195 221 8 191 217 4 183 207 7 186 211 6 192 216 8 196 219 7 196 220 12 185 210 5 185 210 7 183 206 4 190 213 9 192 217 11 189 215 6 188 214 3 185 210 7 185 207 8 185 208 4 187 210 6 184 206 9 179 201 4 186 211 8 185 210 4 180 202 6 179 199 6 183 205 8 191 215 7 193 219 6 188 213 7 181 203 4 184 207 5 185 208 6 188 211 6 188 211 7 181 204 0 186 209 7 185 207 8 187 210 8 190 212 5 190 212 7 189 213 5 191 215 5 191 213 4 189 211 4 186 209 4 187 212 6 191 215 7 186 209 4 188 212 4 187 210 6 192 215 10 189 213 3 190 214 6 189 214 8 187 212 7 188 210 11 192 215 10 190 213 9 185 208 6 189 212 8 192 216 6 190 213 8 185 207 8 176 196 10 174 195 4 184 206 7 186 211 6 186 211 8 174 200 7 170 196 3 180 204 6 184 208 8 187 212 7 192 215 11 195 220 7 191 217 8 187 212 7 179 203 5 175 198 2 183 206 4 190 213 8 198 221 7 201 225 9 197 222 7 187 213 4 180 206 9 180 204 6 182 206 6 176 199 3 182 206 6 187 211 11 174 196 7 176 199 3 185 210 4 183 208 5 186 211 5 184 208 8 182 206 6 181 205 7 177 200 6 181 205 5 194 218 8 191 214 10 184 207 3 186 211 5 182 207 2 182 209 8 174 200 7 162 185 6 169 193 7 175 203 5 186 209 7 184 206 9 182 210 4 178 200 4 180 202 6 186 214 5 190 221 128 240 222 218 236 227 222 236 221 224 234 226 223 240 223 231 235 228 218 235 224 218 224 223 219 173 205 8 185 209 9 191 212 9 189 215 4 189 215 6 188 212 4 184 209 4 183 210 9 185 208 4 180 204 4 186 209 7 185 210 5 182 207 2 188 211 9 189 213 3 187 212 7 180 207 6 179 202 6 186 211 5 192 218 9 187 211 11 179 203 5 173 196 2 167 188 5 173 194 5 182 205 9 177 205 9 164 190 5 165 189 3 172 198 5 176 202 7 187 209 10 
189 211 24 171 196 6 167 192 4 173 198 8 175 203 7 183 211 4 184 209 4 178 202 2 177 205 9 190 215 9 189 215 6 177 203 10 180 206 11 184 209 6 178 201 7 179 206 7 187 212 9 190 216 5 185 210 4 181 205 5 181 206 3 186 212 3 187 210 8 189 212 8 182 206 6 177 203 8 182 209 6 184 209 4 186 209 4 186 211 5 176 199 7 172 194 5 182 207 4 188 216 7 191 217 34 232 226 214 236 226 224 239 225 225 235 228 220 236 224 224 235 224 222 236 225 223 228 225 216 170 208 35 176 204 6 177 200 8 160 183 5 164 188 4 178 205 4 176 202 9 177 204 5 178 207 5 175 201 4 182 203 10 181 203 7 181 205 7 180 203 7 172 194 5 179 203 3 188 214 5 185 209 11 186 209 15 184 209 6 178 201 5 179 206 7 183 211 5 182 209 6 185 209 9 182 206 6 188 213 7 195 220 5 189 213 5 186 209 5 192 216 8 196 222 3 195 219 3 188 211 6 184 206 7 180 204 6 183 206 10 188 213 8 193 219 6 191 217 6 192 218 9 190 213 8 185 210 7 172 194 7 160 183 4 168 193 5 184 209 6 190 216 7 186 209 5 181 206 3 184 208 8 182 204 8 186 208 9 189 212 7 187 210 6 190 213 11 185 208 6 194 218 10 193 218 5 196 221 8 196 221 5 190 213 8 185 208 4 191 216 3 196 221 6 192 216 6 188 212 2 188 211 7 187 209 10 187 211 3 194 218 8 201 227 6 196 222 1 193 217 9 194 218 10 196 221 8 191 213 6 183 206 4 180 202 6 178 200 4 182 204 5 189 212 8 191 215 7 185 208 3 189 214 8 187 212 6 194 220 9 197 222 7 190 214 6 185 208 6 183 208 5 180 204 4 188 211 7 184 209 4 188 211 6 193 217 9 196 220 10 197 222 9 192 217 4 188 212 4 187 210 8 190 216 7 193 218 5 191 215 5 184 207 5 181 203 4 188 211 6 194 219 6 195 218 4 182 207 4 180 204 4 183 207 7 187 210 6 185 210 4 183 211 5 183 208 5 185 208 6 187 210 5 197 222 7 197 222 6 189 213 5 191 214 9 191 214 10 187 210 6 195 220 5 203 231 7 196 222 9 189 213 3 190 214 4 186 212 3 187 212 7 185 210 5 183 208 5 179 203 5 177 201 3 184 209 6 184 212 5 186 212 1 189 214 8 180 203 7 168 193 5 171 198 7 182 209 8 184 209 6 176 202 5 171 197 2 178 206 7 189 217 10 185 213 4 186 211 5 190 216 7 191 217 6 190 216 5 194 220 9 194 221 5 192 218 5 185 210 4 183 207 9 
185 210 5 182 209 6 185 213 7 179 206 5 178 201 7 177 199 3 180 202 6 187 212 9 193 219 8 196 223 6 193 220 4 187 212 6 196 223 6 201 226 10 188 211 9 182 206 6 188 213 8 195 221 8 191 218 2 193 220 3 187 212 7 176 198 9 183 207 7 186 211 8 183 208 5 185 210 7 191 215 5 192 217 4 190 214 4 196 223 7 202 230 8 195 220 4 187 210 6 190 213 9 191 214 10 189 213 5 196 221 5 198 223 10 187 210 5 185 208 6 184 209 6 184 209 4 186 211 5 187 212 7 183 207 7 180 204 4 181 206 3 195 219 3 195 219 9 188 211 7 180 202 3 185 208 6 192 216 6 194 219 6 189 215 6 186 209 7 188 212 4 192 217 4 197 222 9 196 220 10 192 216 8 189 212 7 183 208 3 187 212 7 180 204 6 183 205 6 185 208 6 190 213 8 197 222 9 193 219 8 187 212 6 188 213 7 184 209 4 191 217 8 188 213 8 181 205 5 179 202 6 178 201 5 182 207 4 191 213 6 196 220 10 195 219 11 193 217 9 197 221 3 202 226 8 194 218 8 186 211 5 187 209 10 188 211 7 189 213 3 193 218 5 197 222 9 189 213 3 186 209 4 190 213 8 196 221 6 197 222 7 195 218 6 195 217 8 185 207 8 190 213 9 187 210 6 189 212 8 186 209 7 182 203 10 184 207 5 182 205 1 185 210 5 189 215 6 182 209 6 168 193 5 160 183 4 172 194 8 185 210 7 191 214 9 192 218 9 191 217 6 193 219 6 188 213 10 183 207 9 179 203 5 184 206 7 189 212 7 194 219 4 196 221 6 190 216 7 185 211 0 189 213 5 195 220 7 188 213 8 182 206 8 182 209 10 183 210 7 182 210 4 179 205 8 178 201 7 183 207 7 185 208 14 185 209 11 188 214 5 179 202 6 172 194 5 181 203 4 180 203 7 180 203 7 179 202 6 176 199 7 178 205 6 177 204 3 175 201 8 178 205 4 162 189 0 162 183 2 174 200 7 173 204 5 170 192 5 168 190 4 182 206 8 185 215 57 233 226 220 236 227 222 236 221 224 237 229 218 242 223 225 237 226 222 240 222 218 227 228 220 171 206 42 173 201 5 186 211 5 183 210 7 184 209 6 185 207 8 179 200 9 183 208 5 189 212 8 186 210 10 185 210 4 181 205 5 179 206 5 186 211 6 191 215 7 185 212 9 179 205 8 177 200 6 184 209 6 181 207 10 177 203 10 187 215 8 188 216 9 177 205 7 178 202 2 185 208 4 185 210 4 175 203 7 173 198 10 167 192 4 173 195 6 186 206 10 
175 197 24 159 184 4 159 182 3 164 188 6 168 195 4 175 202 1 179 203 5 172 198 3 172 200 4 175 201 6 177 203 6 172 198 3 174 200 5 178 201 5 174 197 5 173 198 8 178 205 2 182 206 8 178 201 5 175 201 4 175 201 8 179 203 3 188 213 8 187 212 6 173 196 4 176 204 0 186 214 7 184 209 6 179 203 5 170 196 3 169 194 4 181 205 7 189 212 7 189 214 8 186 215 63 232 223 214 237 225 225 237 223 223 237 225 225 237 226 222 233 225 222 242 224 224 223 224 216 181 213 8 177 206 2 182 204 5 181 208 7 187 210 6 185 210 7 178 201 5 181 208 5 183 211 4 181 209 3 185 210 5 176 203 2 175 201 6 182 207 2 192 218 5 193 220 4 187 212 6 184 209 6 181 205 5 180 203 7 188 215 12 181 207 10 177 203 8 183 208 5 183 208 5 184 209 6 189 212 7 186 209 5 185 208 6 183 208 5 184 208 8 188 214 5 189 215 6 189 214 8 194 221 5 193 217 7 190 213 11 188 211 6 188 212 4 188 211 6 184 207 5 183 205 9 179 200 7 175 198 6 180 203 7 188 213 7 181 206 3 178 201 5 186 211 6 192 216 6 191 214 10 188 211 7 188 214 3 180 204 4 177 200 4 183 205 9 189 213 5 193 218 5 194 219 6 195 220 5 190 214 6 189 212 7 193 216 12 194 218 10 191 214 9 189 212 7 192 216 6 187 210 6 180 203 7 185 208 3 190 214 4 199 224 9 193 218 5 188 211 7 188 211 6 191 216 3 192 215 10 189 211 4 184 206 7 183 206 2 197 222 9 205 230 14 197 222 6 192 216 6 186 209 7 184 209 6 193 219 8 194 219 6 192 217 4 191 217 6 188 214 5 190 216 7 186 209 7 185 210 5 193 220 4 198 223 10 198 221 16 189 212 8 185 208 6 185 208 6 190 214 6 192 216 8 194 218 8 194 220 7 194 219 6 191 215 7 192 216 6 196 221 6 202 227 12 190 215 9 182 207 1 182 207 4 183 207 7 185 210 4 190 218 9 194 220 7 196 221 5 195 220 7 195 220 7 194 218 10 186 212 1 192 218 5 197 222 6 193 217 7 185 207 8 186 211 5 193 217 7 186 209 4 183 205 6 184 206 7 189 215 6 192 218 5 190 216 5 180 203 7 182 204 5 191 215 7 190 216 5 191 217 6 190 214 4 185 208 6 178 202 4 178 199 6 180 204 6 178 205 2 179 203 5 171 193 6 174 197 5 185 210 5 180 207 6 182 207 2 183 211 5 185 210 5 188 214 5 192 218 7 186 215 3 185 210 4 186 211 8 182 207 2 
182 207 4 184 209 3 181 208 5 180 207 6 187 213 4 183 208 5 182 205 3 186 211 5 186 211 6 186 211 5 192 217 4 191 215 7 190 215 0 195 220 7 187 210 8 178 200 1 186 209 5 191 216 1 193 218 5 198 223 8 195 220 7 180 202 6 180 204 6 188 214 3 192 218 7 190 214 6 186 209 5 186 208 11 188 211 7 191 215 5 186 211 6 185 207 8 193 217 7 196 221 5 193 217 7 187 211 1 195 219 11 194 218 8 194 219 6 196 221 5 193 219 6 192 218 9 185 210 4 183 207 7 182 207 4 181 206 0 190 215 10 201 226 10 196 221 5 193 218 5 191 215 5 194 219 6 196 220 10 194 218 10 191 215 7 190 214 6 186 209 7 186 209 7 189 212 8 199 221 16 198 223 10 195 220 5 186 211 5 186 211 8 189 215 4 188 214 3 192 218 7 191 216 0 194 219 4 192 218 7 182 210 4 185 208 6 192 216 8 198 224 5 205 231 12 198 222 12 183 206 2 185 208 6 189 213 3 194 216 7 191 215 7 189 212 7 188 211 6 195 218 6 200 223 9 190 214 4 184 210 1 180 203 7 186 209 5 191 215 5 189 213 5 191 214 10 194 217 13 192 215 10 188 211 6 191 214 9 194 219 3 195 220 5 194 219 4 189 213 5 182 206 8 178 201 5 180 204 6 189 213 3 188 211 7 190 214 6 193 217 9 187 212 9 179 203 5 181 206 3 187 212 6 180 204 6 175 198 6 180 202 6 183 205 8 184 207 5 188 212 4 189 213 3 187 210 5 189 212 10 192 218 9 193 219 8 190 215 9 189 215 6 187 213 4 184 206 9 182 205 3 185 208 6 185 208 4 187 212 6 184 208 8 183 207 7 180 207 6 176 202 7 180 207 8 186 213 10 180 204 6 181 205 5 184 209 6 187 212 6 191 217 4 192 218 7 183 208 5 173 201 5 176 203 4 183 211 4 181 208 5 183 211 5 182 207 4 177 200 6 185 208 6 185 208 12 181 208 7 180 204 4 179 206 5 181 208 5 179 203 5 173 196 4 185 213 17 228 225 216 237 226 220 233 224 225 242 224 222 237 223 223 236 228 225 243 223 224 229 224 218 181 213 70 167 194 5 172 195 1 177 204 5 184 209 4 186 214 5 177 204 3 172 195 3 187 212 6 186 214 8 179 203 5 177 200 8 175 201 6 179 202 6 182 206 8 177 206 2 173 199 6 174 196 7 178 201 5 173 199 4 172 198 3 177 204 5 175 201 8 172 199 6 172 200 4 179 202 6 175 202 3 168 195 4 164 187 8 160 183 4 161 184 5 173 194 11 
173 197 21 172 200 4 181 204 8 172 194 7 164 190 3 169 196 5 174 200 7 177 203 6 173 199 6 173 199 2 179 205 8 177 203 6 171 197 4 164 189 1 164 189 1 166 190 4 177 203 8 177 204 3 175 198 4 173 199 4 181 208 5 184 209 4 186 211 6 178 202 4 174 197 5 167 194 3 170 196 9 177 200 4 178 202 2 176 202 7 180 207 8 191 217 8 191 214 9 186 209 4 176 214 92 235 224 218 237 226 224 238 228 219 236 224 224 235 224 218 234 227 219 240 224 225 220 223 206 186 209 5 187 208 9 183 211 2 184 208 8 190 211 8 185 207 10 174 197 3 182 209 6 189 214 8 182 206 6 182 209 10 182 209 8 183 211 2 187 212 6 184 209 4 184 209 4 183 207 7 178 201 5 172 195 3 173 199 6 184 211 10 181 205 5 179 203 3 182 206 8 181 203 7 185 207 8 187 209 10 184 206 7 186 211 6 190 215 9 180 204 4 173 199 4 180 206 9 191 216 10 190 216 5 187 211 3 187 211 3 182 205 3 182 204 5 185 208 6 181 203 4 180 202 5 182 204 5 189 212 7 187 212 6 183 208 5 182 206 6 179 203 3 191 217 8 192 216 8 188 211 9 185 209 9 179 202 6 174 197 3 178 201 7 182 205 9 191 217 8 195 221 8 196 219 15 189 212 7 187 210 5 185 208 3 190 213 8 197 223 12 196 220 10 195 220 7 199 225 6 195 219 9 181 205 7 184 206 9 181 203 4 178 200 4 186 209 7 184 207 3 182 207 4 188 212 4 194 218 8 189 213 5 186 209 7 189 212 8 192 216 6 197 222 7 199 224 11 190 214 6 190 213 8 191 216 10 195 222 3 197 222 9 192 216 6 195 220 5 195 219 9 188 213 10 180 205 2 184 209 4 190 216 5 191 216 3 194 218 8 190 214 6 186 209 7 184 206 9 188 211 7 189 214 1 195 221 8 193 222 6 195 222 6 198 223 8 197 223 4 198 224 5 194 220 9 189 212 7 188 212 4 189 214 9 183 207 9 175 198 4 184 206 7 195 219 9 198 226 4 193 220 3 191 217 6 191 216 11 187 213 4 185 210 5 192 218 7 185 211 2 183 206 10 185 210 4 194 219 6 194 219 6 188 211 6 184 207 5 189 212 7 190 216 5 193 219 6 188 211 6 187 210 5 190 214 6 191 217 6 191 215 5 190 214 4 183 206 2 185 210 7 191 215 7 189 212 8 185 211 2 183 208 3 177 200 6 183 205 6 191 215 5 188 213 7 182 207 4 171 193 4 171 196 6 188 214 5 194 221 5 186 211 5 182 209 6 186 215 3 188 212 4 
184 209 6 182 206 8 186 211 6 184 212 6 184 212 3 189 215 6 191 215 7 187 213 4 185 210 7 183 206 4 189 214 1 193 217 7 190 213 8 184 207 5 188 211 7 185 208 4 180 202 5 195 220 7 200 226 5 198 223 8 193 217 7 191 214 10 191 216 3 195 220 4 193 217 7 190 214 6 185 208 3 190 214 4 197 222 6 194 219 4 184 209 3 183 206 12 187 213 4 191 217 6 185 210 5 187 212 6 190 215 10 191 217 6 193 220 3 198 224 1 195 219 9 182 206 6 175 198 4 184 208 10 189 212 8 188 214 5 188 213 7 195 221 12 198 223 7 197 223 4 198 223 8 195 222 6 195 222 6 194 220 7 189 214 0 187 210 6 183 205 8 186 210 10 189 213 5 193 217 7 191 216 3 190 214 4 185 210 5 180 205 2 187 211 13 195 219 11 196 221 5 192 216 8 196 220 10 195 222 5 191 216 11 191 213 8 192 214 7 199 222 8 200 223 9 193 215 8 188 211 9 185 208 6 189 211 4 194 218 8 188 211 6 183 206 2 183 206 2 186 208 9 177 199 2 180 202 6 183 205 8 180 204 6 194 219 6 199 225 6 195 220 5 194 218 8 196 222 13 189 213 5 185 208 4 187 210 5 189 213 5 196 220 12 194 218 8 191 217 8 182 205 9 178 201 5 175 198 6 180 202 6 186 208 9 189 212 8 191 215 7 192 216 8 181 204 2 183 207 9 183 208 5 187 212 6 188 213 8 182 204 5 180 202 5 181 203 6 183 207 7 182 204 5 182 204 5 187 210 6 186 209 4 190 216 5 189 214 8 180 203 7 174 197 5 179 202 6 190 213 9 185 208 6 184 206 9 184 208 8 184 208 8 180 203 7 181 205 7 180 204 4 181 205 5 182 209 8 172 198 5 172 195 1 179 202 6 183 207 9 181 205 5 183 207 7 187 212 6 180 210 2 181 208 9 182 209 10 183 208 5 187 215 6 183 208 3 174 195 4 185 207 10 190 214 6 184 209 4 185 210 5 184 207 3 185 211 2 186 211 8 184 209 4 183 212 10 229 225 214 240 221 223 234 225 218 242 224 220 234 229 225 235 227 224 239 224 219 233 223 213 189 219 59 183 208 5 178 201 7 178 202 4 178 202 4 169 198 10 166 193 4 174 197 1 178 202 2 184 212 6 184 209 4 182 206 6 173 199 6 176 199 5 179 203 3 176 204 6 166 190 6 165 190 2 165 190 2 170 196 3 177 203 6 179 205 8 172 198 1 174 200 7 175 203 5 174 200 7 169 196 5 162 191 3 172 194 7 179 206 7 170 201 2 169 193 7 
179 208 22 176 204 6 188 211 6 180 202 3 167 194 5 179 207 8 179 207 1 177 203 6 171 197 4 177 204 1 181 208 7 174 201 0 172 198 3 170 194 8 169 194 6 166 190 4 176 203 4 189 214 8 188 214 3 182 206 6 186 211 6 189 212 7 184 207 3 183 207 7 178 202 4 158 183 4 162 188 1 179 203 3 186 209 4 187 215 8 180 207 6 185 210 5 190 216 7 184 207 3 172 221 116 237 226 220 238 227 223 235 228 218 235 224 230 236 227 220 237 226 222 236 222 221 209 225 199 189 213 5 180 202 3 169 194 6 175 201 4 188 211 6 183 207 7 176 199 3 179 206 3 183 211 5 186 211 5 190 213 9 180 203 7 171 196 6 176 199 5 174 197 5 178 201 7 178 202 4 176 199 3 180 203 7 182 210 3 182 210 3 180 204 6 180 201 8 192 215 10 197 221 11 198 223 10 191 216 1 183 208 5 181 206 3 180 203 7 183 207 7 192 215 10 198 223 10 191 215 7 185 208 3 191 215 7 188 211 7 179 201 5 177 201 3 181 205 7 178 201 7 183 207 9 190 212 13 185 210 7 180 203 7 177 200 6 181 205 7 183 205 6 182 204 7 184 209 6 185 210 7 175 198 2 177 200 6 186 211 6 183 207 7 179 202 8 183 207 7 188 214 3 184 209 3 187 212 7 194 219 4 196 221 5 191 217 4 192 218 7 193 218 12 192 216 8 201 226 10 196 221 6 188 212 4 187 210 6 190 213 9 187 210 8 182 204 8 181 205 7 189 214 8 196 222 9 191 215 7 181 205 5 184 208 8 185 210 7 187 212 7 189 213 5 191 214 9 191 214 9 194 219 4 192 216 6 186 212 3 183 207 9 182 204 8 186 210 2 192 216 6 184 206 9 175 201 4 184 209 4 193 217 7 195 220 5 196 221 8 191 216 10 184 209 4 185 210 4 189 212 7 197 222 7 192 218 7 182 210 4 185 213 7 192 216 6 192 216 6 187 210 6 179 206 3 180 204 6 187 209 4 190 212 5 190 213 8 182 206 8 190 216 5 199 224 8 194 219 6 195 220 7 190 214 6 187 210 8 191 214 9 188 211 6 185 208 6 183 205 6 193 218 3 196 222 9 194 219 14 190 214 6 188 212 2 184 206 7 185 208 6 189 215 4 192 218 9 186 209 4 182 204 7 186 208 9 184 209 4 186 211 5 187 210 6 183 207 7 185 210 4 186 214 5 186 214 5 178 205 4 173 198 8 174 202 6 181 208 5 184 212 6 193 219 6 193 216 4 184 209 6 176 203 2 186 211 5 190 213 8 179 202 6 174 200 5 179 208 4 190 214 6 
195 220 5 193 219 8 193 219 6 185 213 6 187 215 8 191 217 8 194 219 3 194 220 7 182 207 4 176 199 5 184 209 6 186 211 5 183 208 5 181 205 7 186 212 3 189 215 6 185 210 5 189 215 4 192 218 5 193 217 7 192 216 8 186 211 5 188 213 7 195 220 7 191 215 7 187 210 6 187 210 5 192 217 4 192 217 4 195 218 13 195 221 8 193 218 3 182 204 5 184 207 5 188 211 6 191 215 7 187 210 8 190 214 6 194 219 6 195 218 6 199 224 8 192 217 4 182 206 8 189 212 7 189 212 7 185 208 4 180 204 6 180 208 2 187 212 7 191 215 5 192 216 6 185 213 7 182 210 3 193 219 6 197 222 9 188 211 6 187 210 5 183 208 3 190 215 9 195 219 9 194 219 4 192 218 7 184 209 4 178 202 4 183 205 8 193 217 7 187 211 1 180 204 6 183 207 9 185 210 4 193 218 5 193 220 4 191 215 7 191 215 7 187 212 6 186 211 6 185 209 9 183 207 9 180 205 2 190 216 7 196 222 11 189 212 7 182 204 7 182 204 5 186 208 9 188 211 9 187 210 5 189 213 5 197 222 6 201 225 9 192 216 6 192 217 11 192 218 9 191 218 2 194 221 5 194 219 4 188 211 6 186 210 2 188 214 5 181 204 8 177 200 6 182 206 6 187 210 6 178 200 4 176 197 4 187 210 8 185 207 8 181 203 6 183 205 6 181 202 9 179 201 5 180 203 7 187 212 7 189 213 13 183 207 9 178 201 5 181 205 7 177 200 4 178 202 4 189 212 8 191 215 7 184 207 3 190 213 8 196 220 10 189 214 8 183 208 5 179 206 7 182 206 6 184 208 8 189 215 2 196 220 10 196 220 12 191 214 9 179 200 7 181 203 6 182 210 4 182 210 4 179 202 6 177 200 4 180 204 6 177 200 8 174 197 5 176 199 3 174 197 5 179 202 6 190 213 9 188 213 7 185 213 6 179 206 5 175 198 4 183 207 7 187 213 4 177 200 4 167 193 6 178 200 4 189 213 3 190 212 7 190 213 8 192 217 29 231 225 211 239 220 226 238 228 218 235 224 218 235 225 224 237 225 225 236 227 220 232 222 220 181 213 40 183 208 5 188 213 8 184 209 4 178 201 5 160 189 3 158 183 3 179 200 7 184 209 6 183 208 3 187 210 6 186 209 7 181 205 7 187 213 4 188 213 7 175 202 3 166 192 5 170 195 5 171 196 8 173 201 5 175 202 3 181 208 7 179 204 1 171 196 8 178 204 7 179 207 1 177 208 8 167 194 5 182 203 4 187 212 6 175 206 6 177 203 8 
171 195 19 169 196 5 172 200 4 174 202 6 176 203 2 180 207 8 179 202 8 174 197 3 172 200 4 180 200 4 177 200 4 179 202 6 176 203 4 181 203 6 178 205 4 178 205 4 182 204 5 186 211 6 187 215 6 184 212 6 184 212 6 186 211 5 180 204 6 180 204 6 183 207 7 177 204 3 177 204 3 177 203 6 177 204 3 176 203 4 177 200 4 182 207 4 184 209 6 178 205 4 182 219 150 234 223 221 243 223 224 237 228 221 236 227 222 238 222 223 236 224 224 243 222 227 197 223 184 183 213 3 176 202 7 174 200 7 177 204 5 183 205 6 176 199 3 169 193 9 177 200 6 190 214 6 192 218 5 192 218 7 187 211 3 181 205 7 183 208 5 184 209 6 183 206 4 188 212 4 193 217 7 189 214 8 184 209 4 186 211 5 189 212 10 181 204 10 180 205 2 190 215 9 189 212 8 180 202 5 174 197 5 177 200 4 182 211 7 195 221 12 202 225 11 197 220 8 187 210 5 182 206 6 180 207 8 179 206 7 185 207 10 185 210 5 185 208 6 182 204 8 174 197 5 174 200 5 180 203 9 187 210 6 189 212 8 182 204 8 178 200 4 173 195 6 175 198 4 182 206 6 183 205 6 186 209 5 195 218 6 192 218 9 182 210 4 179 203 3 181 203 4 183 205 8 191 215 7 200 226 7 204 229 5 193 218 5 182 207 4 182 206 8 186 209 5 190 212 5 191 213 8 191 215 5 196 219 7 195 220 5 187 210 5 182 204 5 190 213 8 190 213 8 193 214 13 190 212 7 191 213 6 190 214 6 182 207 2 187 212 7 189 214 8 185 210 5 187 212 7 187 212 6 188 211 7 191 215 5 189 213 3 187 211 3 187 210 5 193 219 8 193 219 8 190 216 7 195 217 8 198 223 7 196 223 4 193 220 4 186 209 7 175 196 5 181 203 6 187 212 6 188 214 5 190 215 9 182 207 4 185 210 5 193 219 8 192 217 2 184 208 0 186 209 7 188 210 5 188 209 8 191 214 9 192 216 8 192 217 4 190 214 4 199 223 13 202 228 9 196 221 5 188 213 7 187 210 6 193 215 6 193 217 7 193 218 3 188 211 6 192 218 7 192 218 9 187 212 7 186 212 3 189 213 5 189 212 10 189 212 7 187 210 5 185 208 6 186 209 5 188 214 5 182 206 6 175 198 4 178 201 5 185 208 6 184 209 3 188 213 7 187 215 9 179 202 6 171 193 4 172 195 3 173 195 6 175 201 4 181 208 5 197 222 9 194 221 4 184 209 4 186 209 4 185 213 6 181 208 5 180 203 7 175 202 1 176 200 2 183 211 5 
196 222 9 197 222 7 198 225 8 194 219 6 188 212 2 190 214 6 191 217 6 192 216 6 184 209 6 178 201 5 183 207 9 186 209 5 183 208 3 186 211 6 185 210 5 187 213 4 186 211 5 189 213 5 187 210 6 185 208 6 186 211 8 189 215 4 187 210 5 186 209 7 187 211 3 194 216 9 193 215 6 191 215 5 187 213 4 187 212 9 190 219 7 191 216 10 186 211 6 192 217 4 194 219 6 191 216 3 187 210 5 188 213 7 195 222 5 203 229 8 200 224 14 189 213 3 192 217 4 192 215 10 190 213 11 185 208 4 187 208 5 187 210 8 183 206 2 192 217 4 194 218 8 184 208 8 181 206 3 189 215 6 188 213 8 189 212 8 181 203 6 173 196 4 186 209 7 193 218 3 196 221 5 198 223 8 195 218 13 188 216 9 193 219 8 192 218 7 187 210 5 188 209 6 190 213 1 190 214 6 188 213 7 189 214 8 187 212 6 185 208 3 188 213 7 188 213 10 183 208 3 190 216 7 190 214 4 191 215 5 192 217 12 189 213 5 190 213 8 183 207 7 188 211 6 197 220 8 194 218 8 191 217 8 191 214 10 189 211 4 185 208 3 181 205 5 182 206 6 192 216 6 204 229 5 197 224 7 189 214 8 180 204 6 178 202 4 176 202 5 180 207 6 190 215 9 194 218 8 185 210 5 183 207 7 180 208 2 174 197 3 172 194 5 176 199 3 179 202 8 187 212 7 187 212 7 178 205 6 175 201 6 174 196 7 181 205 7 184 207 5 186 211 6 186 211 8 182 207 4 184 208 8 182 209 6 185 210 4 195 218 6 200 222 13 195 218 13 184 209 4 178 202 4 176 199 5 181 205 7 188 214 5 190 216 7 178 202 2 180 203 9 188 212 12 187 213 4 185 210 7 191 215 7 193 217 9 187 213 2 183 208 5 184 209 6 185 208 4 184 206 9 189 213 5 193 217 7 192 219 2 188 214 5 174 197 5 169 190 9 173 199 2 184 206 7 174 200 5 173 199 4 180 202 5 189 212 7 195 218 4 186 215 3 181 213 50 235 224 218 234 226 224 242 224 224 232 227 221 239 223 223 240 222 218 235 224 218 226 223 214 180 212 17 175 202 3 178 200 1 177 198 5 174 201 2 175 203 4 177 204 5 181 208 5 179 206 7 180 202 6 185 208 4 183 211 4 186 211 5 189 215 6 184 212 6 181 205 7 176 203 4 180 204 6 179 202 6 176 204 5 177 203 6 178 199 6 177 200 4 170 201 2 175 198 4 179 205 8 179 208 4 178 205 2 176 204 6 171 201 7 168 197 8 168 192 8 
169 193 19 169 195 8 165 191 6 167 194 5 172 200 4 172 198 3 177 204 5 185 213 7 185 210 7 179 200 7 178 201 5 172 199 6 170 197 6 181 208 5 180 209 3 177 203 6 179 206 7 179 206 3 181 208 5 179 206 7 182 210 4 179 206 3 166 190 6 164 190 5 174 200 3 172 198 1 175 201 8 180 207 4 174 200 5 167 191 5 168 193 5 178 205 6 175 201 6 175 201 6 194 225 184 236 224 224 241 226 223 236 227 222 235 224 220 241 222 224 236 224 224 239 226 218 187 219 154 177 204 5 183 211 5 182 210 3 177 201 3 174 197 5 174 200 3 180 207 4 184 212 3 184 209 3 186 211 5 184 209 4 184 207 5 181 203 6 184 208 8 188 211 6 189 212 7 190 214 6 179 203 3 177 203 8 179 206 5 184 211 8 188 213 7 185 213 6 184 208 10 179 202 6 182 204 7 183 205 6 183 205 6 186 208 11 185 207 8 189 212 8 184 209 6 180 205 2 177 204 3 174 200 5 180 203 7 178 200 4 181 208 7 191 220 8 188 214 5 177 200 4 176 202 9 176 204 8 184 212 5 188 214 5 191 217 6 193 219 6 189 215 6 184 209 6 182 207 2 178 202 2 186 211 6 191 215 5 191 215 7 191 216 10 186 211 8 187 212 9 188 214 5 184 209 6 183 208 3 194 219 6 196 221 8 184 206 9 183 205 6 189 212 10 190 211 8 187 209 2 188 211 6 194 220 7 195 220 7 192 216 8 187 210 5 196 218 9 194 216 9 190 211 8 191 215 5 192 216 6 187 210 6 188 211 7 191 217 8 198 224 13 195 221 12 192 216 6 194 218 8 192 216 6 194 221 4 194 221 5 194 219 6 196 220 10 194 218 8 190 213 8 193 217 9 191 214 10 187 212 6 196 220 10 203 230 5 196 221 5 181 205 7 173 196 4 177 198 5 184 206 7 190 213 9 191 217 6 188 213 7 184 207 3 193 217 7 197 222 7 192 217 4 191 215 7 188 214 5 186 211 8 188 214 3 191 217 6 189 212 7 185 208 4 188 212 4 193 215 8 186 211 6 190 214 4 190 216 5 187 210 5 191 213 8 192 217 4 191 217 6 189 215 4 192 219 3 185 210 4 186 212 3 191 217 6 192 216 6 192 217 4 190 214 6 189 213 5 188 214 5 186 211 6 179 201 5 175 196 5 176 199 5 182 207 4 189 215 4 193 218 5 189 215 2 178 202 2 172 194 5 177 200 4 181 205 5 182 210 4 185 214 2 187 212 6 186 209 7 176 195 5 176 202 5 186 215 3 183 204 3 176 197 6 175 198 6 182 207 4 191 220 6 
192 217 4 186 209 7 185 210 5 189 215 6 190 212 5 187 211 3 187 213 4 186 209 7 180 207 6 178 207 1 183 210 7 189 214 8 188 214 1 180 207 6 183 211 5 189 217 8 189 213 5 188 212 4 181 206 0 179 202 6 178 202 2 185 210 5 188 213 7 192 218 7 194 219 6 194 219 6 195 220 7 193 219 8 186 212 3 183 210 7 190 219 7 189 215 4 192 218 7 192 216 6 190 213 8 187 210 5 191 215 5 190 216 5 187 212 6 193 215 8 189 211 4 184 207 3 190 213 8 190 216 5 188 214 5 185 210 5 187 213 4 190 214 4 192 216 6 198 224 5 192 216 6 183 206 4 189 213 5 192 216 8 190 213 8 184 209 4 175 198 6 174 197 5 182 206 6 196 221 5 205 231 8 196 221 8 186 212 3 190 216 7 191 217 6 188 211 7 193 218 5 196 221 8 193 217 9 192 219 3 193 220 4 192 218 7 193 217 9 191 215 5 195 219 11 197 223 10 193 219 6 187 210 6 186 209 7 191 217 8 189 215 4 190 213 8 194 216 7 196 221 8 190 213 8 192 216 6 195 222 5 192 218 5 187 210 6 184 207 3 188 211 9 186 211 8 180 204 4 183 205 8 195 220 7 191 217 6 181 205 5 182 207 4 186 211 5 186 211 8 184 209 4 188 213 8 188 211 6 190 214 6 185 210 5 177 200 4 181 205 5 185 210 5 190 213 8 193 217 7 190 216 7 187 212 7 184 212 6 175 201 8 178 204 9 180 205 2 190 216 7 195 220 14 182 210 4 180 201 8 184 209 4 178 205 4 177 204 5 181 205 5 183 205 6 185 207 8 182 204 7 183 205 8 183 206 4 184 206 9 183 205 9 179 200 7 182 206 8 189 215 4 190 216 5 184 212 6 179 206 3 183 207 9 179 203 5 185 210 4 188 213 7 186 209 5 183 205 8 181 203 4 181 206 3 182 207 2 187 212 6 185 210 5 184 209 6 180 204 6 176 199 5 174 197 5 174 200 5 183 211 4 187 212 7 183 207 7 185 210 7 182 207 4 189 218 74 235 224 218 236 226 225 241 222 224 233 228 224 236 225 223 235 224 220 235 228 222 218 225 209 178 207 5 169 197 1 169 196 5 172 199 6 179 207 1 176 199 5 177 199 3 176 199 3 164 190 5 166 190 4 180 207 4 179 208 4 178 204 9 179 206 5 179 206 7 177 203 6 173 201 5 181 208 5 179 206 5 170 197 4 172 199 6 176 199 3 177 200 6 185 210 7 188 213 7 176 205 3 172 199 6 171 197 4 166 192 5 162 190 7 166 195 6 166 190 6 
178 204 17 167 194 3 171 198 5 167 194 5 166 193 4 169 196 5 173 201 5 183 212 8 188 214 5 180 204 6 177 204 5 170 197 4 165 191 4 175 202 9 181 210 8 183 208 5 182 206 6 180 204 6 174 200 3 172 194 5 170 192 6 168 190 4 165 189 5 167 194 3 170 196 3 169 194 6 171 197 2 175 197 8 175 198 6 170 196 3 178 205 4 190 220 8 181 205 5 171 198 7 208 225 193 235 225 224 237 224 218 238 223 226 233 226 220 242 222 224 237 225 225 236 227 220 181 218 115 178 205 4 171 197 0 182 206 8 185 210 5 173 199 6 175 198 4 184 209 6 180 204 4 179 206 5 184 212 5 186 214 5 180 207 4 180 207 6 175 201 6 177 203 6 180 207 4 172 198 1 173 199 6 185 210 7 185 210 5 184 209 4 188 212 4 191 215 7 188 211 6 180 204 6 177 200 8 177 204 5 188 215 12 190 215 9 178 202 4 175 198 6 177 200 8 179 202 10 177 200 6 180 204 4 184 208 8 180 207 4 173 199 4 180 207 4 186 214 7 184 209 6 182 209 6 184 211 8 188 216 7 190 215 10 188 213 7 188 213 10 177 200 6 181 204 8 184 209 4 179 202 6 186 209 7 191 216 3 187 210 6 184 206 7 184 207 5 185 208 4 186 209 7 182 206 6 189 215 4 201 226 11 196 223 7 188 211 7 186 209 4 190 212 3 195 218 6 192 216 6 185 208 6 179 202 6 182 206 8 176 199 5 184 206 7 183 205 8 184 207 5 198 223 7 197 222 6 186 209 5 178 200 4 178 200 3 189 215 6 197 223 10 197 222 9 196 221 5 198 223 8 194 219 4 193 219 6 190 215 2 184 206 7 184 207 5 182 204 7 187 211 3 188 211 6 193 216 11 191 217 8 190 213 8 200 225 9 195 219 9 184 209 6 184 209 6 182 204 5 190 211 10 195 220 7 197 222 6 198 223 8 191 215 7 187 210 8 192 216 8 202 228 5 202 227 11 184 208 8 174 196 7 177 201 3 179 202 6 179 202 6 181 204 2 191 215 5 189 212 7 186 209 5 193 218 5 193 219 6 189 212 7 190 212 5 187 210 5 183 208 3 184 206 7 176 199 7 180 203 11 178 201 5 182 206 6 184 209 4 187 213 2 187 212 6 183 206 4 188 211 6 191 217 4 183 211 4 180 204 4 181 204 2 185 208 6 192 218 9 192 219 3 181 205 5 178 201 5 182 210 4 188 213 7 188 213 7 185 210 4 180 207 4 183 210 7 187 212 6 180 200 5 173 199 6 183 211 5 190 212 5 182 205 3 177 203 8 178 205 4 191 215 7 
180 208 1 179 203 3 183 206 2 181 203 4 178 201 5 180 207 8 188 212 4 182 207 4 175 201 6 180 207 8 185 213 6 178 202 4 186 213 10 183 210 9 182 206 8 190 214 6 194 220 11 190 215 9 185 208 4 178 200 3 183 211 4 192 221 9 189 212 8 184 207 3 188 212 4 189 213 3 186 209 7 183 205 6 181 203 6 180 202 6 177 198 5 182 207 4 183 208 3 188 211 6 188 211 6 189 212 8 194 218 8 193 219 6 185 210 5 189 212 7 191 215 7 183 206 4 178 201 5 179 203 5 176 199 3 175 198 4 185 209 9 202 227 11 203 229 6 193 218 5 188 210 11 191 215 7 199 224 8 196 223 7 193 220 3 189 214 9 180 203 7 182 206 6 185 210 5 195 221 12 199 224 11 189 214 8 191 217 6 192 217 12 185 210 5 185 210 5 181 203 6 183 205 6 185 208 3 190 216 5 191 217 4 194 219 4 197 222 7 194 219 4 197 222 9 195 221 8 190 216 5 180 202 5 180 201 8 186 211 6 195 222 6 197 222 7 185 206 5 181 205 7 183 207 7 176 197 4 182 205 9 180 202 6 183 205 6 190 214 6 193 217 7 187 211 3 184 207 5 187 210 8 198 223 7 201 226 10 188 214 5 181 206 3 187 211 13 184 207 5 185 208 4 183 205 9 186 209 5 190 214 4 184 207 3 180 203 7 184 209 6 184 206 7 178 199 6 188 211 9 187 211 3 190 215 9 191 217 8 184 212 5 185 212 9 187 212 7 189 215 4 181 205 7 175 202 3 185 210 5 185 210 7 181 205 5 178 201 7 181 204 8 177 200 4 176 199 5 178 205 6 189 217 8 189 217 10 180 207 8 176 202 5 181 205 5 190 216 7 192 218 5 189 213 3 185 210 4 185 210 4 185 210 7 178 201 7 176 202 5 182 210 4 176 202 5 176 203 4 181 206 3 182 207 2 188 214 3 184 212 5 180 207 6 175 202 3 181 205 5 175 198 6 178 201 7 185 213 4 181 209 3 177 200 6 180 204 4 180 207 8 180 202 6 188 217 109 234 225 218 237 225 225 242 223 227 235 227 224 234 223 221 235 224 220 237 226 222 213 223 199 194 220 7 179 206 5 173 200 7 172 199 8 170 195 7 172 195 3 169 194 4 170 197 4 170 192 3 167 192 4 171 197 4 169 191 4 168 193 3 173 199 2 180 203 7 182 204 7 178 207 3 179 206 7 176 203 10 168 194 7 170 197 6 177 204 5 181 205 5 191 214 9 183 211 5 172 200 4 169 196 5 163 187 1 166 192 5 169 199 7 164 193 4 174 199 9 
170 194 20 162 188 5 173 201 5 181 209 10 172 199 8 165 191 4 168 195 4 164 190 7 170 197 4 179 206 3 185 210 7 182 209 6 181 204 2 178 205 4 182 209 6 182 205 3 176 199 3 172 197 9 161 186 6 163 189 2 168 195 4 171 198 5 175 203 4 173 201 3 171 199 3 179 206 3 182 209 6 182 206 6 174 197 5 162 186 4 165 192 3 182 211 5 186 211 6 186 211 5 224 226 215 237 227 217 240 222 222 237 225 227 232 225 219 237 221 222 234 224 225 234 225 218 178 214 80 178 205 6 176 203 2 185 210 7 181 205 5 173 200 7 180 207 8 177 200 8 165 189 5 168 195 6 172 198 5 178 204 7 174 200 5 178 202 4 178 205 6 173 199 6 175 202 3 180 207 4 182 211 9 182 211 5 181 209 3 181 208 9 177 203 8 174 197 5 179 202 6 186 211 5 181 208 5 180 207 6 187 212 6 187 209 10 188 210 11 180 204 4 168 193 3 174 199 9 182 209 8 179 206 5 172 198 3 179 206 7 193 221 14 190 218 11 185 210 4 187 210 8 182 206 6 188 213 7 191 216 11 196 220 10 199 223 13 194 217 12 190 213 8 186 209 4 188 212 4 188 211 6 195 217 12 194 216 11 187 210 6 192 214 5 202 226 10 194 216 7 188 210 11 180 204 6 191 215 5 200 223 9 199 225 4 194 219 3 188 209 6 179 201 4 182 206 6 183 207 7 182 204 5 183 203 8 183 205 8 182 207 4 179 206 3 178 205 6 178 205 6 182 206 8 185 208 6 187 210 5 190 213 8 190 214 4 196 223 4 189 213 3 186 209 4 186 209 4 189 212 7 195 220 4 194 217 5 198 221 9 196 219 5 190 215 2 186 208 9 180 204 4 178 201 5 188 213 7 187 210 5 187 210 6 189 215 6 189 214 8 185 208 4 182 205 3 179 201 5 178 200 4 183 208 5 186 211 6 186 211 6 198 223 8 195 219 9 186 209 5 193 217 7 193 219 6 187 210 6 183 205 6 186 209 4 184 207 5 179 201 5 180 203 7 190 215 9 191 217 6 191 215 5 195 221 10 190 216 7 192 217 4 203 230 5 194 221 4 194 219 4 191 217 6 187 213 4 183 208 5 178 202 4 177 200 6 174 197 3 176 199 5 176 199 5 178 201 5 184 208 8 190 216 5 188 214 5 181 206 3 176 199 3 180 204 6 190 215 10 184 209 3 178 200 3 181 205 5 183 211 2 185 213 4 184 209 4 184 208 8 183 211 4 187 215 9 179 203 3 183 211 5 192 216 6 184 209 4 182 206 6 181 205 5 181 209 3 180 207 4 177 201 3 
166 190 6 164 188 6 178 202 4 176 199 5 169 194 6 174 200 5 179 206 5 180 204 6 181 205 5 185 208 6 186 209 7 174 196 7 175 202 3 182 207 4 185 206 3 191 216 3 196 220 10 186 207 6 183 206 2 189 213 3 196 221 6 198 224 3 180 204 6 171 193 4 173 195 6 174 197 3 173 196 4 175 198 6 176 199 5 182 206 6 186 211 5 191 217 4 195 220 5 195 220 4 203 229 6 192 216 6 190 214 6 196 220 10 190 216 5 190 216 5 190 215 9 180 204 6 177 200 4 182 207 2 185 210 4 184 207 3 189 212 8 194 220 7 193 219 6 185 208 6 194 218 10 198 223 7 186 211 5 186 211 8 183 208 5 177 198 5 177 198 5 182 205 3 185 208 4 191 214 9 190 214 6 185 208 3 187 210 6 188 214 5 179 203 5 180 204 4 182 206 6 191 216 3 197 223 4 199 222 8 192 217 4 194 219 4 189 213 5 185 208 3 187 210 5 190 214 6 195 221 8 190 215 2 191 215 5 188 212 4 185 210 7 181 205 7 179 202 6 177 204 5 179 206 5 183 205 6 180 203 11 180 201 8 182 204 7 185 207 8 182 204 5 177 199 3 187 208 9 196 221 5 202 228 7 201 224 10 190 213 8 180 204 4 187 209 12 193 215 10 202 226 8 194 216 7 190 212 5 193 215 10 192 215 11 187 210 5 186 210 2 185 208 4 189 212 8 193 216 11 200 224 14 198 223 8 193 219 10 190 215 10 183 208 5 187 212 6 186 211 8 191 216 10 195 224 12 184 209 3 174 200 3 180 207 6 182 211 5 173 200 9 166 193 4 183 207 7 192 215 11 189 214 11 186 212 1 184 209 6 187 212 6 189 215 4 181 204 8 175 198 6 178 201 5 180 206 9 180 207 6 182 209 8 184 212 6 182 209 6 177 204 1 177 203 6 181 209 3 179 202 6 174 200 7 177 203 6 170 195 5 169 193 7 164 188 6 175 198 6 181 204 8 175 201 6 179 206 5 181 208 7 178 205 4 183 207 7 176 202 5 182 204 5 183 218 136 235 226 219 239 225 224 240 224 225 237 228 223 235 225 223 237 228 223 234 225 218 200 221 188 180 213 8 165 191 4 162 186 0 174 197 3 181 205 5 184 209 6 182 210 4 173 199 4 174 200 5 173 204 5 171 199 3 172 198 5 164 190 5 162 188 5 171 197 4 176 200 2 181 203 4 180 207 4 178 205 2 181 206 3 184 209 6 187 212 6 183 211 2 171 199 3 162 187 7 167 194 5 164 190 3 173 198 8 181 210 8 172 202 6 163 189 4 168 192 10 
171 195 21 161 186 6 169 196 5 181 209 10 172 199 6 166 192 5 170 197 6 167 193 8 168 195 6 175 203 4 183 207 7 181 208 7 180 202 5 178 205 6 185 210 7 183 206 4 176 199 3 170 195 7 160 186 3 164 191 2 167 194 3 168 195 6 175 203 5 173 201 3 168 195 6 178 205 4 182 210 4 184 209 4 175 198 4 161 185 3 165 191 4 180 209 5 182 207 2 182 214 43 234 223 221 235 224 220 239 220 222 237 225 225 236 227 222 237 225 225 235 227 225 231 224 216 178 208 34 176 202 5 175 201 6 187 213 2 180 207 6 173 199 6 182 209 8 180 203 7 167 191 5 167 194 5 173 199 6 178 204 7 173 199 6 176 199 3 175 202 3 170 195 5 173 199 6 177 203 6 179 207 8 181 210 6 182 211 7 181 207 12 178 204 7 174 196 7 174 196 9 178 202 4 177 203 6 178 205 6 186 211 5 185 207 8 181 202 9 179 203 5 170 195 5 172 197 7 181 208 7 177 204 5 169 195 2 173 199 4 187 214 11 189 217 8 185 210 4 184 206 9 177 200 4 182 206 6 186 211 8 195 220 7 197 222 9 193 217 9 192 216 8 188 212 4 190 214 4 190 214 6 196 220 10 197 219 10 186 209 7 189 211 2 200 224 8 195 217 8 190 211 10 182 206 8 192 216 8 198 221 7 199 225 6 196 220 4 191 212 11 183 205 8 184 206 7 183 207 7 182 204 5 184 204 9 186 208 11 185 210 7 180 208 2 179 206 3 182 209 8 186 210 10 186 209 7 184 207 5 187 210 6 188 214 5 197 224 7 190 214 6 187 210 6 187 209 4 187 210 6 194 219 4 196 219 7 196 218 9 192 215 1 190 214 4 186 208 11 178 202 4 177 200 6 189 214 8 188 211 6 188 214 5 191 217 6 189 212 8 184 207 5 185 208 6 183 205 8 180 202 6 186 211 5 188 213 10 184 208 8 194 219 6 195 220 5 188 212 2 192 217 4 190 216 5 176 198 2 177 198 5 187 210 5 189 213 5 186 209 5 184 209 6 190 216 5 193 220 4 196 221 5 198 225 9 190 216 7 192 216 6 202 228 5 194 221 4 198 223 7 198 225 6 193 220 4 190 216 7 180 205 2 179 202 6 176 199 5 175 198 4 173 196 4 175 198 4 179 203 5 185 210 4 185 210 4 183 207 7 182 206 6 183 208 3 189 215 6 186 211 5 183 206 4 182 209 6 185 213 6 182 210 4 177 201 3 178 201 7 182 210 3 186 214 7 179 203 5 183 211 5 189 212 10 179 202 6 182 207 1 186 211 5 184 212 5 181 209 3 182 206 6 
165 189 5 164 188 6 179 203 5 176 199 7 167 192 4 177 203 6 186 214 5 183 208 5 186 209 7 184 207 3 187 211 3 181 205 5 183 211 2 190 216 5 193 216 4 196 222 1 197 222 7 190 211 8 190 213 8 191 215 5 191 215 7 191 216 3 175 198 4 165 186 7 166 187 8 173 196 4 177 200 4 177 204 3 179 203 3 191 217 8 195 222 5 199 224 8 199 224 8 195 220 4 203 229 6 192 216 6 191 215 7 199 224 9 196 221 6 193 220 3 190 216 5 184 209 6 186 211 6 188 214 5 186 211 6 176 198 2 177 197 4 190 216 5 193 218 5 188 212 4 194 219 6 193 218 5 184 208 8 189 214 11 187 212 7 181 203 7 183 205 6 186 209 5 183 206 4 188 211 6 193 218 5 190 214 6 188 211 6 189 214 9 176 199 5 178 201 5 185 207 10 190 214 4 192 214 5 196 218 9 196 219 7 194 219 6 187 210 6 186 209 4 185 208 3 191 215 5 198 225 8 189 213 5 188 211 7 184 205 4 184 209 6 188 213 10 186 211 8 180 207 4 181 206 1 186 209 5 189 211 12 184 206 10 182 204 5 184 206 7 185 207 8 184 206 7 191 212 9 194 219 3 199 224 8 197 220 6 191 215 5 183 207 7 189 212 10 195 217 10 199 223 7 188 210 3 185 208 6 198 221 7 197 221 13 190 216 5 190 216 5 189 213 5 193 217 7 193 217 7 198 222 12 192 217 11 185 210 5 179 206 5 175 201 6 183 207 9 185 210 4 190 219 7 184 211 10 171 196 6 168 193 5 175 203 7 179 208 6 170 198 2 171 197 4 178 201 5 176 197 8 181 204 8 187 212 6 179 202 8 175 198 6 176 199 5 170 192 6 173 195 6 181 204 8 183 209 12 181 211 3 180 209 3 179 206 7 176 202 9 171 196 6 167 191 7 172 198 5 174 200 3 172 198 3 179 205 8 174 200 7 169 194 4 167 192 4 182 206 8 187 212 9 173 199 6 181 205 5 189 215 6 174 202 6 175 198 4 176 198 1 180 202 6 179 220 154 236 225 223 238 224 223 237 223 222 237 228 221 237 225 225 237 226 222 236 225 219 195 223 183 175 210 6 165 191 4 164 183 3 177 198 5 186 211 6 182 209 6 177 203 6 166 193 4 174 201 2 174 205 6 167 194 5 166 191 3 163 190 1 158 186 5 169 193 9 176 199 5 182 205 3 186 211 6 177 204 5 179 202 6 183 207 9 178 205 4 174 202 3 165 194 6 168 194 7 172 199 6 167 192 2 174 200 7 181 209 10 168 195 6 161 186 7 168 192 10 
182 208 15 170 197 6 169 196 5 173 200 7 171 197 4 172 198 5 175 201 6 183 211 5 186 211 5 177 200 4 175 201 4 169 196 3 164 190 5 174 201 10 183 210 7 185 210 4 185 210 7 180 204 4 177 201 1 174 197 5 168 189 6 163 184 5 162 185 6 168 193 3 169 194 6 168 192 6 175 198 2 179 202 6 176 199 5 166 191 3 178 204 7 191 220 6 181 205 5 171 214 96 242 220 222 237 227 218 237 225 227 237 223 223 238 227 223 237 225 225 237 228 221 223 225 212 181 208 7 177 203 6 169 194 6 182 206 6 183 208 2 169 194 4 175 198 4 186 211 6 181 206 3 178 205 4 184 212 6 188 217 5 182 209 6 181 205 7 175 201 4 174 200 5 177 204 5 169 194 4 170 194 8 180 207 8 184 212 6 184 209 4 184 209 4 186 209 5 185 208 6 177 200 6 172 197 9 173 199 6 185 212 13 185 212 9 177 199 3 175 198 6 176 199 7 172 194 7 171 196 8 174 200 5 176 202 9 173 199 6 169 196 5 180 207 4 183 210 7 177 200 6 178 205 6 181 209 10 184 212 6 190 216 7 190 213 8 189 212 10 178 199 8 179 202 6 182 207 2 179 203 5 186 209 4 196 221 5 189 212 8 184 206 7 185 208 4 187 210 6 187 210 8 181 206 3 188 214 3 201 226 11 195 220 4 189 212 7 192 214 7 195 218 6 198 222 6 196 221 6 189 212 7 183 205 6 185 208 6 180 202 5 185 207 8 185 207 8 185 208 4 198 223 7 197 222 7 184 209 6 175 197 1 175 198 2 191 216 10 200 225 12 198 223 8 199 225 6 199 224 9 196 221 8 193 220 4 191 216 3 185 208 6 185 208 4 184 206 9 192 216 8 191 214 9 193 216 11 192 218 7 193 217 7 201 227 8 191 214 9 181 205 7 188 213 8 188 211 7 190 213 9 192 215 11 198 223 8 198 223 8 188 212 4 188 210 13 193 216 11 201 227 6 204 230 11 185 210 5 172 195 3 180 204 4 183 208 2 183 208 3 184 207 5 190 214 6 193 216 11 193 217 9 195 220 7 191 217 6 188 211 7 190 212 7 189 212 7 187 212 6 189 212 7 178 202 4 177 200 4 184 208 8 188 213 10 186 211 5 190 216 7 182 206 6 175 198 6 183 205 6 188 213 7 181 208 5 180 204 4 185 208 4 186 209 4 189 215 6 193 219 6 187 212 7 180 207 4 182 210 4 180 204 6 180 204 6 175 202 3 177 203 6 184 211 8 191 217 6 182 203 4 170 195 5 182 210 4 197 221 3 192 217 2 183 210 7 179 207 1 193 216 11 
180 208 1 181 208 5 186 209 4 184 206 7 176 202 5 183 210 7 193 218 3 187 210 5 179 203 5 184 209 6 193 220 4 189 213 5 194 219 13 184 209 4 190 216 7 197 222 9 194 221 4 189 215 4 183 206 4 174 195 2 182 210 4 187 215 8 180 202 6 174 197 5 179 201 4 191 215 5 190 214 4 191 217 8 184 209 6 176 199 3 179 201 5 189 212 7 188 211 6 189 212 7 190 214 6 187 210 5 193 217 7 195 220 7 193 217 9 194 218 10 190 214 6 184 207 3 185 208 4 184 209 3 180 204 6 172 195 1 185 207 8 204 230 9 201 227 8 194 216 9 188 210 11 188 211 6 197 222 6 198 223 10 192 215 10 188 213 8 188 214 5 188 213 8 181 204 8 190 216 7 201 227 8 193 219 10 191 217 4 194 217 12 192 215 10 193 217 7 185 208 6 183 206 4 183 206 1 192 217 4 195 221 2 195 220 4 199 224 11 200 226 7 198 223 8 201 228 12 192 218 5 174 197 3 173 194 1 183 206 4 198 223 8 200 224 8 186 207 4 185 207 8 185 208 6 181 203 6 185 208 4 182 204 5 191 214 9 198 223 7 197 223 4 195 220 5 192 216 6 189 213 5 195 220 5 202 227 14 189 215 4 181 205 5 186 209 7 187 210 5 185 208 3 184 207 5 189 212 8 197 221 5 187 210 5 179 202 6 183 208 5 178 201 5 178 199 10 188 210 11 191 214 10 188 216 9 184 211 8 179 208 6 176 202 7 174 200 7 182 210 4 180 207 6 168 195 6 170 197 6 173 200 7 173 199 4 170 194 8 169 190 7 177 200 8 174 197 5 174 197 3 184 213 11 183 210 11 171 196 6 170 194 8 174 200 7 180 204 4 183 208 5 182 206 6 181 206 3 185 212 9 178 204 7 167 191 5 169 191 4 178 201 5 173 199 4 174 202 6 180 204 4 184 209 4 190 216 7 186 211 6 180 204 4 182 207 4 188 213 8 176 199 5 167 192 4 181 205 7 182 206 6 167 194 3 177 200 4 183 203 7 177 201 3 187 225 166 236 224 224 238 227 225 234 222 222 237 226 220 238 224 224 239 220 222 240 225 220 197 225 177 189 220 5 178 202 4 166 186 3 176 197 6 183 207 9 177 204 3 165 191 6 167 194 3 168 193 5 158 181 5 156 179 3 165 189 5 176 202 5 176 203 0 181 205 5 187 210 6 186 214 5 184 212 6 173 198 8 161 186 6 169 196 5 173 201 3 172 198 5 185 209 9 183 210 9 175 201 6 173 199 4 173 199 2 175 203 7 169 196 3 172 198 5 180 207 4 
174 198 14 176 202 7 167 193 6 170 197 6 176 202 5 173 199 4 175 202 3 183 210 7 184 211 8 181 203 7 180 204 6 173 201 5 171 198 5 182 209 6 183 211 2 181 208 5 182 209 6 182 209 6 182 209 6 181 208 7 186 211 5 179 203 5 163 186 7 164 190 3 174 200 3 171 197 2 178 201 7 184 209 3 175 198 2 165 186 5 168 190 3 181 206 3 178 205 6 179 218 137 240 222 222 235 224 218 237 226 222 233 223 221 239 220 222 237 226 222 237 226 220 210 226 200 186 211 6 176 199 7 178 205 4 180 207 6 180 202 5 175 197 10 174 200 7 181 208 5 187 215 6 185 210 5 186 211 6 186 210 2 188 211 6 180 202 3 185 207 8 189 213 5 191 215 5 194 218 8 178 202 2 173 199 6 179 206 5 185 215 7 183 211 5 182 210 1 184 211 8 182 205 9 178 201 7 177 198 5 183 205 6 190 215 10 191 212 9 194 219 6 188 211 6 179 203 5 174 199 9 167 192 4 171 193 4 174 194 9 177 204 3 188 216 9 182 209 6 170 195 5 174 200 7 177 205 7 186 214 7 192 218 9 194 218 8 195 219 9 188 213 7 182 206 8 183 207 7 179 203 5 187 212 9 193 219 8 197 221 11 196 222 13 189 214 8 189 212 7 194 219 6 188 211 6 186 211 5 197 224 8 200 226 7 189 212 8 189 212 7 193 217 9 193 215 6 193 216 4 194 218 8 197 222 6 196 222 3 190 214 6 183 206 4 193 216 11 191 212 9 186 209 7 192 216 6 191 217 4 187 210 6 185 210 5 190 216 7 199 225 12 196 221 8 195 220 5 198 223 10 192 216 6 197 225 3 198 225 6 195 220 5 196 221 8 194 219 6 192 216 8 195 219 9 192 216 8 188 213 7 196 221 8 204 229 5 194 219 3 180 202 5 175 198 4 178 201 5 181 203 4 185 208 6 190 215 2 192 217 4 189 213 3 197 222 7 202 226 10 197 221 3 200 224 8 197 223 4 192 218 9 193 220 4 192 218 5 190 215 9 189 212 8 189 213 5 192 216 6 183 208 5 185 208 4 188 213 7 188 212 4 191 213 6 191 215 5 193 219 8 192 219 3 192 218 7 185 210 7 187 212 6 195 220 7 194 219 4 192 219 3 188 214 5 185 210 7 185 210 5 186 211 8 178 199 6 171 192 3 173 195 6 181 204 8 187 212 6 191 215 7 189 215 6 183 208 2 178 201 7 178 201 5 180 204 4 177 204 3 182 209 6 190 216 7 188 211 6 175 194 4 173 199 4 185 213 4 184 205 6 173 194 5 173 196 4 184 208 8 186 214 5 
191 216 3 186 209 5 183 208 2 190 216 5 193 217 7 189 213 5 189 215 6 189 212 10 186 211 5 190 219 7 185 210 5 189 212 7 187 210 6 175 198 6 183 208 3 191 219 10 186 209 5 183 206 2 177 202 0 174 197 5 178 201 5 186 211 8 185 211 2 187 212 7 189 215 6 193 218 3 197 224 7 197 223 10 187 212 6 185 210 7 190 219 7 192 219 3 194 218 8 191 216 3 190 214 4 188 212 4 189 212 7 186 209 5 183 208 5 192 214 5 188 212 4 187 210 6 192 215 10 192 217 4 195 219 9 193 217 7 198 223 7 201 227 8 197 221 5 202 226 6 198 223 8 191 215 7 192 217 4 190 214 4 186 209 5 180 204 4 177 200 4 175 198 6 177 200 6 194 219 4 203 229 6 195 219 9 189 215 6 192 216 8 198 223 8 193 217 9 193 218 5 196 221 8 195 220 7 199 225 4 198 225 8 193 217 7 200 225 12 196 221 5 197 222 9 200 226 15 189 215 6 185 210 7 188 211 6 192 217 4 192 216 6 185 206 7 190 211 10 193 216 12 180 203 1 192 214 7 197 222 7 198 223 8 195 220 7 194 218 2 194 218 8 195 219 11 189 215 6 190 213 8 203 227 7 200 226 7 187 213 4 189 214 8 193 218 5 191 214 9 189 215 6 199 223 15 198 222 12 195 219 9 189 212 8 179 203 3 183 208 5 181 205 5 188 211 9 196 221 8 195 219 9 191 220 8 187 216 4 179 205 8 173 198 8 171 193 6 183 208 5 185 213 4 177 204 5 172 194 7 167 188 5 165 189 3 174 200 7 178 201 5 189 212 7 196 221 5 192 215 10 193 216 12 184 207 5 178 199 6 178 200 3 182 206 6 187 211 11 182 207 2 182 207 4 186 214 8 178 205 6 170 195 7 180 204 4 197 222 9 192 214 7 191 215 5 183 208 5 179 204 1 191 215 7 188 212 4 188 211 6 185 211 2 190 216 5 185 210 7 174 200 5 176 199 5 180 203 7 182 207 2 176 203 4 174 197 5 186 209 5 188 217 3 197 221 189 237 225 227 237 228 223 233 223 224 237 226 220 236 226 224 235 223 225 236 227 222 185 222 155 179 206 5 166 190 4 162 182 7 176 199 5 186 211 5 178 201 5 172 195 3 174 201 2 166 192 5 162 185 7 176 203 4 184 212 5 183 210 11 182 210 4 185 210 4 187 212 6 184 213 7 185 213 4 185 212 9 171 198 5 174 202 3 183 208 3 181 204 2 186 212 3 182 209 10 174 200 3 174 200 3 178 205 6 172 199 6 169 193 7 176 202 9 171 196 8 
170 192 19 171 196 8 170 197 6 167 194 5 173 199 4 178 205 6 172 198 5 169 194 6 173 201 5 183 205 6 178 202 4 175 201 6 175 201 6 180 202 6 178 205 4 184 209 6 188 211 6 188 211 7 188 213 7 184 212 5 188 214 5 189 214 8 182 204 7 180 202 3 184 208 8 178 202 2 181 208 7 183 211 5 186 214 5 182 206 6 176 199 5 183 208 5 183 210 7 191 222 162 239 222 228 236 225 221 239 226 218 236 227 220 237 221 222 239 225 222 240 225 222 196 223 190 192 219 2 184 208 8 175 201 6 177 203 6 186 209 7 184 209 6 176 199 3 173 198 10 180 204 6 190 213 8 192 218 7 192 216 6 185 209 1 177 200 6 180 204 4 184 206 7 179 201 2 190 214 6 193 218 5 189 215 6 182 207 4 182 206 6 186 210 12 184 207 15 182 209 6 191 217 8 190 213 8 179 201 4 170 192 5 172 198 5 184 208 10 200 225 12 207 228 9 199 219 6 186 207 4 182 206 6 177 200 4 176 199 7 181 204 10 183 207 7 185 210 5 181 205 5 173 195 6 175 201 6 180 206 9 188 211 7 192 216 8 188 210 11 180 202 5 174 196 7 176 199 5 180 205 2 180 205 2 189 212 7 199 223 7 198 223 10 191 217 6 186 209 5 188 210 5 186 209 5 194 219 6 203 229 6 210 233 7 195 220 5 186 211 5 184 208 8 187 210 5 190 212 5 190 211 8 190 214 6 195 217 8 196 220 10 183 205 6 177 200 4 189 214 8 190 215 9 191 215 15 184 209 6 186 209 7 186 211 8 177 201 1 185 210 7 189 214 8 188 211 6 187 210 6 182 207 4 186 209 5 193 217 7 189 213 3 187 210 5 187 210 6 194 220 11 192 218 7 189 214 8 193 217 9 196 221 6 197 222 6 197 223 4 188 211 6 175 196 7 180 201 8 184 209 4 185 210 7 186 211 8 184 209 6 188 213 10 194 218 8 196 221 6 188 212 4 186 209 5 192 215 3 198 220 11 198 221 9 190 214 6 192 217 4 193 218 5 198 223 10 198 223 7 197 222 6 186 211 8 188 211 9 197 220 6 196 221 5 197 222 6 197 222 9 204 232 10 201 228 11 191 217 8 189 213 5 188 211 6 188 211 7 192 216 6 193 217 7 189 215 6 190 214 4 190 216 5 177 200 4 171 193 4 178 202 4 190 214 6 193 219 6 189 215 6 185 210 4 178 201 7 176 199 5 179 201 4 168 190 4 175 201 6 188 214 5 197 223 4 193 220 4 186 211 6 181 203 6 178 205 6 182 210 4 179 203 5 174 200 3 178 202 4 186 215 3 
196 223 7 191 217 6 195 221 8 189 215 6 188 212 4 186 210 2 188 213 7 192 216 6 191 217 4 186 211 8 179 201 4 187 211 3 185 208 3 184 209 6 184 209 6 185 210 5 185 210 7 185 208 6 183 205 8 178 200 4 182 206 6 191 217 6 188 211 6 189 213 5 196 221 5 199 223 7 195 218 6 192 216 8 191 215 5 191 217 8 202 229 12 204 232 8 195 221 8 197 222 6 196 221 5 196 221 6 187 210 8 186 211 6 196 223 6 198 223 8 197 222 9 193 218 5 192 217 4 190 214 4 196 220 10 199 222 10 195 215 6 187 210 6 188 212 4 196 221 8 193 217 7 190 213 9 184 209 6 187 210 8 185 207 8 185 207 8 180 202 6 174 197 5 187 210 6 197 223 4 198 224 3 197 222 6 191 215 7 189 215 6 192 218 7 193 218 12 189 212 7 187 210 5 191 216 3 194 218 10 185 208 4 182 205 3 187 210 5 189 212 8 189 215 6 184 209 4 176 200 2 186 211 6 184 208 8 184 207 5 191 215 15 192 216 8 190 213 8 174 197 3 181 205 7 195 217 10 195 217 8 190 214 6 190 212 7 191 213 6 188 209 8 185 209 9 186 212 3 196 221 5 209 234 8 203 229 6 195 219 9 187 211 3 189 213 5 187 210 5 193 219 6 200 224 14 200 224 6 189 213 5 182 204 8 180 205 2 177 200 6 175 197 8 180 202 3 190 213 11 192 216 8 188 213 8 182 205 9 174 200 7 173 195 6 181 203 4 186 209 5 184 206 7 178 201 9 174 196 7 176 199 5 180 205 2 185 208 3 198 221 9 205 229 11 202 227 14 183 210 9 173 195 6 169 191 2 179 202 6 189 214 9 190 216 7 185 210 7 186 209 15 186 210 12 181 205 7 182 207 4 190 215 9 193 217 7 191 213 6 180 200 4 183 206 4 177 201 3 177 198 5 185 208 3 190 214 6 194 219 6 190 214 4 181 205 5 176 198 11 174 201 2 184 206 7 186 211 6 179 206 7 177 200 8 184 208 8 194 221 4 188 218 6 209 221 197 237 225 225 236 227 218 235 223 225 239 226 220 236 227 220 237 225 227 238 227 221 183 220 140 184 209 6 177 199 2 185 208 6 192 219 3 186 212 3 184 209 6 176 202 5 181 208 7 176 202 5 182 204 5 190 214 6 187 215 6 185 210 4 190 213 8 188 211 7 190 214 6 185 213 4 181 205 5 178 201 7 175 201 4 177 200 4 180 200 4 184 206 7 175 201 6 165 190 2 173 195 6 176 202 7 172 199 6 165 191 4 170 197 6 170 195 7 167 190 11 
170 199 13 171 197 2 182 206 8 173 195 6 164 191 2 180 209 5 178 207 3 180 204 6 173 194 3 177 203 6 180 207 6 173 195 6 171 197 4 167 191 5 167 191 5 167 193 0 177 204 3 188 213 7 188 211 7 184 206 9 190 216 7 190 216 3 183 208 5 180 207 4 180 204 6 157 182 3 164 190 7 181 205 5 186 211 6 189 217 11 177 203 8 183 208 3 186 214 8 196 224 184 234 227 219 234 225 216 237 225 229 234 222 222 237 228 219 238 227 223 240 225 222 184 220 150 187 213 2 192 216 6 184 205 6 170 192 5 173 201 5 187 210 5 186 209 5 178 202 4 181 205 5 183 207 7 184 207 3 191 216 10 181 207 10 174 197 3 174 194 8 178 200 4 182 204 7 178 199 6 176 197 6 179 203 5 188 213 8 186 211 5 181 205 7 182 205 9 196 221 8 201 224 12 204 229 14 195 221 2 184 209 6 177 203 6 177 203 10 181 205 7 198 222 12 203 228 12 194 219 6 187 210 6 194 218 8 189 213 5 180 202 5 178 199 6 185 207 10 183 206 4 185 208 4 187 210 8 185 207 8 178 199 6 179 202 6 186 208 11 187 208 7 185 206 3 186 209 7 183 206 10 175 198 4 176 198 1 187 212 9 188 213 8 187 212 9 187 212 6 193 219 6 184 207 5 182 206 8 189 215 6 196 223 4 194 221 4 196 222 9 195 218 13 189 213 5 199 222 8 195 217 8 183 206 4 187 210 6 192 215 10 188 211 9 183 205 9 185 208 6 195 220 7 201 226 13 190 213 8 179 203 5 185 210 7 186 214 7 191 216 10 193 217 7 190 213 8 186 209 4 186 211 6 189 214 8 186 211 5 183 207 7 182 203 10 185 207 0 191 215 7 184 208 10 177 204 5 184 209 4 195 220 7 199 225 4 204 230 9 198 223 10 186 207 4 185 206 3 190 214 6 197 222 7 189 215 6 179 206 5 187 212 9 191 214 9 190 212 5 184 207 5 174 200 5 178 199 6 187 210 6 188 211 7 186 209 4 187 210 6 196 221 6 204 228 10 196 219 5 195 220 7 191 217 8 188 211 6 192 217 4 189 212 8 189 212 8 183 205 6 199 223 7 207 231 15 199 225 16 189 214 9 183 206 4 177 200 4 185 208 6 195 219 9 192 221 9 188 213 8 180 205 2 185 209 9 186 211 6 189 215 2 195 220 7 190 213 8 186 209 4 185 210 4 185 210 7 184 208 8 174 197 5 171 197 4 183 212 8 193 222 8 197 223 4 187 210 6 177 200 6 170 196 3 177 204 1 190 216 7 186 211 5 180 207 4 187 217 5 
200 226 7 199 224 8 193 216 4 190 212 7 178 205 4 182 211 7 191 217 4 195 223 1 198 224 3 183 211 5 178 201 5 180 202 5 180 204 4 182 206 6 181 203 6 187 210 5 190 214 6 182 206 6 187 213 2 192 218 5 195 220 7 194 219 13 187 212 7 193 217 9 198 224 11 195 219 9 190 212 7 182 205 1 186 210 2 190 216 7 200 223 18 206 232 13 199 223 5 184 206 7 188 213 8 190 213 8 192 217 4 188 211 6 193 217 7 195 220 7 195 218 6 205 229 13 197 222 9 188 211 7 187 210 5 189 212 8 187 210 6 178 200 4 176 199 5 184 209 4 189 213 5 191 214 10 186 211 8 178 207 5 188 216 9 198 222 6 190 214 6 186 207 6 186 208 3 199 224 9 204 230 11 201 227 6 195 220 5 185 210 5 179 203 3 184 208 10 190 213 8 183 206 1 181 204 10 183 208 5 188 211 6 190 213 9 185 210 7 185 208 4 191 215 7 195 219 9 192 217 11 186 214 8 185 210 5 179 203 3 188 213 8 202 229 13 194 221 5 184 209 4 183 207 9 187 212 9 193 216 11 188 211 7 183 206 4 193 217 7 198 223 7 187 211 3 195 218 14 197 222 9 196 222 3 198 224 5 188 213 7 181 205 7 184 207 5 195 220 7 189 214 8 188 213 8 190 215 10 187 211 11 176 198 2 177 199 3 183 206 10 185 207 8 186 209 5 188 209 6 186 208 9 180 204 6 177 198 5 184 206 9 187 210 6 186 209 5 183 206 4 184 206 7 180 202 6 178 202 4 189 212 7 194 218 10 188 210 5 195 218 6 206 230 14 198 223 10 181 204 8 175 201 8 176 202 5 184 208 8 196 222 1 205 228 14 201 226 13 195 222 6 183 206 12 181 205 5 186 211 5 186 214 7 180 204 6 174 195 4 177 198 7 183 205 8 176 199 5 173 193 7 175 198 4 185 208 12 191 216 10 181 206 1 182 206 6 182 206 6 178 202 4 185 210 5 183 211 4 178 198 5 171 191 6 184 205 6 192 216 6 188 214 3 184 207 5 210 224 198 235 224 222 235 224 220 237 228 221 238 227 221 236 226 224 233 225 223 243 225 223 191 220 101 182 207 2 176 202 5 189 217 11 188 211 6 181 205 7 163 189 4 157 182 3 180 204 6 180 207 6 183 208 3 191 215 5 192 217 4 184 206 7 187 210 8 189 215 4 178 205 4 168 193 3 165 191 6 165 191 6 172 195 3 172 194 5 178 207 5 176 202 5 175 194 4 178 205 6 181 206 3 178 210 5 162 191 3 172 192 6 181 205 7 167 197 1 169 195 8 
163 190 15 168 195 4 179 205 8 173 198 8 167 193 6 169 196 5 172 199 8 181 208 9 180 203 7 172 198 3 184 212 6 185 213 6 177 204 5 165 189 3 162 183 4 164 190 7 179 206 7 178 202 4 173 196 2 173 198 10 182 210 4 188 214 5 187 212 6 180 203 7 175 198 2 169 196 5 169 195 8 174 196 7 172 195 3 171 196 6 180 206 11 190 216 7 187 218 3 204 223 193 239 225 225 239 220 224 241 223 223 235 223 227 236 227 218 235 224 218 236 225 221 176 218 120 189 212 10 186 211 6 187 213 4 189 215 6 181 206 3 185 209 9 185 209 11 178 202 4 184 212 5 188 216 7 183 211 5 186 213 12 188 213 10 183 211 2 189 213 5 189 213 3 190 213 9 180 202 3 178 200 4 174 197 5 179 203 3 189 215 6 179 201 4 179 204 1 187 211 11 184 206 9 185 210 5 195 219 11 187 209 0 188 211 6 191 215 7 184 206 7 185 208 6 191 217 8 194 220 11 193 219 6 187 211 1 190 213 9 185 208 3 184 207 3 188 211 9 180 202 6 177 198 5 175 196 3 189 213 5 195 219 11 183 205 6 180 204 6 183 208 3 197 221 11 193 217 9 188 211 6 189 212 10 180 203 7 172 195 3 179 202 6 184 208 10 196 221 6 197 222 9 194 218 10 185 208 3 185 208 3 187 210 5 191 215 5 199 223 13 199 222 17 196 219 7 202 226 8 197 222 9 189 212 7 193 215 8 195 218 6 185 206 5 186 207 8 182 204 7 183 205 8 191 215 7 194 216 7 189 213 5 187 212 7 192 217 11 194 220 7 199 224 11 198 220 11 184 207 3 187 210 6 196 222 9 202 228 9 202 227 11 197 220 6 195 221 2 197 221 11 191 216 13 179 203 3 183 208 5 191 217 6 193 217 7 196 220 12 193 215 6 190 214 6 187 210 8 185 207 8 186 209 5 191 217 6 193 222 8 199 227 5 197 222 6 193 218 5 201 227 6 196 222 11 185 210 5 183 208 5 187 211 11 186 211 5 177 200 6 184 209 6 194 220 7 195 220 5 192 216 6 193 219 8 197 220 15 190 214 4 188 212 2 194 221 5 190 215 2 192 214 9 192 216 6 196 222 3 192 217 2 186 208 9 185 208 6 189 214 8 191 217 4 196 222 3 191 215 7 187 210 6 188 214 5 190 216 5 195 220 7 195 220 7 185 208 4 190 213 8 192 215 3 183 207 7 181 208 5 181 208 5 171 196 8 180 203 7 191 217 6 190 213 8 180 201 2 165 186 5 166 191 3 189 212 7 196 221 5 186 211 5 189 218 6 199 227 5 
198 225 9 187 213 4 183 207 9 183 207 7 180 209 5 181 209 2 186 209 4 194 218 10 189 218 4 181 203 4 178 199 6 186 209 5 192 216 6 189 215 6 181 204 2 192 213 10 184 207 5 177 201 3 191 220 8 202 229 10 198 224 3 195 220 7 188 214 5 190 216 3 196 224 0 194 219 4 191 215 7 186 209 7 190 213 8 197 222 9 196 221 6 192 217 4 192 214 9 191 216 3 192 219 3 190 214 6 192 217 4 196 219 14 194 218 8 192 217 4 195 220 4 195 222 6 185 210 5 178 201 7 186 211 5 186 210 10 182 206 6 184 209 6 196 222 11 199 226 7 193 218 5 196 222 3 199 227 5 194 223 11 187 216 4 186 209 5 184 206 7 186 208 9 191 215 7 193 218 5 196 220 12 193 219 6 191 217 4 182 206 6 179 203 5 192 217 14 197 221 13 195 221 2 197 220 6 202 228 9 203 229 8 196 222 9 187 210 8 184 207 3 198 220 11 199 224 9 194 220 9 193 219 10 188 213 8 189 213 3 194 218 8 191 215 5 183 205 8 182 204 8 185 207 10 186 207 6 195 218 6 194 216 7 189 213 5 198 223 10 202 226 8 197 220 8 198 222 14 199 223 13 190 214 6 187 211 3 185 208 4 185 208 4 194 217 12 197 222 9 197 222 7 183 207 9 178 201 5 171 193 4 180 203 9 189 212 10 188 211 6 193 217 9 196 221 6 184 209 3 181 205 7 182 204 5 194 218 10 189 212 7 174 195 4 177 198 7 179 200 7 188 210 11 184 207 3 187 210 5 189 212 7 187 211 1 192 218 5 195 221 10 192 218 9 186 209 7 185 208 4 190 216 7 188 211 6 188 210 3 196 220 10 187 210 6 184 208 8 188 213 10 179 204 1 179 201 4 189 214 8 181 205 5 173 196 4 179 201 5 181 203 6 189 212 7 190 216 7 188 212 4 184 212 3 187 214 11 186 213 12 182 210 4 187 215 6 186 211 5 180 202 5 186 208 9 185 207 8 181 205 5 189 215 2 188 214 3 183 211 4 188 211 9 179 208 6 215 227 207 239 225 225 239 225 222 237 226 222 237 226 224 236 224 224 236 224 224 237 224 218 191 219 72 190 215 9 179 205 10 170 195 5 172 193 2 173 195 6 170 196 9 170 197 6 176 199 3 181 205 5 188 214 3 188 213 8 185 210 5 175 197 10 172 194 5 178 202 2 179 205 10 164 190 5 160 183 4 165 189 3 178 205 4 186 215 3 184 212 6 172 198 1 180 204 6 182 209 8 175 198 6 169 196 3 169 196 7 176 199 7 179 205 8 168 195 2 162 185 6 
174 198 12 161 184 6 162 186 2 170 195 5 169 193 7 174 200 5 178 202 4 177 200 4 176 203 4 175 200 10 179 203 5 174 201 0 176 203 4 175 198 2 169 191 5 168 195 6 182 206 6 184 208 8 175 198 2 174 200 5 176 203 4 180 205 2 189 211 12 192 217 4 174 195 2 176 203 4 189 218 6 182 207 4 177 198 5 170 192 5 167 192 4 185 210 5 199 224 8 210 224 198 239 225 225 242 223 225 236 225 223 235 224 218 242 224 220 238 227 221 236 227 222 176 215 96 183 207 7 187 210 5 177 204 5 182 207 4 188 212 4 190 215 9 194 218 8 178 200 3 180 206 9 183 212 6 182 211 5 184 208 8 179 201 4 179 202 6 184 207 3 196 221 8 196 223 6 190 214 6 184 206 7 181 206 3 180 204 6 190 214 16 181 204 8 179 205 8 187 212 7 186 210 2 189 214 8 200 225 12 193 215 6 185 207 8 189 212 7 195 219 9 195 220 4 192 216 6 186 210 10 196 222 9 196 221 8 194 217 12 193 218 5 190 214 6 184 207 2 184 206 9 179 200 7 172 193 4 174 197 5 185 210 7 192 218 9 183 208 5 177 200 4 183 205 6 194 218 10 189 212 7 186 209 7 192 215 10 182 207 4 176 199 7 182 203 12 190 213 8 195 218 4 194 217 5 195 218 6 193 215 6 187 210 6 190 213 8 197 221 13 195 217 10 188 210 3 195 218 6 190 213 8 185 208 6 192 219 2 196 222 3 201 224 10 190 214 4 188 212 4 187 212 7 184 207 5 185 208 6 185 209 1 180 202 5 176 199 7 193 216 11 207 232 17 201 225 7 194 219 4 189 212 7 185 209 9 195 220 7 196 221 5 191 215 5 191 217 6 193 219 10 193 219 6 185 208 4 183 207 7 191 217 6 198 225 9 204 226 17 197 219 12 185 208 6 181 203 6 187 208 7 190 215 12 190 216 5 193 218 12 195 221 8 192 216 6 193 216 11 201 227 4 206 232 11 189 212 7 186 211 6 184 210 0 187 210 6 190 213 8 190 216 7 188 214 5 198 222 6 199 225 6 199 226 10 199 223 13 193 218 5 195 220 7 197 224 8 198 223 8 195 219 11 187 215 6 194 219 4 191 215 7 185 207 8 184 207 5 195 222 6 197 227 7 197 223 4 185 208 6 183 206 4 193 217 7 192 216 6 194 221 5 194 221 2 189 214 8 181 205 5 177 198 7 174 200 5 174 201 2 173 196 2 168 187 7 175 196 3 189 215 2 184 212 6 184 207 5 186 211 5 185 210 7 190 214 4 191 215 5 186 214 5 192 218 9 191 215 5 
186 208 1 183 208 5 180 207 4 181 211 3 179 208 6 180 207 4 175 198 6 181 205 7 187 213 4 190 214 6 188 213 7 193 219 8 191 215 7 192 215 3 196 221 8 192 218 7 182 205 3 190 214 6 198 222 6 196 219 5 201 225 5 197 222 9 180 202 6 180 202 3 194 220 1 199 226 9 195 222 3 190 213 9 190 213 8 194 217 12 196 222 3 189 215 4 195 219 11 197 222 6 198 225 9 195 220 7 193 218 3 200 224 14 199 224 9 199 225 4 196 221 5 187 212 6 189 214 8 190 213 8 187 210 5 184 210 0 185 210 5 188 212 4 207 231 11 200 226 3 193 217 9 193 217 7 195 220 7 193 218 12 190 216 3 190 212 13 186 209 5 179 203 5 185 208 6 197 219 14 205 227 20 197 224 8 190 219 5 183 208 5 184 209 4 193 219 6 193 219 8 192 216 6 192 214 5 197 221 5 194 220 7 183 210 9 189 212 7 194 219 4 201 227 8 207 232 17 192 215 10 175 198 6 179 203 5 185 209 1 185 207 8 182 207 2 187 212 7 187 213 4 190 214 4 200 225 10 196 222 3 194 221 4 185 207 8 192 214 7 193 215 6 188 210 5 193 215 8 198 222 12 189 212 8 187 210 5 194 216 7 196 219 7 194 217 5 195 218 4 191 215 7 182 203 10 176 199 7 182 207 4 192 216 8 185 208 6 190 211 8 194 218 10 184 206 7 176 199 3 183 208 5 192 218 9 185 210 7 175 196 5 172 192 6 178 199 10 184 206 7 183 206 1 189 212 7 194 219 6 192 217 11 195 222 6 195 221 8 187 212 9 191 216 3 196 221 5 196 221 6 189 212 7 185 207 8 193 217 9 200 225 12 190 213 8 186 212 3 188 213 7 180 203 7 181 204 8 190 213 17 180 204 4 181 206 3 184 207 5 190 213 8 198 224 5 196 221 8 185 208 4 179 203 5 179 203 3 182 209 8 183 213 5 184 213 7 180 207 8 179 201 2 195 217 8 192 217 12 188 214 5 183 208 5 175 204 0 186 211 8 184 209 6 176 206 22 225 223 211 236 227 220 237 226 220 235 226 221 236 225 221 239 224 227 238 222 223 234 227 209 201 225 49 182 210 4 167 192 4 170 192 5 175 196 3 184 207 5 190 218 9 175 202 3 175 196 3 191 215 7 189 211 12 180 205 2 177 204 3 174 200 5 174 197 3 184 208 8 179 206 7 168 194 7 168 190 4 175 198 2 177 203 6 175 202 3 179 203 3 176 199 7 176 202 5 177 203 6 178 202 4 172 197 7 168 194 7 172 195 3 163 186 7 160 185 6 174 196 7 
193 217 19 176 199 7 170 192 5 174 196 7 176 199 5 184 209 4 183 206 4 182 204 5 182 209 10 193 220 17 190 216 5 181 203 14 186 209 13 183 207 7 173 195 6 177 203 8 189 214 9 192 217 4 190 214 4 185 211 2 186 211 5 187 211 3 186 208 11 197 222 9 192 216 8 183 206 12 189 214 8 187 210 6 191 215 7 189 214 8 172 195 3 169 191 4 182 209 6 207 222 193 234 227 219 238 226 226 237 226 222 237 226 220 242 224 224 236 224 226 234 224 223 189 219 97 174 195 2 174 193 5 179 207 1 179 203 3 163 183 6 167 188 7 179 206 7 181 204 10 184 206 7 188 212 4 187 210 5 187 209 10 187 212 7 183 211 2 179 201 5 169 189 6 182 206 6 193 218 3 187 212 9 191 215 17 188 213 10 178 201 7 179 206 7 179 206 5 183 208 5 188 211 9 182 207 4 190 214 6 198 223 7 192 218 5 192 218 5 201 227 4 205 231 8 197 220 8 187 210 5 182 205 1 177 200 6 182 205 11 196 222 11 197 224 7 192 218 7 192 216 6 188 211 7 182 207 2 170 192 5 160 180 3 163 187 3 183 207 9 192 216 8 188 212 4 183 206 2 184 207 5 188 211 7 194 216 11 191 215 7 185 208 6 186 208 9 181 203 7 195 217 12 196 219 5 197 220 8 198 223 7 188 211 6 184 207 5 193 218 5 203 227 11 192 215 3 192 215 1 195 220 7 192 215 10 188 211 6 197 219 10 207 228 9 201 225 5 195 217 8 194 218 10 193 215 8 189 210 7 180 202 3 177 200 8 176 199 5 177 200 6 190 213 8 198 223 10 189 213 5 192 215 10 187 213 4 194 221 5 196 221 5 191 216 10 187 212 6 184 209 4 184 209 6 189 214 8 179 204 1 183 207 7 194 217 12 203 227 11 204 228 12 191 215 7 183 208 3 183 206 2 184 208 10 190 216 7 193 218 5 184 207 3 180 202 5 188 211 9 194 217 5 196 219 7 184 208 8 175 202 3 179 206 5 185 208 6 183 208 3 177 204 5 178 205 6 181 202 9 186 209 4 199 226 7 201 229 5 190 214 6 188 211 6 187 212 7 190 216 7 203 229 10 205 236 10 199 224 11 190 214 4 193 217 9 192 217 2 191 217 6 191 217 6 187 212 6 180 204 4 177 200 6 185 210 7 189 215 2 191 217 4 191 216 10 181 207 10 169 195 2 173 195 6 181 208 5 184 212 6 176 202 5 171 197 2 185 213 6 202 229 12 193 219 8 191 217 4 196 223 6 196 221 5 192 218 7 192 218 5 196 223 4 198 226 2 
191 217 6 188 207 4 187 210 8 177 204 5 183 213 5 177 203 6 172 194 7 169 191 2 175 198 4 187 213 16 199 226 10 203 229 10 195 222 6 185 213 4 201 226 10 201 227 8 186 214 5 188 214 5 194 222 15 197 227 9 197 222 6 200 226 5 190 214 6 171 196 8 183 211 4 191 217 6 189 215 4 189 214 8 195 220 4 196 221 5 191 215 5 197 223 10 207 235 13 202 228 9 191 216 10 187 212 7 188 211 6 190 214 6 202 228 5 200 226 5 186 209 4 180 203 9 178 205 4 178 205 6 184 207 5 184 209 6 179 206 5 175 202 3 183 207 7 197 217 6 195 217 8 187 210 8 180 202 3 184 207 2 192 216 6 190 216 7 184 208 10 183 206 4 183 208 3 191 215 5 204 228 10 205 229 13 194 218 10 183 208 5 180 202 3 189 212 7 184 209 4 184 209 3 187 213 4 190 215 9 194 221 5 194 220 7 187 213 4 192 217 11 189 213 5 198 223 8 190 213 9 177 200 4 177 200 6 178 201 9 178 202 4 189 210 9 192 216 8 194 218 10 194 218 8 200 224 4 206 227 8 198 220 11 188 211 6 193 216 11 197 220 6 193 216 2 192 214 5 203 227 11 193 218 5 184 207 5 188 211 6 198 223 7 197 219 10 196 219 7 195 216 13 181 202 9 186 208 9 186 208 9 192 216 8 194 216 9 189 212 8 183 206 4 183 206 4 187 210 6 192 216 8 182 206 6 163 187 5 160 180 3 169 191 4 183 208 5 187 210 6 193 218 5 193 217 7 198 223 7 197 222 9 182 205 11 178 200 4 182 205 3 187 208 5 198 221 9 205 229 9 202 228 5 192 218 5 192 218 5 198 225 8 191 215 5 183 206 4 187 212 9 184 209 6 178 205 4 178 205 6 178 201 7 188 213 10 191 214 18 188 211 9 193 218 3 183 206 4 169 189 4 179 201 4 184 212 3 188 213 8 188 211 9 188 211 6 188 212 2 183 208 5 179 205 10 180 207 8 165 190 2 164 185 4 181 203 6 178 207 3 174 193 7 173 196 4 189 216 41 232 223 214 235 228 220 240 226 223 236 227 222 239 224 227 238 226 228 241 223 223 223 223 213 183 213 19 169 191 4 169 195 2 190 216 7 192 216 8 188 211 6 190 215 9 184 207 11 192 216 8 198 223 10 187 209 12 187 211 3 187 212 7 185 210 4 189 213 5 191 216 3 188 213 7 176 202 7 173 195 6 183 205 8 187 210 16 180 205 15 192 216 6 196 221 18 183 211 12 181 204 2 184 207 5 183 210 7 174 200 5 173 195 6 169 193 7 
174 200 5 190 213 9 
188 214 17 178 201 7 178 201 7 170 192 5 168 192 8 185 213 7 188 213 7 175 197 1 172 193 4 178 201 5 186 209 4 193 214 13 198 223 8 189 215 6 177 200 4 186 210 10 191 215 5 193 217 9 191 212 9 184 207 3 190 213 8 191 214 9 185 208 3 185 210 4 195 217 10 193 217 7 193 218 3 194 217 5 191 213 6 191 214 12 188 212 12 174 196 7 171 197 4 206 223 189 233 228 225 235 225 224 235 226 217 237 228 223 238 222 223 235 225 224 234 225 218 196 223 120 191 210 7 185 210 7 185 213 6 192 215 10 192 218 7 184 209 6 181 201 8 169 188 8 181 203 14 188 213 8 188 212 4 190 215 9 185 208 6 195 219 9 203 227 9 184 207 2 181 203 7 185 208 6 184 207 3 188 213 8 191 217 6 185 208 6 189 214 1 177 200 4 175 197 8 191 214 18 176 202 7 171 193 4 178 199 6 177 198 5 180 204 6 189 215 4 200 225 10 201 224 10 201 225 9 190 214 6 181 203 4 176 197 6 180 202 6 188 213 8 189 215 6 194 219 4 197 220 15 194 218 10 186 210 10 177 200 8 162 186 2 172 195 3 188 211 7 193 218 5 187 210 6 174 195 6 180 200 14 189 210 9 190 214 4 194 218 10 188 211 9 180 202 3 187 208 5 193 217 7 188 210 11 192 216 6 195 221 8 192 217 11 195 220 7 192 217 2 192 214 7 198 221 7 193 218 3 191 215 7 182 204 5 184 206 1 193 212 8 194 217 3 192 214 7 188 210 11 190 212 7 192 214 7 189 212 10 189 212 8 187 210 8 181 203 4 191 215 5 193 217 9 190 213 8 188 211 6 182 204 5 188 213 8 201 228 11 195 221 8 186 211 6 182 204 8 179 201 4 181 205 5 180 204 6 179 201 5 187 210 8 189 213 5 187 210 6 184 206 10 186 210 10 187 215 6 190 216 5 197 222 16 195 219 11 186 209 4 188 213 8 189 213 5 199 224 11 201 225 7 196 221 6 187 212 7 182 206 6 196 223 7 197 221 11 195 221 8 182 207 4 183 208 5 186 211 6 182 205 11 190 216 7 194 219 6 187 210 6 174 197 5 174 197 1 183 206 4 191 217 8 188 216 7 188 214 3 192 217 4 189 214 8 190 215 0 190 216 5 179 206 7 179 206 3 178 205 6 179 206 5 189 215 4 191 217 6 184 209 4 183 208 5 175 201 4 168 195 2 178 205 6 183 208 3 182 206 6 177 204 3 186 216 6 192 221 5 193 218 3 185 211 2 185 210 7 190 216 5 193 220 3 195 221 2 197 222 7 191 217 6 183 211 5 
188 211 6 179 203 5 172 199 6 177 204 5 188 211 6 183 203 7 180 203 1 184 209 4 198 225 6 200 226 5 185 208 3 182 206 8 178 204 7 193 217 9 192 214 7 178 205 6 183 211 4 198 228 8 199 226 7 197 223 4 189 214 8 173 199 4 172 198 3 178 201 7 182 209 10 193 219 6 192 217 4 188 211 7 188 214 5 185 210 5 189 215 6 191 216 10 183 206 2 174 197 3 173 196 4 188 211 6 194 219 6 189 215 6 182 205 9 187 210 6 184 209 6 182 206 6 194 220 9 197 221 11 196 223 6 182 206 6 187 212 9 195 220 5 202 226 10 198 223 8 189 213 3 189 214 11 184 207 2 195 219 11 197 222 16 190 216 5 187 216 4 186 210 10 184 206 10 187 210 8 191 214 9 188 209 8 180 202 5 181 203 6 181 205 7 179 201 5 182 204 8 186 211 6 195 221 8 201 228 11 188 213 8 182 205 1 188 211 6 190 214 6 194 218 10 192 216 6 180 204 4 186 211 8 188 213 10 189 212 10 193 215 6 191 213 8 187 209 12 191 213 8 194 217 5 191 213 8 185 207 2 183 206 4 191 215 5 194 217 3 198 221 9 191 213 4 193 218 3 195 220 7 193 216 11 195 221 8 193 217 7 188 211 9 193 217 7 186 209 4 180 202 3 188 211 7 195 219 11 191 216 3 188 209 10 180 200 14 175 196 7 187 210 5 194 218 8 188 211 6 172 195 1 161 184 5 176 199 7 187 211 13 194 217 12 197 220 16 194 219 6 190 213 8 188 211 7 179 201 5 175 196 5 181 203 4 191 213 6 200 223 9 202 225 11 200 223 9 191 215 7 180 204 4 177 198 5 178 200 4 172 194 5 176 202 7 191 214 18 175 197 8 178 200 4 190 215 2 184 209 6 191 217 4 188 213 8 185 208 4 186 208 9 180 202 6 185 208 3 202 226 10 195 219 9 185 208 4 192 216 8 186 212 3 188 213 8 181 204 12 167 188 5 179 202 8 184 208 8 193 219 8 191 214 10 188 213 7 186 209 5 189 211 6 199 222 70 233 226 220 236 226 224 240 225 220 236 226 224 236 225 223 235 228 222 240 224 227 221 223 212 171 202 3 174 197 5 186 210 10 191 214 10 190 212 5 192 217 2 194 219 4 193 218 5 194 216 7 185 210 5 185 208 4 191 214 9 190 213 8 184 207 3 191 213 8 193 217 9 191 215 5 185 210 7 178 200 3 190 214 6 199 224 9 193 216 14 186 210 2 180 202 5 171 193 4 177 197 2 188 211 6 184 212 6 169 193 9 171 193 7 178 201 7 178 201 5 188 211 9 
188 215 14 187 212 7 190 214 6 181 203 4 175 198 6 188 213 8 199 224 9 202 226 8 188 210 5 180 204 6 177 198 9 188 209 6 196 221 6 190 215 9 185 210 5 189 213 3 187 212 6 184 207 3 186 207 6 183 206 4 184 207 2 192 216 8 187 212 6 187 215 6 195 220 7 191 215 5 192 215 10 198 222 6 199 223 3 192 214 9 188 211 9 181 203 4 181 205 5 203 224 191 239 224 231 240 226 226 236 227 220 234 226 223 237 221 222 238 228 219 238 227 221 191 221 157 181 201 6 184 209 4 196 221 6 182 206 6 188 213 7 204 230 11 187 210 5 165 187 1 169 193 11 182 205 11 190 213 8 197 223 14 186 211 8 192 216 8 202 226 8 195 219 11 184 207 3 190 213 9 192 215 10 183 207 7 184 208 10 191 214 9 201 223 14 196 221 6 186 209 5 197 220 16 200 226 13 193 217 9 183 205 6 174 195 4 184 209 6 188 213 7 184 209 4 186 211 6 196 221 5 201 227 8 204 229 6 201 225 7 188 212 4 178 199 8 185 207 8 193 217 9 200 222 13 201 224 12 198 223 8 198 225 9 187 210 6 181 205 5 184 208 8 191 215 7 195 220 5 191 213 4 179 201 2 180 202 6 184 207 5 189 212 7 180 203 1 185 207 8 189 212 7 187 211 1 186 209 5 183 205 8 175 198 4 184 209 4 194 220 7 188 211 7 187 209 13 190 211 10 193 215 8 191 216 3 184 206 9 181 203 6 188 210 13 188 212 4 197 222 7 197 222 7 194 219 4 195 219 9 194 218 10 188 211 7 187 210 8 184 206 7 194 217 12 189 213 3 184 206 9 190 214 4 187 208 9 184 207 5 194 220 7 205 232 13 203 229 10 191 214 2 196 221 6 193 217 9 188 214 3 192 215 3 189 211 4 182 204 5 177 200 4 175 196 7 173 195 6 186 213 14 186 210 10 187 212 7 182 206 6 175 198 4 181 204 8 178 201 5 182 204 7 192 216 6 196 218 9 193 217 7 175 196 7 185 207 10 197 220 16 192 216 8 191 214 9 193 217 7 197 224 7 192 219 2 193 220 4 196 221 8 195 219 11 181 204 10 185 210 7 191 215 5 185 208 4 178 204 7 179 206 3 185 210 5 183 208 5 184 207 5 189 213 5 183 210 7 177 200 6 181 205 5 180 204 6 181 205 5 179 202 6 175 199 1 186 211 5 183 208 5 172 200 1 175 201 4 178 202 4 178 199 6 179 201 5 189 215 6 193 219 6 192 219 3 191 213 6 181 205 5 185 213 7 195 220 5 193 217 7 186 211 5 183 208 5 194 220 7 
199 225 4 192 218 7 188 216 7 185 213 7 202 227 4 195 218 4 189 213 5 198 226 4 204 231 6 199 223 5 187 212 6 184 212 6 186 209 7 189 210 7 185 208 4 183 208 3 190 214 6 191 215 5 192 218 9 189 213 3 182 205 3 177 199 3 174 197 3 173 196 2 190 216 7 192 216 8 183 206 2 183 206 2 185 210 7 176 203 4 181 205 7 183 208 2 191 215 5 184 209 6 182 205 11 194 217 12 195 220 7 193 220 4 191 218 2 197 224 5 191 217 4 191 215 5 193 217 7 198 221 17 185 207 10 174 195 6 193 217 7 196 218 11 191 215 5 183 205 6 178 201 5 179 205 8 176 199 3 182 206 8 187 212 9 184 211 8 187 213 16 173 195 6 175 196 7 177 200 4 181 206 3 187 211 3 192 217 4 188 214 5 192 218 9 196 221 5 191 214 2 204 228 10 206 232 13 196 221 8 184 207 3 186 208 9 191 215 5 185 207 10 189 213 3 194 217 12 184 206 7 188 211 9 187 210 6 193 217 9 195 219 9 195 220 5 198 223 8 197 222 7 188 211 6 189 211 14 181 203 6 185 207 10 190 215 0 193 216 11 191 212 11 187 209 12 187 210 8 195 220 7 184 207 2 177 198 5 183 205 8 185 208 4 188 212 4 189 212 7 185 207 8 181 204 2 189 212 7 184 206 7 179 201 5 179 201 2 190 212 3 197 222 6 191 215 7 184 208 8 181 205 5 188 211 7 198 225 9 198 223 10 200 224 14 200 224 14 193 217 9 185 207 8 178 199 6 188 211 6 202 226 6 204 228 8 200 226 5 197 223 4 187 210 6 185 210 4 188 213 7 185 210 5 174 195 4 182 204 5 193 217 9 201 226 13 198 221 17 186 209 5 197 220 6 200 222 13 190 215 9 183 207 7 184 208 8 191 214 9 190 213 11 185 208 4 195 219 11 202 226 8 191 217 8 186 211 8 197 223 14 189 214 8 182 205 11 171 192 9 166 186 1 187 210 5 203 229 10 190 214 6 182 206 6 197 221 3 185 207 8 181 204 2 189 222 107 238 227 223 234 222 222 242 224 220 237 228 221 237 227 218 236 229 221 238 224 224 216 224 201 180 207 4 180 202 3 189 212 10 192 214 9 198 222 2 198 223 7 192 215 10 190 214 4 195 220 7 187 215 6 188 213 7 190 216 5 183 206 2 183 205 6 186 207 6 184 207 2 188 214 5 189 212 7 185 210 5 191 216 10 196 221 8 187 210 8 177 198 7 181 203 4 187 210 6 201 225 9 199 224 11 189 214 8 174 196 9 181 203 6 190 216 7 188 213 8 
187 212 7 
184 207 15 184 208 10 188 211 6 193 218 5 190 214 6 191 215 7 188 211 9 192 214 9 194 216 9 185 208 4 174 196 0 178 200 3 186 211 8 187 212 7 189 213 5 188 211 7 190 217 1 199 224 8 188 212 4 175 198 6 178 201 9 184 209 4 178 201 5 175 198 4 179 202 8 185 208 6 188 211 7 196 220 12 202 225 11 199 223 5 195 218 4 193 217 7 187 217 7 196 221 181 241 222 228 237 225 227 242 224 222 234 222 226 234 224 222 237 226 220 237 223 220 199 223 191 188 213 7 179 201 2 186 209 7 182 207 2 174 200 3 190 213 8 191 215 5 182 206 6 178 204 11 178 204 11 176 203 2 180 204 4 178 199 8 184 206 9 195 217 10 193 216 11 185 208 6 174 195 6 182 204 8 183 208 3 187 210 14 189 211 12 187 209 12 190 214 4 193 215 6 194 217 3 195 220 7 196 221 8 197 222 6 184 209 4 181 205 5 192 217 11 188 213 10 182 206 6 185 210 5 185 207 8 182 205 3 196 219 7 191 214 9 184 208 8 180 203 7 180 203 7 191 213 14 183 205 9 186 209 7 189 214 9 195 220 7 196 221 6 189 211 12 182 203 10 193 217 7 198 221 7 192 215 11 190 213 11 191 215 7 195 218 13 188 211 6 190 214 6 198 222 12 189 210 9 188 211 7 186 208 9 175 196 7 177 198 5 183 205 8 178 200 3 183 206 4 191 215 7 199 221 12 203 226 12 193 212 6 190 211 12 186 209 4 193 216 4 207 227 16 209 230 11 205 227 5 190 212 5 192 216 6 196 220 10 188 210 5 187 209 2 195 219 9 193 217 9 181 203 4 190 212 5 191 215 5 186 210 2 185 207 8 190 213 8 205 231 8 199 224 8 187 211 3 191 214 10 194 218 10 199 224 8 196 221 5 191 215 7 189 213 5 191 215 7 186 209 5 184 207 5 189 212 7 189 215 4 191 216 10 190 216 7 192 219 2 190 216 7 181 205 7 183 208 5 184 208 10 188 210 11 183 208 5 178 205 6 182 209 8 189 212 8 186 211 6 180 207 4 177 203 8 183 210 7 189 214 9 186 209 5 189 212 7 191 214 9 194 220 9 199 224 11 191 217 6 183 208 5 181 204 8 180 204 4 184 209 6 185 208 4 190 213 8 189 215 2 191 215 7 184 209 6 177 200 8 173 199 4 179 203 3 186 210 10 184 209 6 184 209 6 180 204 6 172 198 5 168 193 5 170 195 5 186 210 10 194 220 7 200 225 9 200 225 10 196 221 8 194 219 13 193 222 6 191 215 5 182 207 4 182 209 6 186 215 1 
191 217 6 189 212 7 188 211 7 175 202 3 182 209 8 199 224 9 191 215 5 195 221 8 208 236 11 206 233 6 190 214 6 176 198 9 168 193 3 177 200 6 183 208 5 182 206 6 189 210 7 194 218 8 196 221 8 197 221 11 189 215 4 182 209 6 176 204 5 184 208 8 201 226 11 199 225 6 195 220 5 191 216 3 186 209 5 177 201 3 178 201 5 183 207 7 190 216 7 198 223 10 195 221 8 190 213 8 189 212 8 186 209 5 189 214 9 187 211 11 179 202 6 180 207 6 186 211 8 189 212 10 182 209 8 178 205 6 183 208 5 188 211 9 183 207 7 182 207 4 182 204 5 190 214 6 193 220 4 190 216 7 190 215 9 191 216 3 187 212 6 183 208 5 186 209 4 191 215 7 189 214 8 190 216 7 195 220 4 199 224 8 192 218 9 191 214 9 187 211 3 200 224 8 206 231 8 190 213 8 186 208 9 186 209 4 191 215 7 189 213 3 181 203 4 193 217 9 195 218 13 187 211 3 188 210 5 196 220 10 192 216 6 189 211 6 205 226 7 210 231 12 207 227 16 193 216 2 186 210 2 190 210 14 193 212 8 202 227 12 199 224 11 191 215 5 183 205 6 178 200 4 185 207 8 176 198 2 174 195 6 185 208 6 188 211 7 187 210 8 198 223 10 190 214 6 188 211 6 195 218 13 191 214 9 190 213 11 192 215 10 198 223 10 193 217 9 182 203 10 189 211 12 197 222 7 195 220 5 189 214 8 186 209 7 184 206 10 190 213 11 180 204 6 179 203 5 184 209 6 190 213 8 196 219 7 182 204 5 185 208 6 185 210 4 181 205 7 189 214 11 191 217 8 182 206 6 185 208 6 196 221 5 196 220 10 195 220 5 194 217 3 193 215 8 190 214 4 186 209 13 188 212 12 187 211 13 182 207 2 181 203 7 174 194 8 185 208 4 193 216 11 195 217 10 184 206 9 178 199 8 180 204 4 176 203 2 178 204 11 180 203 11 182 204 5 192 214 5 190 213 8 176 199 5 182 207 2 187 208 7 180 202 5 185 215 7 196 221 163 240 225 222 238 222 225 241 226 223 236 227 220 236 224 226 238 227 221 236 227 220 205 225 197 188 216 9 193 217 9 195 218 4 200 224 8 202 225 11 195 219 11 188 211 7 185 207 8 179 202 8 175 198 2 178 202 4 184 209 4 178 201 7 175 198 6 188 212 4 199 224 9 191 215 5 187 210 5 187 212 6 187 212 9 186 211 6 178 200 1 175 196 3 186 209 5 194 216 7 191 214 9 189 212 10 191 217 8 190 214 4 192 218 5 187 212 6 
183 207 7 180 204 6 
188 214 17 180 207 6 180 208 2 190 215 9 193 216 11 190 214 4 190 214 4 194 221 4 195 220 5 186 209 7 177 197 2 171 193 7 173 201 5 181 205 5 185 208 3 184 209 6 189 213 5 194 219 6 191 216 1 177 201 3 187 212 9 194 218 8 196 221 5 189 213 5 176 202 7 180 203 7 187 210 5 201 227 8 200 224 6 204 226 4 195 218 4 193 217 7 187 212 6 185 222 152 239 224 227 232 228 217 239 226 218 234 222 222 236 225 223 239 225 222 234 224 223 216 221 199 191 222 4 189 213 3 176 199 7 182 199 5 182 204 7 180 206 9 191 214 18 193 218 12 198 221 16 198 223 18 194 220 11 188 212 4 181 203 4 184 208 10 189 213 3 188 211 6 193 216 11 186 210 2 176 197 4 170 191 8 175 198 4 176 199 3 171 192 3 166 187 6 167 188 5 166 185 5 168 189 8 182 206 8 190 213 8 190 213 9 182 209 6 187 211 11 189 212 8 186 209 4 187 209 10 192 215 10 184 207 5 175 198 2 177 200 4 173 200 1 167 192 4 168 192 6 177 201 3 170 191 2 165 186 3 179 203 3 197 220 15 198 222 14 188 209 10 175 194 4 177 199 3 194 219 14 201 225 15 194 217 3 185 210 5 183 208 5 186 210 10 191 215 5 204 228 12 206 230 14 200 223 11 198 221 7 198 221 7 188 211 7 182 204 7 182 204 8 178 199 6 181 203 6 194 217 12 201 226 11 194 217 5 186 210 2 186 210 10 184 207 3 193 215 10 202 222 13 204 228 10 199 224 8 188 211 6 191 214 12 193 217 7 189 213 3 202 228 9 203 229 10 184 207 5 185 207 10 197 223 12 196 222 11 198 223 8 194 218 10 190 216 5 196 222 11 195 220 7 198 223 10 201 226 13 210 237 18 201 228 9 192 216 8 191 213 8 191 215 5 189 213 5 182 200 2 184 205 4 189 212 10 187 212 7 185 210 5 190 216 7 204 230 11 210 236 17 192 218 9 181 203 4 183 203 7 189 213 5 181 211 1 176 202 5 190 213 8 199 224 8 191 220 4 189 217 11 195 223 17 191 217 6 191 215 7 193 215 10 190 213 8 191 215 7 196 221 6 192 221 5 182 204 5 184 206 7 184 209 3 183 206 4 180 204 6 188 213 8 188 210 3 185 208 6 185 208 6 181 205 5 179 206 7 181 208 7 179 206 7 180 207 4 189 217 8 185 213 7 181 208 7 183 210 7 187 213 4 186 209 4 189 214 11 197 223 12 191 217 4 177 204 5 182 206 8 178 201 7 172 198 5 169 196 7 175 203 5 
181 208 5 179 202 6 184 209 6 186 209 13 175 203 7 182 211 5 195 220 5 195 220 5 199 224 8 200 224 6 191 213 6 173 200 1 166 193 2 169 195 8 170 196 3 184 209 3 187 210 5 192 218 7 206 230 10 197 222 6 191 214 9 182 207 4 178 205 6 185 213 6 192 218 7 197 221 5 199 223 5 192 214 7 183 205 9 185 210 5 182 204 7 180 203 0 181 205 7 194 220 7 196 221 5 190 216 7 190 213 8 192 215 10 191 215 7 191 217 6 195 223 17 189 217 11 191 221 3 200 226 7 192 214 9 176 202 7 182 210 3 189 212 7 184 204 9 181 203 6 192 218 7 210 235 19 205 229 11 190 216 5 185 210 5 188 211 7 190 211 10 183 206 4 182 200 4 190 212 3 191 215 5 191 212 9 192 216 6 201 228 9 209 236 19 201 226 13 199 222 8 195 220 7 196 222 11 190 216 7 192 218 7 198 223 7 197 221 11 197 223 12 185 207 8 185 208 4 202 229 12 202 228 9 190 214 6 193 218 5 191 214 12 187 210 5 199 225 6 205 229 11 201 220 14 193 214 11 184 207 3 186 210 10 186 210 2 194 217 5 201 226 11 194 217 12 181 203 6 177 198 5 182 204 7 183 205 8 188 211 9 198 223 7 198 221 7 200 223 11 207 231 15 203 228 12 191 215 5 187 211 11 183 207 7 185 210 7 194 216 7 201 226 13 194 219 14 178 199 6 174 195 4 188 209 8 199 221 14 198 221 16 179 203 5 164 185 2 170 190 4 177 200 4 167 191 5 168 193 5 172 198 1 177 200 6 176 197 4 184 207 3 192 215 11 187 208 9 187 209 4 189 212 10 187 211 13 182 209 8 191 212 11 190 213 8 182 205 9 168 189 8 165 186 5 168 188 5 165 186 3 171 193 4 176 199 5 175 198 4 168 189 8 176 197 4 186 209 4 192 216 8 188 211 6 189 214 1 185 207 10 181 203 4 188 211 6 195 219 11 198 223 20 196 221 15 190 218 11 189 215 18 183 205 6 179 205 8 179 200 9 178 200 4 189 213 3 191 222 4 220 224 207 235 224 218 236 227 222 236 227 218 236 226 227 240 225 230 242 224 220 236 225 219 192 224 175 185 213 6 193 217 7 195 219 3 204 226 4 200 224 4 201 226 10 188 212 4 180 203 7 178 201 7 188 211 6 196 221 5 193 219 10 185 212 9 177 201 3 191 216 3 193 218 3 189 213 3 185 208 4 183 208 3 179 206 7 174 200 5 171 193 6 176 198 2 186 209 7 195 220 5 195 222 5 189 215 4 190 214 6 193 217 9 
190 216 7 181 208 5 179 206 3 186 211 8 
183 203 20 182 206 6 186 214 5 191 216 10 195 220 7 181 206 3 176 202 5 182 212 2 194 224 6 195 221 12 186 210 2 172 194 5 164 188 4 161 185 3 171 196 6 183 205 6 185 210 7 186 209 7 188 211 6 183 206 4 178 202 2 182 206 6 186 211 8 193 217 7 193 218 5 179 199 4 168 188 2 178 199 8 181 203 4 182 205 1 184 207 3 186 209 5 188 210 5 188 220 113 239 222 228 235 227 224 231 226 220 238 227 223 239 226 220 235 228 222 235 228 220 220 223 206 189 211 4 193 222 6 194 217 5 192 217 12 191 217 6 184 211 8 186 213 10 182 204 5 186 208 9 194 220 7 189 211 2 188 209 10 197 221 11 200 226 7 198 223 8 195 219 9 195 220 4 191 216 3 188 214 5 191 216 11 180 203 7 184 208 8 191 216 3 190 213 9 186 210 10 178 201 5 166 187 8 174 196 7 181 202 13 175 196 3 179 203 5 189 212 8 200 223 11 195 217 10 186 208 9 188 211 7 184 206 7 178 199 6 176 197 6 168 190 1 177 199 10 179 202 8 178 201 5 173 195 6 161 181 6 164 188 6 189 214 11 188 213 10 188 211 9 189 213 5 180 202 3 181 202 11 199 224 11 198 224 5 182 204 8 179 201 2 182 205 9 180 203 7 181 203 4 198 221 9 198 217 11 197 215 5 199 220 5 192 213 10 192 216 6 195 219 9 190 213 8 187 208 7 189 210 7 189 212 7 197 223 12 196 221 6 191 215 7 195 216 13 197 222 9 188 211 6 182 203 4 194 212 12 191 214 10 182 205 11 177 203 6 185 210 7 193 216 11 200 225 10 196 221 8 186 207 8 190 213 9 192 215 10 190 216 5 186 214 5 182 209 6 186 212 3 194 219 6 194 219 6 192 216 8 191 215 5 200 225 12 190 212 5 188 211 9 195 219 9 191 215 7 187 208 7 181 203 6 187 212 7 190 215 9 188 211 9 188 210 11 193 217 9 204 230 11 210 235 11 194 219 6 172 193 2 178 202 4 190 216 3 185 210 7 175 198 4 191 216 10 196 220 10 197 222 7 206 232 9 205 234 6 194 221 5 195 221 10 198 223 10 190 214 4 196 221 5 198 229 4 191 217 6 188 211 7 192 215 10 186 208 9 178 201 7 179 203 3 180 204 4 180 202 6 175 198 4 170 192 5 170 196 3 175 198 4 170 192 5 175 198 4 185 210 5 179 201 5 177 200 4 182 206 6 175 202 3 179 206 3 182 206 6 184 212 6 190 216 5 188 211 7 182 205 3 179 201 4 173 195 6 171 196 8 172 197 7 178 205 6 
180 204 4 188 213 8 177 204 1 178 204 7 187 211 11 181 204 2 192 214 7 190 216 5 180 209 3 186 211 5 187 212 7 181 205 5 181 204 8 183 210 9 187 215 6 193 219 6 196 221 6 192 217 4 186 209 5 184 209 6 183 208 3 179 203 5 176 200 2 187 212 6 187 212 7 186 209 5 176 200 2 177 200 6 191 216 10 199 224 11 187 210 6 191 217 8 199 230 5 196 221 5 190 214 4 198 223 10 195 221 10 194 221 5 205 234 6 206 232 9 197 222 7 196 220 10 191 216 10 175 198 4 185 210 7 190 216 3 178 202 4 172 193 2 194 219 6 210 235 11 204 230 11 193 217 9 188 210 11 188 211 9 190 215 9 187 212 7 181 203 6 187 208 7 191 215 7 195 219 9 188 211 9 190 212 5 200 225 12 191 215 5 192 216 8 194 219 6 194 219 6 186 212 3 182 209 6 186 214 5 190 216 5 192 215 10 190 213 9 186 207 8 196 221 8 200 225 10 193 216 11 185 210 7 177 203 6 182 205 11 191 214 10 194 212 12 182 203 4 188 211 6 197 222 9 195 216 13 191 215 7 196 221 6 197 223 12 189 212 7 189 210 7 187 208 7 190 213 8 195 219 9 192 216 6 192 213 10 199 220 5 197 215 5 198 217 11 198 221 9 181 203 4 180 203 7 182 205 9 179 201 2 182 204 8 198 224 5 199 224 11 181 202 11 180 202 3 189 213 5 188 211 9 188 213 10 189 214 11 164 188 6 161 181 6 173 195 6 178 201 5 179 202 8 177 199 10 168 190 1 176 197 6 178 199 6 184 206 7 188 211 7 186 208 9 195 217 10 200 223 11 189 212 8 179 203 5 175 196 3 181 202 13 174 196 7 166 187 8 178 201 5 186 210 10 190 213 9 191 216 3 184 208 8 180 203 7 191 216 11 188 214 5 191 216 3 195 220 4 195 219 9 198 223 8 200 226 7 197 221 11 188 209 10 189 211 2 194 220 7 186 208 9 182 204 5 186 213 10 187 212 6 191 216 10 192 215 11 193 218 3 195 222 6 187 216 10 231 224 208 237 228 231 236 224 226 236 227 222 241 222 224 239 225 222 235 225 216 239 225 225 184 224 125 188 210 3 186 209 5 184 207 3 182 205 1 181 203 4 178 199 8 168 188 2 179 199 4 193 218 5 193 217 7 186 211 8 182 206 6 178 202 2 183 206 4 188 211 6 186 209 7 185 210 7 183 205 6 171 196 6 161 185 3 164 188 4 172 194 5 186 210 2 195 221 12 194 224 6 182 211 5 174 202 4 181 206 3 196 221 8 192 217 12 
186 214 7 181 206 3 180 200 7 
180 202 15 176 199 3 181 205 5 183 211 4 186 211 5 176 197 6 169 190 7 167 193 8 183 207 7 191 216 11 196 223 7 183 208 3 179 201 12 177 200 8 175 198 2 184 207 5 198 221 9 190 214 4 190 214 6 195 220 7 185 208 3 174 196 0 172 193 4 173 193 7 184 211 12 189 214 9 182 204 7 183 205 9 183 205 6 183 206 4 182 204 5 180 204 6 182 206 8 187 217 71 233 225 222 235 224 218 235 227 225 236 227 222 238 223 218 233 223 221 236 226 225 224 225 211 185 210 4 185 208 6 189 212 7 191 215 7 188 216 7 192 215 11 195 221 8 187 211 3 181 203 4 191 217 8 189 214 8 185 208 6 188 213 10 196 221 16 202 228 15 194 218 10 197 221 11 199 223 15 185 208 4 190 216 7 190 214 6 182 204 5 183 205 8 193 218 5 183 205 6 185 210 5 191 216 13 188 210 14 183 205 9 178 199 6 178 202 4 182 207 2 196 221 8 200 223 9 193 216 4 196 219 17 193 217 9 196 220 10 194 214 18 189 211 15 184 206 7 184 206 9 188 209 8 190 212 7 183 205 6 172 193 4 178 202 4 193 216 11 189 212 8 183 206 4 184 206 9 186 209 5 188 212 4 199 225 6 188 211 7 179 201 4 178 202 2 188 212 14 186 211 8 187 210 5 190 212 7 188 209 6 185 208 4 176 199 5 181 208 5 196 221 8 196 219 7 199 224 8 204 228 10 199 222 10 196 220 12 193 217 9 188 211 6 189 212 7 193 217 9 195 220 4 190 213 8 191 213 6 196 218 9 191 214 9 171 193 6 176 198 11 189 210 17 185 209 11 191 217 6 193 216 11 193 218 5 193 217 7 198 223 7 193 219 6 183 208 5 185 210 7 187 210 5 187 210 6 177 201 3 183 207 7 196 222 9 201 227 6 198 224 5 198 223 7 202 229 4 196 219 5 188 211 7 186 211 6 191 217 6 194 218 10 191 215 7 191 215 7 195 220 7 206 231 8 207 234 7 193 217 7 184 209 6 188 213 7 189 214 8 184 209 6 184 207 3 191 214 9 176 203 2 182 206 8 195 221 10 188 217 5 182 212 4 187 217 5 193 222 6 198 223 7 195 224 10 187 212 6 182 205 1 193 217 7 196 221 8 188 214 5 184 209 3 184 209 4 185 208 6 182 206 6 178 201 7 181 205 7 183 208 3 185 208 6 190 213 9 186 209 5 189 210 9 186 209 7 185 208 3 188 213 7 191 217 6 194 219 6 196 222 9 200 225 10 197 222 6 186 211 8 183 208 5 180 205 2 187 212 7 177 201 1 176 199 3 
181 208 5 186 211 6 187 212 9 194 220 7 193 218 5 195 220 7 194 219 3 185 210 4 188 216 9 203 229 8 193 219 8 180 204 4 180 205 2 185 210 7 194 219 6 195 220 4 189 213 5 188 214 3 194 221 5 182 207 2 186 211 6 179 203 5 183 206 12 197 223 10 191 218 2 189 214 9 184 209 6 194 218 8 206 230 12 196 215 9 182 203 4 187 212 6 195 224 10 198 223 7 193 222 6 187 217 5 182 212 4 188 217 5 195 221 10 182 206 8 176 203 2 191 214 9 184 207 3 184 209 6 189 214 8 188 213 7 184 209 6 193 217 7 207 234 7 206 231 8 195 220 7 191 215 7 191 215 7 194 218 10 191 217 6 186 211 6 188 211 7 196 219 5 202 229 4 198 223 7 198 224 5 201 227 6 196 222 9 183 207 7 177 201 3 187 210 6 187 210 5 185 210 7 183 208 5 193 219 6 198 223 7 193 217 7 193 218 5 193 216 11 191 217 6 185 209 11 189 210 17 176 198 11 171 193 6 191 214 9 196 218 9 191 213 6 190 213 8 195 220 4 193 217 9 189 212 7 188 211 6 193 217 9 196 220 12 199 222 10 204 228 10 199 224 8 196 219 7 196 221 8 181 208 5 176 199 5 185 208 4 188 209 6 190 212 7 187 210 5 186 211 8 188 212 14 178 202 2 179 201 4 188 211 7 199 225 6 188 212 4 186 209 5 184 206 9 183 206 4 189 212 8 193 216 11 178 202 4 172 193 4 183 205 6 190 212 7 188 209 8 184 206 9 184 206 7 189 211 15 194 214 18 196 220 10 193 217 9 196 219 17 193 216 4 200 223 9 196 221 8 182 207 2 178 202 4 178 199 6 183 205 9 188 210 14 191 216 13 185 210 5 183 205 6 193 218 5 183 205 8 182 204 5 190 214 6 190 216 7 185 208 4 199 223 15 197 221 11 194 218 10 202 228 15 196 221 16 188 213 10 185 208 6 189 214 8 191 217 8 181 203 4 187 211 3 195 221 8 194 215 14 189 217 10 191 214 9 189 212 7 185 210 5 186 216 70 236 225 221 236 227 222 236 225 223 234 227 221 235 225 223 236 229 223 231 227 218 238 225 219 189 216 59 181 205 7 180 204 6 182 204 5 183 206 4 183 205 6 183 205 9 182 204 7 189 214 9 184 211 12 173 193 7 172 193 4 174 196 0 185 208 3 195 220 7 190 214 6 190 214 4 198 221 9 184 207 5 175 198 2 177 200 8 179 201 12 183 208 3 196 223 7 191 216 11 183 207 7 168 192 8 169 189 4 176 197 8 186 211 6 182 209 6 179 206 5 
175 198 2 177 201 3 
185 211 16 184 212 5 179 206 7 186 214 8 187 213 4 183 203 7 178 198 3 171 194 2 179 202 6 187 210 6 189 214 8 195 224 10 198 222 12 194 218 10 196 222 9 191 214 10 193 215 6 195 218 6 189 212 7 198 223 10 201 224 10 191 213 8 192 217 4 178 201 5 171 197 2 185 209 11 186 208 9 179 201 5 187 210 8 192 216 8 189 212 8 188 211 9 187 215 6 185 212 35 231 227 216 235 226 217 236 228 226 236 224 226 241 226 223 238 224 224 236 224 224 228 227 209 192 212 35 182 207 2 165 189 5 176 196 3 186 216 6 187 208 9 182 205 3 189 213 3 180 202 5 178 201 5 181 208 9 188 214 3 188 211 9 181 205 7 183 208 5 191 216 10 194 220 9 191 215 7 184 206 10 185 207 8 194 219 4 191 213 6 184 206 9 183 205 6 177 198 5 179 201 5 188 212 4 192 215 11 194 218 10 181 203 6 179 201 12 185 211 14 183 206 10 189 210 9 198 221 9 197 221 13 198 222 12 209 234 11 210 230 17 201 225 9 197 221 5 203 225 16 209 229 16 199 219 10 185 206 3 179 199 4 173 194 5 178 200 4 193 216 11 191 214 12 190 213 11 195 219 11 202 226 16 207 232 17 197 221 11 191 214 12 193 217 9 187 211 3 183 206 4 183 206 4 192 216 8 192 216 8 185 210 7 180 203 11 176 198 9 181 205 5 182 206 8 186 209 5 192 214 7 200 222 15 199 222 10 196 220 10 195 220 7 202 226 10 199 222 8 192 216 8 196 220 12 188 213 7 191 212 9 204 228 8 191 212 13 170 189 9 174 197 5 177 201 3 180 204 4 187 212 7 193 217 9 192 215 10 193 217 9 197 222 9 193 219 8 186 211 6 183 208 5 184 209 6 182 207 2 186 211 8 187 212 9 193 218 3 198 222 12 196 222 11 198 223 8 195 217 10 198 222 6 198 221 16 178 201 7 183 205 8 192 215 10 187 210 5 183 206 2 189 213 5 197 222 7 199 224 8 189 212 7 181 205 7 189 213 13 191 216 10 189 213 5 192 217 4 197 222 9 194 220 7 189 217 10 184 211 10 181 205 7 179 204 1 191 216 10 198 224 11 199 226 9 188 213 7 182 207 4 187 210 5 191 216 10 189 215 6 184 209 3 184 208 10 185 210 5 191 217 8 191 217 8 191 215 7 196 221 6 200 225 9 191 215 5 182 207 4 192 216 6 195 220 4 186 211 6 190 214 6 194 218 8 187 210 8 188 211 6 192 217 2 190 213 8 178 201 5 182 205 9 183 207 7 189 213 3 
198 224 3 192 218 5 191 220 8 192 218 7 193 219 6 191 214 9 197 223 4 208 235 10 185 207 10 179 202 6 200 226 17 196 220 10 187 211 1 184 209 3 183 208 2 189 213 5 198 223 8 198 223 10 195 220 7 192 216 8 187 210 5 187 210 8 187 210 5 189 214 1 202 226 16 196 220 10 190 216 7 190 213 9 192 217 4 197 222 6 197 221 11 182 204 7 178 200 4 188 212 4 200 227 10 198 224 11 191 216 10 179 204 1 181 205 7 184 211 10 189 217 10 194 220 7 197 222 9 192 217 4 189 213 5 191 216 10 189 213 13 181 205 7 189 212 7 199 224 8 197 222 7 189 213 5 183 206 2 187 210 5 192 215 10 183 205 8 178 201 7 198 221 16 198 222 6 195 217 10 198 223 8 196 222 11 198 222 12 193 218 3 187 212 9 186 211 8 182 207 2 184 209 6 183 208 5 186 211 6 193 219 8 197 222 9 193 217 9 192 215 10 193 217 9 187 212 7 180 204 4 177 201 3 174 197 5 170 189 9 191 212 13 204 228 8 191 212 9 188 213 7 196 220 12 192 216 8 199 222 8 202 226 10 195 220 7 196 220 10 199 222 10 200 222 15 192 214 7 186 209 5 182 206 8 181 205 5 176 198 9 180 203 11 185 210 7 192 216 8 192 216 8 183 206 4 183 206 4 187 211 3 193 217 9 191 214 12 197 221 11 207 232 17 202 226 16 195 219 11 190 213 11 191 214 12 193 216 11 178 200 4 173 194 5 179 199 4 185 206 3 199 219 10 209 229 16 203 225 16 197 221 5 201 225 9 210 230 17 209 234 11 198 222 12 197 221 13 198 221 9 189 210 9 183 206 10 185 211 14 179 201 12 181 203 6 194 218 10 192 215 11 188 212 4 179 201 5 177 198 5 183 205 6 184 206 9 191 213 6 194 219 4 185 207 8 184 206 10 191 215 7 194 220 9 191 216 10 183 208 5 181 205 7 188 211 9 188 214 3 181 208 9 178 201 5 180 202 5 189 213 3 182 205 3 185 209 11 189 215 4 173 196 2 165 189 5 178 207 5 192 219 166 233 224 219 237 226 222 236 225 223 234 224 222 234 225 218 238 223 220 232 225 219 223 225 211 183 208 5 189 212 7 188 211 9 189 212 8 192 216 8 187 210 8 179 201 5 186 208 9 185 209 11 171 197 2 178 201 5 192 217 4 191 213 8 201 224 10 198 223 10 189 212 7 195 218 6 193 215 6 191 214 10 196 222 9 194 218 10 198 222 12 195 224 10 189 214 8 187 210 6 179 202 6 171 193 4 177 199 3 
183 203 7 187 213 4 186 214 8 179 206 5 186 211 6 182 206 8 
186 207 24 181 205 5 182 209 6 187 213 2 188 211 6 186 209 7 185 208 4 186 209 7 177 200 6 175 196 3 162 183 2 172 197 7 188 212 4 182 204 7 185 213 4 197 223 10 197 222 9 187 211 1 186 209 4 187 211 3 190 213 9 189 213 5 190 215 9 190 216 7 192 217 4 190 212 3 183 205 8 174 196 7 178 201 7 185 208 4 196 219 5 193 216 2 197 221 5 200 222 15 223 225 214 240 225 220 236 225 221 234 225 220 236 227 222 236 227 228 236 225 221 234 225 220 193 219 57 186 208 11 178 201 5 173 195 8 182 205 3 183 208 5 178 200 3 180 204 4 172 194 8 161 182 1 177 203 10 190 214 4 185 203 5 179 200 7 182 206 6 181 205 5 187 212 7 187 213 4 177 199 2 181 202 9 193 217 7 198 222 12 196 217 14 192 215 11 187 209 10 182 204 8 174 195 2 183 205 6 185 207 10 179 199 3 167 187 4 175 201 8 190 214 14 198 218 9 199 219 6 185 209 1 187 212 9 206 230 12 205 230 4 206 230 10 203 226 12 201 224 10 211 233 10 207 228 9 193 212 6 188 209 8 189 212 8 177 198 7 180 202 6 190 213 8 187 211 1 188 212 4 197 222 6 199 223 13 201 226 13 200 223 11 202 227 4 205 230 7 198 220 15 193 215 10 196 220 12 192 216 8 181 206 3 187 210 5 183 204 5 186 209 7 182 207 2 187 210 6 188 212 4 194 217 12 200 223 9 194 218 10 198 222 12 206 230 12 205 226 7 200 223 9 198 223 8 189 214 9 184 206 7 190 209 3 202 222 9 194 217 12 179 202 6 174 197 1 184 208 10 189 213 13 187 209 12 188 211 7 186 209 7 184 207 5 188 214 5 188 213 8 189 216 15 179 206 7 173 195 6 180 203 9 184 208 8 185 207 10 191 215 7 193 219 8 189 215 6 192 216 8 199 222 8 200 225 9 182 206 8 174 195 6 180 202 5 185 210 7 192 215 10 191 214 9 182 204 5 182 204 5 192 215 10 193 217 7 196 220 12 198 222 12 193 217 9 193 217 7 204 226 4 196 220 10 189 215 6 179 202 8 173 193 7 179 199 6 179 200 7 190 216 5 200 228 4 197 224 5 192 218 9 188 214 5 188 213 7 188 213 8 186 212 3 185 210 7 186 212 3 188 214 5 188 213 7 191 215 7 192 216 6 191 215 7 184 209 4 183 208 5 192 218 5 189 213 5 178 205 6 192 218 5 191 214 9 180 204 6 191 214 9 186 211 5 184 209 4 187 212 7 185 207 8 188 211 6 194 218 8 194 220 7 185 210 5 
181 206 3 181 210 6 189 218 6 196 223 4 203 229 10 200 227 8 183 208 3 185 207 8 197 222 9 187 212 9 188 211 9 184 207 2 182 204 5 192 217 11 192 218 5 191 216 10 188 210 11 180 204 4 180 204 6 183 206 4 176 198 2 187 210 6 198 224 5 192 216 6 189 214 8 192 221 7 195 222 3 193 219 8 189 212 8 191 215 7 196 221 8 196 223 4 197 227 5 190 216 5 179 200 7 179 199 6 173 193 7 179 202 8 189 215 6 196 220 10 204 226 4 193 217 7 193 217 9 198 222 12 196 220 12 193 217 7 192 215 10 182 204 5 182 204 5 191 214 9 192 215 10 185 210 7 180 202 5 174 195 6 182 206 8 200 225 9 199 222 8 192 216 8 189 215 6 193 219 8 191 215 7 185 207 10 184 208 8 180 203 9 173 195 6 179 206 7 189 216 15 188 213 8 188 214 5 184 207 5 186 209 7 188 211 7 187 209 12 189 213 13 184 208 10 174 197 1 179 202 6 194 217 12 202 222 9 190 209 3 184 206 7 189 214 9 198 223 8 200 223 9 205 226 7 206 230 12 198 222 12 194 218 10 200 223 9 194 217 12 188 212 4 187 210 6 182 207 2 186 209 7 183 204 5 187 210 5 181 206 3 192 216 8 196 220 12 193 215 10 198 220 15 205 230 7 202 227 4 200 223 11 201 226 13 199 223 13 197 222 6 188 212 4 187 211 1 190 213 8 180 202 6 177 198 7 189 212 8 188 209 8 193 212 6 207 228 9 211 233 10 201 224 10 203 226 12 206 230 10 205 230 4 206 230 12 187 212 9 185 209 1 199 219 6 198 218 9 190 214 14 175 201 8 167 187 4 179 199 3 185 207 10 183 205 6 174 195 2 182 204 8 187 209 10 192 215 11 196 217 14 198 222 12 193 217 7 181 202 9 177 199 2 187 213 4 187 212 7 181 205 5 182 206 6 179 200 7 185 203 5 190 214 4 177 203 10 161 182 1 172 194 8 180 204 4 178 200 3 185 208 4 185 203 3 173 194 5 180 202 6 189 209 13 212 226 201 234 225 218 237 223 223 234 225 220 237 226 220 237 226 220 240 222 220 235 228 218 202 223 166 191 221 11 197 220 6 193 216 2 196 219 5 185 208 4 178 201 7 174 196 7 183 205 8 190 212 3 192 217 4 190 216 7 190 215 9 189 213 5 190 213 9 187 211 3 186 209 4 187 211 1 197 222 9 197 223 10 185 213 4 182 204 7 188 212 4 172 197 7 162 183 2 175 196 3 177 200 6 185 210 5 184 209 4 184 209 6 188 211 6 188 214 5 
182 210 4 180 204 6 181 201 8 
204 225 26 188 211 9 184 206 7 189 213 5 187 213 4 181 206 3 170 192 3 177 200 6 186 211 5 186 209 7 172 195 3 169 191 5 177 201 1 174 200 5 176 202 5 189 214 11 195 222 5 194 221 5 187 210 5 183 205 8 184 209 3 191 216 11 188 214 5 189 215 4 194 217 5 192 214 7 186 210 2 187 212 7 187 212 6 184 207 3 185 208 4 197 223 2 202 223 6 198 223 10 218 232 209 235 231 219 237 226 224 236 226 217 238 225 217 234 225 218 234 227 221 233 224 219 198 225 94 196 216 7 196 217 14 195 218 13 192 214 7 196 221 5 194 218 10 192 217 12 186 208 9 175 196 3 187 212 7 198 224 3 199 220 5 189 211 4 193 217 7 195 219 9 185 210 5 178 201 5 175 195 9 177 198 7 187 210 8 189 212 10 183 205 8 186 209 5 195 218 14 198 221 17 183 205 8 183 206 2 185 208 4 182 205 3 186 207 6 182 205 11 194 219 14 201 222 7 204 225 8 189 214 11 182 205 9 194 217 13 196 219 14 190 214 6 192 215 10 193 217 9 195 217 10 201 223 14 206 228 21 197 220 15 193 216 12 184 207 5 176 197 4 192 215 10 188 211 9 182 204 8 189 212 10 190 213 9 190 213 8 193 217 9 195 218 4 201 221 8 201 221 12 202 226 8 208 232 14 200 224 8 193 215 6 194 217 5 198 221 9 198 221 9 197 220 8 183 208 5 183 207 9 175 194 4 185 207 10 192 216 8 195 218 6 199 222 10 197 219 12 198 223 8 201 226 10 199 224 9 197 222 7 197 221 5 194 213 9 193 216 11 196 222 11 190 213 8 195 219 11 198 223 7 189 212 7 185 208 4 185 208 4 186 209 4 187 209 10 174 197 3 176 199 3 178 205 6 177 199 3 184 208 10 181 204 2 179 201 5 193 217 7 202 228 15 198 223 17 188 212 4 194 216 7 203 229 6 199 226 10 187 210 8 182 205 3 184 209 6 184 208 8 190 213 8 196 220 10 183 205 8 188 211 7 192 216 6 186 210 2 194 219 6 195 220 7 187 210 5 187 210 8 181 203 4 180 203 0 178 201 5 178 202 2 189 214 8 175 198 6 172 192 6 180 202 5 189 215 4 182 206 8 179 202 6 180 204 4 176 199 5 181 205 5 185 210 5 180 204 6 179 203 3 186 209 5 189 213 5 192 217 4 196 221 5 190 216 3 194 219 13 199 226 9 191 217 6 184 212 3 193 220 4 188 213 7 185 213 6 191 215 5 186 215 1 189 214 8 184 209 6 183 208 5 199 225 6 200 226 5 192 218 7 
187 211 11 183 211 5 187 217 5 199 229 11 204 232 10 195 221 10 186 211 8 176 202 9 181 205 5 194 220 7 189 218 6 182 206 6 180 202 3 189 212 7 198 226 4 194 220 7 191 217 6 192 218 5 188 216 9 191 219 10 192 218 7 184 209 6 182 206 8 183 208 5 176 200 2 176 199 5 185 210 7 187 212 7 175 198 4 178 201 5 182 207 4 183 208 5 190 216 7 179 203 3 172 192 6 175 198 6 189 214 8 178 202 2 178 201 5 180 203 0 181 203 4 187 210 8 187 210 5 195 220 7 194 219 6 186 210 2 192 216 6 188 211 7 183 205 8 196 220 10 190 213 8 184 208 8 184 209 6 182 205 3 187 210 8 199 226 10 203 229 6 194 216 7 188 212 4 198 223 17 202 228 15 193 217 7 179 201 5 181 204 2 184 208 10 177 199 3 178 205 6 176 199 3 174 197 3 187 209 10 186 209 4 185 208 4 185 208 4 189 212 7 198 223 7 195 219 11 190 213 8 196 222 11 193 216 11 194 213 9 197 221 5 197 222 7 199 224 9 201 226 10 198 223 8 197 219 12 199 222 10 195 218 6 192 216 8 185 207 10 175 194 4 183 207 9 183 208 5 197 220 8 198 221 9 198 221 9 194 217 5 193 215 6 200 224 8 208 232 14 202 226 8 201 221 12 201 221 8 195 218 4 193 217 9 190 213 8 190 213 9 189 212 10 182 204 8 188 211 9 192 215 10 176 197 4 184 207 5 193 216 12 197 220 15 206 228 21 201 223 14 195 217 10 193 217 9 192 215 10 190 214 6 196 219 14 194 217 13 182 205 9 189 214 11 204 225 8 201 222 7 194 219 14 182 205 11 186 207 6 182 205 3 185 208 4 183 206 2 183 205 8 198 221 17 195 218 14 186 209 5 183 205 8 189 212 10 187 210 8 177 198 7 175 195 9 178 201 5 185 210 5 195 219 9 193 217 7 189 211 4 199 220 5 198 224 3 187 212 7 175 196 3 186 208 9 192 217 12 194 218 10 198 221 7 191 217 4 194 220 11 193 216 11 197 217 32 225 225 213 236 229 223 237 223 222 237 226 220 237 225 227 237 226 220 234 222 222 234 232 217 208 231 88 200 223 11 202 223 6 197 223 2 185 208 4 184 207 3 187 212 6 187 212 7 186 210 2 192 214 7 194 217 5 189 215 4 188 214 5 191 216 11 184 209 3 183 205 8 187 210 5 194 221 5 195 222 5 189 214 11 176 202 5 174 200 5 177 201 1 169 191 5 172 195 3 186 209 7 186 211 5 177 200 4 170 192 5 181 206 1 187 213 4 
187 212 7 183 208 5 188 211 9 199 220 5 
199 222 30 200 224 8 192 214 5 190 215 9 195 223 14 196 221 6 191 213 6 181 203 4 183 208 3 190 216 5 189 212 8 181 204 8 174 200 3 175 202 3 185 212 9 186 211 5 183 211 5 196 222 9 191 214 9 187 209 10 189 212 8 189 214 8 183 207 9 185 208 6 191 215 5 181 203 4 180 199 9 180 202 6 180 202 5 180 201 10 176 199 5 176 202 7 186 209 4 187 214 11 207 224 192 241 234 226 237 235 220 234 231 222 235 227 225 240 222 218 240 226 225 232 225 217 188 225 173 178 209 9 192 220 14 199 226 9 203 224 7 204 233 5 206 231 7 200 223 9 192 214 9 188 211 6 192 219 3 192 216 6 188 210 5 197 222 7 196 221 5 201 226 11 200 227 11 193 217 7 184 207 3 179 201 4 188 210 14 191 216 13 193 217 7 186 209 4 186 209 4 189 212 8 198 223 10 203 228 12 200 226 5 192 215 10 188 210 5 181 203 4 187 209 10 201 224 10 199 223 7 186 208 9 179 202 8 182 204 8 179 199 13 179 203 3 184 209 3 197 222 9 201 224 19 188 211 7 190 214 6 202 227 11 199 220 21 186 208 9 173 194 5 169 189 3 178 199 10 181 203 7 190 213 8 190 214 6 183 208 5 189 213 5 197 222 7 196 218 11 197 219 12 193 215 6 194 217 5 194 217 5 194 218 10 186 209 7 191 212 9 199 221 14 199 222 10 197 219 10 191 212 9 169 187 5 166 187 4 178 201 5 185 208 4 191 215 5 201 226 11 201 227 8 200 226 5 196 221 8 199 227 3 205 231 10 199 222 10 190 212 5 188 209 8 187 207 14 189 210 9 191 215 7 196 220 12 197 221 11 193 217 7 194 219 4 193 215 8 184 206 7 183 208 3 188 213 8 184 206 9 194 219 6 192 216 6 182 204 7 179 200 7 184 208 8 194 220 9 195 219 11 192 214 7 196 221 8 195 221 8 190 213 9 187 210 5 189 214 8 182 205 9 181 204 2 183 206 2 180 202 6 178 200 3 175 196 5 172 192 6 180 202 6 191 216 13 184 209 4 190 216 5 187 210 5 181 203 7 187 211 11 190 216 5 194 220 7 191 217 8 179 202 6 178 199 8 189 214 8 182 206 6 177 204 3 180 204 4 175 198 4 182 206 6 189 214 8 187 210 8 190 213 8 191 216 3 193 218 5 197 220 8 196 221 5 195 220 4 196 222 9 198 225 8 191 217 8 182 206 8 180 204 4 190 216 7 193 219 8 190 216 5 200 227 10 198 223 7 188 214 3 193 222 6 200 228 4 201 228 3 196 219 7 182 206 8 
185 215 7 190 216 7 198 225 9 198 223 10 184 208 10 175 201 4 177 206 4 186 216 8 190 219 5 184 209 6 186 215 3 187 215 8 190 216 7 198 225 6 186 212 3 189 215 4 189 218 6 192 217 11 194 219 13 190 213 8 188 211 7 192 216 8 197 222 6 191 215 5 183 206 10 189 211 4 186 209 7 175 198 6 179 206 7 181 210 4 186 214 7 189 213 5 179 199 6 179 202 6 191 217 8 194 220 7 190 216 5 187 211 11 181 203 7 187 210 5 190 216 5 184 209 4 191 216 13 180 202 6 172 192 6 175 196 5 178 200 3 180 202 6 183 206 2 181 204 2 182 205 9 189 214 8 187 210 5 190 213 9 195 221 8 196 221 8 192 214 7 195 219 11 194 220 9 184 208 8 179 200 7 182 204 7 192 216 6 194 219 6 184 206 9 188 213 8 183 208 3 184 206 7 193 215 8 194 219 4 193 217 7 197 221 11 196 220 12 191 215 7 189 210 9 187 207 14 188 209 8 190 212 5 199 222 10 205 231 10 199 227 3 196 221 8 200 226 5 201 227 8 201 226 11 191 215 5 185 208 4 178 201 5 166 187 4 169 187 5 191 212 9 197 219 10 199 222 10 199 221 14 191 212 9 186 209 7 194 218 10 194 217 5 194 217 5 193 215 6 197 219 12 196 218 11 197 222 7 189 213 5 183 208 5 190 214 6 190 213 8 181 203 7 178 199 10 169 189 3 173 194 5 186 208 9 199 220 21 202 227 11 190 214 6 188 211 7 201 224 19 197 222 9 184 209 3 179 203 3 179 199 13 182 204 8 179 202 8 186 208 9 199 223 7 201 224 10 187 209 10 181 203 4 188 210 5 192 215 10 200 226 5 203 228 12 198 223 10 189 212 8 186 209 4 186 209 4 193 217 7 191 216 13 188 210 14 179 201 4 184 207 3 193 217 7 200 227 11 201 226 11 196 221 5 197 222 7 188 210 5 192 216 6 192 219 3 188 211 6 192 214 9 200 223 9 206 231 7 206 231 8 200 226 7 200 225 10 192 220 14 183 215 90 237 223 222 235 225 224 242 225 218 238 227 223 235 227 225 235 232 217 240 233 227 226 236 212 199 221 22 190 213 9 181 209 3 176 202 7 176 199 5 180 201 10 180 202 5 180 202 6 180 199 9 181 203 4 191 215 5 185 208 6 183 207 9 189 214 8 189 212 8 187 209 10 191 214 9 196 222 9 183 211 5 186 211 5 185 212 9 175 202 3 174 200 3 181 204 8 189 212 8 190 216 5 183 208 3 181 203 4 192 214 7 196 221 5 197 223 10 190 215 10 
192 216 8 200 224 6 195 217 10 
195 221 24 194 219 4 186 208 9 185 210 5 183 210 9 198 222 12 208 230 8 197 217 6 176 197 4 182 210 4 193 219 8 196 221 5 188 213 7 179 202 6 187 211 3 188 214 5 185 209 9 194 221 5 200 225 9 200 226 7 198 224 3 192 216 6 191 215 5 192 216 6 195 221 8 193 217 9 189 211 4 182 204 5 180 201 8 185 208 6 193 218 12 184 211 10 180 208 2 176 207 5 184 223 156 243 223 225 237 225 225 236 227 222 239 230 221 236 224 226 234 222 222 238 231 223 219 225 211 185 210 7 190 213 8 193 217 7 191 215 5 196 216 7 196 219 7 193 212 8 183 204 5 192 215 10 200 225 10 195 220 7 184 206 9 183 205 8 194 219 6 198 223 10 199 224 11 207 231 21 201 223 16 185 206 7 173 194 3 175 196 7 190 213 9 188 212 2 182 204 5 180 202 6 182 204 5 194 218 8 196 220 12 196 219 14 197 220 8 187 210 6 181 202 9 188 210 5 191 213 6 192 216 8 191 214 9 189 212 7 183 205 6 176 198 1 179 200 7 192 216 8 197 222 6 188 212 4 191 214 12 201 225 15 197 219 10 191 213 6 191 213 6 184 204 8 185 205 9 187 210 8 188 212 2 187 210 6 187 210 5 194 217 12 196 221 6 194 218 8 194 219 6 192 216 6 183 206 2 182 204 7 182 206 6 185 208 6 195 220 5 196 221 6 198 220 11 205 226 9 201 222 5 190 213 9 184 205 4 190 213 9 184 208 8 190 213 8 202 227 12 201 226 13 201 227 8 189 213 5 190 216 5 200 226 17 205 230 14 203 228 4 198 221 9 198 219 16 190 213 8 183 206 4 186 208 9 193 218 3 196 221 6 198 223 10 190 214 6 187 210 5 196 221 6 193 219 10 175 196 3 177 198 7 180 202 5 188 210 11 181 203 6 174 196 9 198 223 8 202 227 11 196 220 12 195 220 5 195 221 10 186 210 10 193 217 7 202 230 8 201 228 11 196 221 5 195 219 9 192 215 11 188 211 9 176 197 4 173 193 7 171 193 4 183 207 9 197 224 7 202 228 5 201 227 8 196 221 5 200 225 12 191 216 10 186 212 3 192 218 5 185 210 4 187 210 5 192 218 7 192 218 7 188 217 5 190 215 9 187 212 6 192 216 6 195 221 8 190 213 8 186 209 7 193 217 7 195 220 5 191 215 5 188 211 6 189 212 7 191 217 4 186 212 3 181 206 3 182 206 6 186 211 5 192 217 11 186 211 6 196 223 6 203 231 9 195 219 9 189 215 6 192 221 5 194 221 4 203 229 10 189 213 5 180 204 4 
192 222 10 190 215 9 192 216 6 187 210 5 178 202 2 179 203 5 189 218 6 196 226 6 190 219 5 182 209 8 186 214 7 189 218 6 192 219 3 191 217 6 192 218 7 188 214 1 188 216 10 191 214 10 197 221 13 197 222 6 195 219 3 201 224 12 195 218 13 182 204 5 186 209 5 194 221 5 196 221 6 191 215 7 193 217 7 194 221 5 195 222 6 192 218 7 187 212 7 185 210 4 192 218 5 186 212 3 191 216 10 200 225 12 196 221 5 201 227 8 202 228 5 197 224 7 183 207 9 171 193 4 173 193 7 176 197 4 188 211 9 192 215 11 195 219 9 196 221 5 201 228 11 202 230 8 193 217 7 186 210 10 195 221 10 195 220 5 196 220 12 202 227 11 198 223 8 174 196 9 181 203 6 188 210 11 180 202 5 177 198 7 175 196 3 193 219 10 196 221 6 187 210 5 190 214 6 198 223 10 196 221 6 193 218 3 186 208 9 183 206 4 190 213 8 198 219 16 198 221 9 203 228 4 205 230 14 200 226 17 190 216 5 189 213 5 201 227 8 201 226 13 202 227 12 190 213 8 184 208 8 190 213 9 184 205 4 190 213 9 201 222 5 205 226 9 198 220 11 196 221 6 195 220 5 185 208 6 182 206 6 182 204 7 183 206 2 192 216 6 194 219 6 194 218 8 196 221 6 194 217 12 187 210 5 187 210 6 188 212 2 187 210 8 185 205 9 184 204 8 191 213 6 191 213 6 197 219 10 201 225 15 191 214 12 188 212 4 197 222 6 192 216 8 179 200 7 176 198 1 183 205 6 189 212 7 191 214 9 192 216 8 191 213 6 188 210 5 181 202 9 187 210 6 197 220 8 196 219 14 196 220 12 194 218 8 182 204 5 180 202 6 182 204 5 188 212 2 190 213 9 175 196 7 173 194 3 185 206 7 201 223 16 207 231 21 199 224 11 198 223 10 194 219 6 183 205 8 184 206 9 195 220 7 200 225 10 192 215 10 183 204 5 193 212 8 196 219 7 192 219 3 191 216 3 192 217 12 183 214 12 185 223 150 236 227 220 237 226 224 237 224 216 237 226 222 241 231 222 231 226 222 237 226 224 207 223 194 187 209 10 183 208 5 180 207 4 184 211 10 193 218 12 185 208 6 180 201 8 182 204 5 189 211 4 193 217 9 195 221 8 192 216 6 191 215 5 192 216 6 198 224 3 200 226 7 200 225 9 194 221 5 185 209 9 188 214 5 187 211 3 179 202 6 188 213 7 196 221 5 193 219 8 182 210 4 176 197 4 195 218 6 206 231 8 198 222 14 185 209 9 185 210 7 
186 208 11 195 219 3 193 216 4 
197 216 28 189 211 4 181 201 5 179 201 5 175 197 8 182 209 6 193 217 7 187 208 5 174 192 12 171 196 6 186 211 5 192 216 8 190 215 9 190 211 10 195 215 4 186 211 6 184 209 6 187 213 4 189 214 11 189 212 10 190 212 7 196 218 9 193 217 7 189 215 6 196 221 5 201 224 12 193 217 7 189 213 5 184 206 7 176 198 1 177 199 2 179 200 7 178 200 11 178 204 11 182 218 86 234 225 220 236 225 231 234 225 218 243 223 224 236 227 228 239 225 224 234 222 224 236 226 225 186 214 42 186 214 7 184 212 3 184 209 6 190 213 9 189 215 4 186 207 8 176 197 6 179 203 3 185 207 11 188 211 6 182 205 1 183 205 6 176 197 6 178 200 1 188 211 6 193 217 9 204 227 13 216 237 22 198 220 13 179 201 2 187 211 13 196 222 11 193 218 13 192 217 12 181 204 10 182 206 6 186 211 6 186 210 10 188 212 2 192 213 20 196 219 14 195 220 7 192 213 10 189 210 9 193 216 4 196 221 8 191 213 8 179 200 7 179 200 9 192 215 11 200 223 11 192 213 10 194 219 6 202 228 5 203 227 7 202 226 10 195 217 10 194 216 9 198 220 13 201 224 10 197 222 7 189 212 8 189 210 7 191 213 8 195 220 5 199 224 9 195 218 13 194 218 10 191 213 6 196 219 5 185 208 6 169 191 2 180 203 9 191 215 7 200 219 13 204 227 15 195 219 9 193 218 5 200 218 10 196 219 7 191 217 6 197 222 6 200 224 8 209 233 15 198 223 7 187 210 6 197 220 15 200 226 13 202 230 8 204 229 6 199 220 5 207 231 15 208 234 15 197 223 14 183 206 4 191 217 8 196 222 11 189 215 4 178 199 6 178 199 8 196 222 11 200 226 13 188 210 11 179 203 5 183 206 4 186 209 4 175 196 3 166 185 5 185 209 1 207 229 20 202 226 16 186 212 3 175 198 6 180 203 11 185 208 4 196 222 9 194 221 5 191 216 3 202 227 11 204 229 16 201 226 10 197 222 9 190 216 5 183 208 5 178 201 9 180 207 4 186 214 7 196 221 8 195 217 8 198 222 12 189 218 6 180 209 5 182 210 4 189 212 7 187 210 8 188 212 12 188 216 7 192 218 9 193 219 8 192 217 4 196 221 8 197 222 7 195 220 7 187 211 3 189 215 6 184 209 6 181 205 7 185 210 4 189 214 8 185 210 7 181 206 3 179 206 7 184 208 8 175 201 6 170 196 3 175 198 2 188 217 5 193 220 4 182 207 1 186 211 6 187 212 7 192 217 12 199 224 8 
190 216 7 177 203 6 169 195 2 179 202 8 190 215 9 190 216 5 193 219 10 192 215 10 190 214 4 188 211 7 185 210 5 190 218 9 191 220 8 195 221 8 189 215 4 183 207 9 182 210 1 180 204 4 182 205 9 186 211 5 185 210 5 180 204 4 180 204 4 184 209 6 182 206 8 180 204 4 199 226 10 198 225 8 195 220 7 194 219 6 192 216 8 193 219 10 191 217 6 189 214 11 186 210 10 189 212 7 182 210 4 180 209 5 189 218 6 198 222 12 195 217 8 196 221 8 186 214 7 180 207 4 178 201 9 183 208 5 190 216 5 197 222 9 201 226 10 204 229 16 202 227 11 191 216 3 194 221 5 196 222 9 185 208 4 180 203 11 175 198 6 186 212 3 202 226 16 207 229 20 185 209 1 166 185 5 175 196 3 186 209 4 183 206 4 179 203 5 188 210 11 200 226 13 196 222 11 178 199 8 178 199 6 189 215 4 196 222 11 191 217 8 183 206 4 197 223 14 208 234 15 207 231 15 199 220 5 204 229 6 202 230 8 200 226 13 197 220 15 187 210 6 198 223 7 209 233 15 200 224 8 197 222 6 191 217 6 196 219 7 200 218 10 193 218 5 195 219 9 204 227 15 200 219 13 191 215 7 180 203 9 169 191 2 185 208 6 196 219 5 191 213 6 194 218 10 195 218 13 199 224 9 195 220 5 191 213 8 189 210 7 189 212 8 197 222 7 201 224 10 198 220 13 194 216 9 195 217 10 202 226 10 203 227 7 202 228 5 194 219 6 192 213 10 200 223 11 192 215 11 179 200 9 179 200 7 191 213 8 196 221 8 193 216 4 189 210 9 192 213 10 195 220 7 196 219 14 192 213 20 188 212 2 186 210 10 186 211 6 182 206 6 181 204 10 192 217 12 193 218 13 196 222 11 187 211 13 179 201 2 198 220 13 216 237 22 204 227 13 193 217 9 188 211 6 178 200 1 176 197 6 183 205 6 182 205 1 188 211 6 185 207 11 179 203 3 176 197 6 186 207 8 189 215 4 191 212 9 186 208 9 187 211 3 186 214 7 220 228 207 234 224 225 239 223 226 235 227 225 237 226 220 241 222 226 232 229 222 234 225 218 187 219 170 179 206 5 177 203 10 178 201 9 179 200 7 177 199 2 176 198 1 184 206 7 189 213 5 193 217 7 201 224 12 196 221 5 189 215 6 193 217 7 196 218 9 190 212 7 189 212 10 189 214 11 187 213 4 184 209 6 186 211 6 195 215 4 190 211 10 190 215 9 192 216 8 186 211 5 171 196 6 174 192 12 187 208 5 192 216 6 
185 209 9 175 198 4 177 201 3 180 202 5 188 210 5 192 210 12 
193 212 26 176 197 4 176 198 9 172 198 5 173 199 4 178 205 2 188 214 5 193 217 9 178 198 5 158 182 0 164 188 6 174 195 6 173 195 8 176 199 3 180 202 6 196 220 10 200 223 11 196 221 8 192 217 1 186 209 5 187 210 6 193 217 9 193 216 11 189 213 3 199 222 8 199 225 6 197 221 11 207 231 11 194 219 4 178 200 1 174 200 3 175 203 7 171 197 2 177 203 8 182 211 22 228 224 221 237 226 224 242 227 222 235 225 216 241 222 224 243 223 225 237 227 218 240 222 220 184 222 149 184 213 7 186 209 5 183 204 5 183 205 8 192 216 6 189 213 5 179 203 3 186 210 10 191 217 6 185 210 7 191 216 10 195 222 6 194 217 5 190 214 6 196 220 12 190 213 8 182 204 5 197 222 9 209 232 18 198 216 20 183 203 8 182 206 8 190 216 5 205 226 11 201 221 8 192 214 5 190 213 11 191 214 9 184 207 5 187 210 6 190 213 9 195 221 8 204 228 20 206 230 14 204 228 12 198 220 11 197 221 13 190 212 13 187 209 12 193 217 7 198 224 5 191 215 7 195 219 11 200 226 7 206 230 14 209 230 27 198 222 6 195 217 10 198 220 13 194 219 4 191 216 10 188 213 7 190 213 9 189 212 10 192 216 8 198 223 7 196 219 14 195 218 14 194 218 8 204 227 15 198 223 8 182 204 5 172 193 4 175 198 6 179 203 5 191 217 8 200 226 7 203 226 14 198 221 16 187 211 11 184 208 8 190 214 6 196 219 7 205 229 11 206 230 12 185 207 8 182 204 7 196 222 13 198 225 8 197 222 7 192 216 6 191 216 3 197 222 7 200 225 12 195 217 8 195 220 4 202 230 8 191 221 3 175 198 4 181 202 13 196 221 5 198 224 11 194 217 12 189 212 8 195 219 11 189 215 4 178 202 4 173 195 6 180 205 2 188 213 7 197 224 5 189 213 5 166 190 8 163 187 3 181 205 5 185 210 7 186 212 3 187 210 5 190 213 8 197 221 11 206 230 10 204 229 5 196 220 10 189 214 8 186 211 8 174 197 1 181 206 3 186 210 12 186 208 11 188 214 5 187 217 7 175 203 4 179 203 3 191 215 7 184 209 4 177 200 6 182 207 2 191 217 6 187 212 7 186 212 3 186 212 3 180 204 4 187 212 6 187 212 6 187 213 4 185 210 7 187 215 6 194 220 7 185 210 7 178 200 4 178 202 4 177 200 4 172 194 7 166 187 4 167 191 5 179 208 6 179 208 2 179 206 5 183 208 3 185 213 6 183 210 7 187 215 8 188 216 7 177 204 3 
172 198 5 173 199 6 178 207 5 188 216 9 190 214 6 191 218 2 182 209 6 174 200 3 185 210 4 197 223 2 197 224 8 196 221 5 193 217 9 185 210 7 186 211 6 179 203 5 180 204 6 188 213 8 183 208 5 183 213 5 190 219 5 190 214 6 185 213 6 183 211 5 180 204 6 184 208 10 181 204 2 186 211 8 181 208 5 184 209 6 187 212 6 181 205 7 174 200 5 181 210 8 191 215 7 179 203 3 175 203 4 187 217 7 188 214 5 186 208 11 186 210 12 181 206 3 174 197 1 186 211 8 189 214 8 196 220 10 204 229 5 206 230 10 197 221 11 190 213 8 187 210 5 186 212 3 185 210 7 181 205 5 163 187 3 166 190 8 189 213 5 197 224 5 188 213 7 180 205 2 173 195 6 178 202 4 189 215 4 195 219 11 189 212 8 194 217 12 198 224 11 196 221 5 181 202 13 175 198 4 191 221 3 202 230 8 195 220 4 195 217 8 200 225 12 197 222 7 191 216 3 192 216 6 197 222 7 198 225 8 196 222 13 182 204 7 185 207 8 206 230 12 205 229 11 196 219 7 190 214 6 184 208 8 187 211 11 198 221 16 203 226 14 200 226 7 191 217 8 179 203 5 175 198 6 172 193 4 182 204 5 198 223 8 204 227 15 194 218 8 195 218 14 196 219 14 198 223 7 192 216 8 189 212 10 190 213 9 188 213 7 191 216 10 194 219 4 198 220 13 195 217 10 198 222 6 209 230 27 206 230 14 200 226 7 195 219 11 191 215 7 198 224 5 193 217 7 187 209 12 190 212 13 197 221 13 198 220 11 204 228 12 206 230 14 204 228 20 195 221 8 190 213 9 187 210 6 184 207 5 191 214 9 190 213 11 192 214 5 201 221 8 205 226 11 190 216 5 182 206 8 183 203 8 198 216 20 209 232 18 197 222 9 182 204 5 190 213 8 196 220 12 190 214 6 194 217 5 196 223 7 191 216 10 185 208 6 191 217 6 186 210 10 179 203 3 189 213 5 192 216 6 184 205 6 181 205 5 187 210 6 191 218 61 239 225 222 240 221 225 235 225 224 235 224 220 239 225 225 237 226 220 237 226 222 234 227 221 174 212 91 183 206 4 175 203 5 173 195 6 175 203 7 174 200 3 178 200 1 194 219 4 207 231 11 197 221 11 199 225 6 199 222 8 189 213 3 193 216 11 193 217 9 187 210 6 186 209 5 192 217 1 196 221 8 200 223 11 196 220 10 180 202 6 176 199 3 173 195 8 174 195 6 164 188 6 158 182 0 178 198 5 193 216 11 187 213 4 177 204 3 173 199 6 
172 198 3 176 199 7 176 195 5 190 207 7 
207 230 28 200 226 3 199 224 8 195 218 6 191 214 2 192 214 5 195 220 7 197 222 7 197 220 8 191 218 2 192 218 5 191 214 2 185 207 10 184 206 7 181 204 2 188 212 4 190 213 8 187 210 5 195 220 7 198 224 5 188 212 2 188 211 9 197 221 13 190 213 8 190 212 5 190 211 12 193 215 8 203 223 12 202 222 13 199 220 3 200 224 6 194 218 10 188 213 10 194 219 6 192 215 10 218 220 199 237 227 225 241 223 223 242 228 219 231 227 224 235 226 227 233 228 225 243 228 223 223 224 210 191 214 10 187 208 7 186 209 7 191 215 5 185 208 4 183 204 3 182 202 7 178 199 6 187 210 14 180 203 9 184 208 8 193 219 10 194 218 8 192 217 4 195 219 11 191 214 10 188 211 6 197 221 11 208 231 17 210 231 14 198 222 6 191 215 7 186 209 7 194 213 9 197 216 10 187 209 10 189 210 17 195 218 14 193 215 8 193 215 10 188 209 10 187 209 10 194 218 10 199 222 8 205 226 7 204 229 6 200 224 4 190 212 5 187 209 4 192 215 3 200 224 6 193 217 7 189 213 5 195 220 7 194 219 6 191 215 5 188 211 9 187 209 13 199 221 14 189 213 5 179 201 4 181 202 9 188 211 7 190 213 11 189 210 11 185 205 9 186 209 5 191 215 7 198 223 10 198 220 11 202 226 8 206 230 12 192 214 5 176 198 2 179 200 7 184 207 5 183 206 4 189 209 13 193 215 10 188 211 9 178 201 5 175 198 4 179 203 3 187 210 5 189 212 7 191 214 10 184 207 11 188 213 8 189 214 8 188 213 7 185 207 8 187 209 10 190 213 8 190 214 4 181 204 8 190 215 9 203 229 8 201 227 8 182 204 8 178 201 7 185 210 4 196 221 6 197 222 9 187 210 6 194 218 8 199 224 11 195 218 14 187 209 12 186 208 9 192 216 6 189 215 4 188 214 3 179 203 5 171 194 2 191 214 12 186 209 7 180 203 9 184 208 10 183 205 8 182 204 7 200 225 10 204 228 12 198 223 10 200 226 13 193 219 8 186 208 9 182 206 6 179 203 5 181 204 8 184 209 6 178 205 2 171 196 6 171 193 6 179 200 7 178 206 8 175 203 5 179 205 8 184 212 5 189 218 6 184 212 6 187 215 8 183 211 5 179 203 3 181 205 5 184 209 6 182 207 4 191 217 8 186 212 3 185 209 9 189 212 7 188 218 6 184 209 4 178 199 6 175 201 4 175 207 2 185 210 5 181 203 4 180 209 7 184 212 5 181 205 7 181 206 3 180 203 0 175 196 7 175 198 6 
182 206 8 180 207 6 185 210 7 190 216 5 194 221 2 192 218 7 187 213 2 181 204 8 188 211 7 200 226 5 195 220 7 190 215 12 186 211 6 183 208 5 185 208 4 182 202 7 187 208 5 191 214 9 196 218 11 204 229 13 197 222 9 187 210 6 189 214 8 188 213 8 177 201 3 181 206 3 189 218 4 194 223 7 189 218 6 192 220 11 185 213 7 177 203 8 176 203 2 180 207 6 179 200 7 171 193 6 171 196 6 178 205 2 184 209 6 181 204 8 179 203 5 182 206 6 186 208 9 193 219 8 200 226 13 198 223 10 204 228 12 200 225 10 182 204 7 183 205 8 184 208 10 180 203 9 186 209 7 191 214 12 171 194 2 179 203 5 188 214 3 189 215 4 192 216 6 186 208 9 187 209 12 195 218 14 199 224 11 194 218 8 187 210 6 197 222 9 196 221 6 185 210 4 178 201 7 182 204 8 201 227 8 203 229 8 190 215 9 181 204 8 190 214 4 190 213 8 187 209 10 185 207 8 188 213 7 189 214 8 188 213 8 184 207 11 191 214 10 189 212 7 187 210 5 179 203 3 175 198 4 178 201 5 188 211 9 193 215 10 189 209 13 183 206 4 184 207 5 179 200 7 176 198 2 192 214 5 206 230 12 202 226 8 198 220 11 198 223 10 191 215 7 186 209 5 185 205 9 189 210 11 190 213 11 188 211 7 181 202 9 179 201 4 189 213 5 199 221 14 187 209 13 188 211 9 191 215 5 194 219 6 195 220 7 189 213 5 193 217 7 200 224 6 192 215 3 187 209 4 190 212 5 200 224 4 204 229 6 205 226 7 199 222 8 194 218 10 187 209 10 188 209 10 193 215 10 193 215 8 195 218 14 189 210 17 187 209 10 197 216 10 194 213 9 186 209 7 191 215 7 198 222 6 210 231 14 208 231 17 197 221 11 188 211 6 191 214 10 195 219 11 192 217 4 194 218 8 193 219 10 183 207 7 179 202 8 188 210 14 179 200 7 181 203 7 183 204 3 187 208 5 191 215 7 187 209 10 180 208 2 203 224 185 236 227 220 237 225 229 235 224 220 235 226 227 236 227 222 235 228 222 237 222 225 229 224 218 180 210 28 195 214 10 195 218 6 188 213 8 194 218 10 200 224 6 199 220 3 202 222 13 203 223 12 193 215 8 190 211 12 190 212 5 190 213 8 197 221 13 188 211 9 188 212 2 198 224 5 195 220 7 187 210 5 190 213 8 188 212 4 181 204 2 184 206 7 185 207 10 191 214 2 192 218 5 191 218 2 197 220 8 196 221 6 194 219 6 193 215 8 
191 214 0 196 219 5 198 223 8 202 227 4 203 223 10 
199 222 30 195 220 4 198 222 4 202 223 8 194 213 9 185 203 3 192 214 7 197 222 9 192 214 9 198 223 8 205 231 12 208 233 10 203 228 15 201 226 13 199 223 7 196 222 1 192 216 6 184 207 5 186 209 4 188 211 6 195 220 4 194 219 6 196 218 13 194 217 5 194 220 11 196 221 15 196 221 8 195 217 8 195 218 4 203 227 11 202 226 6 188 212 2 190 213 8 198 221 7 193 215 6 184 216 115 232 227 224 234 224 223 235 225 224 239 230 225 235 228 222 234 225 220 242 221 220 232 228 219 192 219 78 191 211 15 185 210 5 194 220 9 198 222 12 200 223 9 194 214 5 187 208 5 183 206 4 178 201 5 177 200 4 192 216 6 194 218 8 196 221 8 200 225 12 193 216 11 182 205 3 192 213 10 200 223 11 205 229 13 197 220 8 196 221 8 195 220 5 194 217 5 192 214 7 196 220 10 195 221 8 198 223 10 210 230 21 199 218 14 185 205 10 188 211 7 199 223 13 198 221 9 193 215 6 200 223 11 206 230 14 196 219 5 188 209 8 187 208 9 190 211 8 189 210 9 189 213 5 189 212 8 186 208 9 195 220 7 188 211 6 185 207 8 203 227 11 207 231 15 190 212 5 184 205 4 196 219 14 203 227 11 204 229 6 201 224 12 186 209 5 194 217 13 200 224 16 190 212 5 194 218 10 203 228 5 192 214 5 173 191 7 175 196 5 187 210 5 189 212 8 190 212 5 188 210 3 187 209 10 190 215 12 191 216 10 193 219 8 191 216 11 175 198 2 179 203 5 192 217 11 205 232 13 196 222 11 185 210 7 189 213 5 191 214 10 191 214 10 187 212 6 177 203 6 184 209 6 203 229 8 203 229 6 190 213 9 192 216 8 192 218 9 186 211 6 195 220 7 188 211 9 188 211 9 188 210 13 183 205 8 184 206 7 186 208 11 190 214 4 192 218 9 187 212 9 189 215 6 191 215 7 190 213 11 189 211 12 188 211 7 197 224 8 190 216 5 181 205 5 191 215 7 195 220 7 196 221 6 200 227 11 198 225 8 208 234 11 202 229 10 187 212 6 178 201 5 180 204 4 181 209 3 184 212 6 178 205 2 175 198 4 182 209 8 181 208 7 177 203 6 183 210 7 188 216 7 185 213 6 189 214 8 188 213 7 182 206 8 183 208 3 183 208 5 186 211 6 184 209 4 189 214 9 202 227 11 200 226 7 184 212 6 173 204 5 175 198 4 183 205 6 176 203 4 180 207 4 186 209 7 185 210 7 192 218 5 182 207 4 173 194 1 172 192 6 177 198 7 
177 199 3 181 205 7 190 215 9 191 214 9 184 208 8 187 212 6 192 218 9 199 224 11 192 217 4 196 220 10 195 220 7 195 220 7 192 218 9 185 213 6 190 215 9 194 218 8 188 209 6 184 205 4 194 218 8 203 229 8 202 226 6 190 214 4 189 214 9 187 215 8 185 210 7 182 206 6 186 214 8 191 219 12 190 219 5 194 221 5 192 221 9 181 208 9 173 198 8 180 207 6 183 206 10 175 198 4 178 205 2 184 212 6 181 209 3 180 204 4 178 201 5 187 212 6 202 229 10 208 234 11 198 225 8 200 227 11 196 221 6 195 220 7 191 215 7 181 205 5 190 216 5 197 224 8 188 211 7 189 211 12 190 213 11 191 215 7 189 215 6 187 212 9 192 218 9 190 214 4 186 208 11 184 206 7 183 205 8 188 210 13 188 211 9 188 211 9 195 220 7 186 211 6 192 218 9 192 216 8 190 213 9 203 229 6 203 229 8 184 209 6 177 203 6 187 212 6 191 214 10 191 214 10 189 213 5 185 210 7 196 222 11 205 232 13 192 217 11 179 203 5 175 198 2 191 216 11 193 219 8 191 216 10 190 215 12 187 209 10 188 210 3 190 212 5 189 212 8 187 210 5 175 196 5 173 191 7 192 214 5 203 228 5 194 218 10 190 212 5 200 224 16 194 217 13 186 209 5 201 224 12 204 229 6 203 227 11 196 219 14 184 205 4 190 212 5 207 231 15 203 227 11 185 207 8 188 211 6 195 220 7 186 208 9 189 212 8 189 213 5 189 210 9 190 211 8 187 208 9 188 209 8 196 219 5 206 230 14 200 223 11 193 215 6 198 221 9 199 223 13 188 211 7 185 205 10 199 218 14 210 230 21 198 223 10 195 221 8 196 220 10 192 214 7 194 217 5 195 220 5 196 221 8 197 220 8 205 229 13 200 223 11 192 213 10 182 205 3 193 216 11 200 225 12 196 221 8 194 218 8 192 216 6 177 200 4 178 201 5 183 206 4 187 208 5 194 214 5 199 222 8 199 221 12 196 221 8 185 210 4 192 213 22 237 223 222 234 226 224 239 223 224 244 225 219 236 227 218 234 232 219 240 226 225 236 224 224 214 223 194 188 205 15 193 217 9 196 221 5 190 213 8 188 212 2 202 226 6 203 227 11 195 218 4 195 217 8 196 221 8 196 221 15 194 220 11 194 217 5 196 218 13 194 219 6 195 220 4 188 211 6 186 209 4 184 207 5 192 216 6 196 222 1 199 223 7 201 226 13 203 228 15 208 233 10 205 231 12 198 223 8 192 214 9 196 220 10 191 215 7 
185 203 3 193 212 8 202 222 9 198 222 2 196 222 3 195 216 15 
196 216 30 187 210 6 188 211 7 194 218 10 189 213 5 189 212 8 188 211 7 196 221 6 190 214 4 182 205 3 191 214 12 194 217 12 188 212 4 193 216 4 192 214 7 192 216 8 196 220 12 205 230 17 198 223 10 186 209 5 186 209 7 184 206 7 188 209 6 188 210 5 189 214 8 199 226 10 203 229 8 203 228 4 196 219 5 194 216 11 203 227 11 199 224 11 203 226 14 203 219 9 195 215 6 192 215 19 225 226 218 240 225 218 233 224 227 236 227 220 240 219 224 237 231 219 236 229 219 236 229 219 203 224 185 195 214 10 185 203 3 184 204 8 191 213 4 202 226 10 203 223 12 195 215 6 191 213 4 183 206 4 178 198 12 189 213 13 191 215 5 195 218 13 192 216 8 198 222 12 196 220 12 191 215 7 200 222 13 197 219 12 191 213 8 196 220 10 202 229 10 207 233 10 195 219 9 190 215 10 193 219 8 194 217 12 205 226 23 204 228 12 186 209 7 183 204 11 189 212 8 198 224 5 191 215 7 190 213 8 198 222 2 202 226 6 199 222 8 195 218 6 187 209 2 179 200 9 186 208 9 185 208 6 180 200 5 193 216 11 193 218 5 188 210 5 199 222 10 213 235 13 204 225 8 191 211 0 188 209 8 197 219 14 205 228 14 203 226 12 187 210 8 189 213 3 200 226 5 203 229 6 205 231 12 211 237 14 205 229 13 177 197 1 171 191 5 182 204 8 184 207 5 196 219 14 203 224 25 187 208 9 182 204 5 189 210 9 197 219 10 199 224 8 185 208 4 171 193 6 167 187 2 178 201 5 195 219 19 187 212 7 185 210 5 191 215 7 199 226 7 187 213 4 181 204 10 185 212 9 193 220 3 202 229 12 201 226 13 195 217 10 199 224 11 191 216 10 189 212 10 191 213 14 188 212 4 190 214 6 188 211 6 191 215 5 184 207 3 176 197 4 187 209 10 187 215 9 191 217 6 203 231 9 201 232 7 194 221 5 188 209 6 186 208 11 188 214 5 186 211 5 195 222 6 196 223 4 191 216 3 192 218 5 192 218 7 199 225 6 207 235 13 206 234 12 185 212 9 179 205 10 187 214 11 188 217 5 187 215 6 184 212 6 189 214 8 189 214 8 181 206 3 184 209 6 184 209 4 188 213 7 193 217 9 191 214 10 189 214 9 187 212 6 185 209 9 190 216 7 194 219 6 196 221 8 196 221 6 185 207 8 167 192 4 175 203 5 188 213 7 188 211 6 180 207 8 194 220 11 199 225 6 198 225 9 195 220 7 193 218 5 190 214 4 188 213 7 
187 212 6 182 205 9 188 213 7 201 227 6 199 225 2 193 220 3 192 217 12 190 215 10 180 205 2 180 202 3 174 195 4 192 215 13 198 222 12 190 215 2 190 216 5 180 204 4 178 205 6 179 206 3 191 216 10 190 214 4 197 227 9 193 217 7 185 210 4 191 219 10 185 209 11 177 200 6 187 215 6 202 229 12 197 222 16 196 222 11 196 223 6 186 214 5 179 206 5 176 203 4 189 215 6 189 215 6 184 212 6 187 215 6 188 217 5 187 214 11 179 205 10 185 212 9 206 234 12 207 235 13 199 225 6 192 218 7 192 218 5 191 216 3 196 223 4 195 222 6 186 211 5 188 214 5 186 208 11 188 209 6 194 221 5 201 232 7 203 231 9 191 217 6 187 215 9 187 209 10 176 197 4 184 207 3 191 215 5 188 211 6 190 214 6 188 212 4 191 213 14 189 212 10 191 216 10 199 224 11 195 217 10 201 226 13 202 229 12 193 220 3 185 212 9 181 204 10 187 213 4 199 226 7 191 215 7 185 210 5 187 212 7 195 219 19 178 201 5 167 187 2 171 193 6 185 208 4 199 224 8 197 219 10 189 210 9 182 204 5 187 208 9 203 224 25 196 219 14 184 207 5 182 204 8 171 191 5 177 197 1 205 229 13 211 237 14 205 231 12 203 229 6 200 226 5 189 213 3 187 210 8 203 226 12 205 228 14 197 219 14 188 209 8 191 211 0 204 225 8 213 235 13 199 222 10 188 210 5 193 218 5 193 216 11 180 200 5 185 208 6 186 208 9 179 200 9 187 209 2 195 218 6 199 222 8 202 226 6 198 222 2 190 213 8 191 215 7 198 224 5 189 212 8 183 204 11 186 209 7 204 228 12 205 226 23 194 217 12 193 219 8 190 215 10 195 219 9 207 233 10 202 229 10 196 220 10 191 213 8 197 219 12 200 222 13 191 215 7 196 220 12 198 222 12 192 216 8 195 218 13 191 215 5 189 211 14 178 198 13 183 206 4 191 213 4 195 215 6 203 223 12 201 225 9 191 214 2 184 205 6 181 205 7 197 221 143 231 225 213 239 225 225 234 227 221 240 230 221 237 228 223 244 222 225 236 227 222 235 228 220 193 218 98 191 215 5 196 214 4 201 222 7 205 225 14 199 224 11 203 227 11 194 216 11 196 219 5 203 228 4 203 229 8 199 226 10 189 214 8 188 210 5 188 209 6 184 206 7 186 209 7 186 209 5 198 223 10 205 230 17 196 220 12 192 216 8 192 214 7 193 216 4 188 212 4 194 217 12 191 214 12 182 205 3 190 214 4 
196 221 8 188 211 6 188 211 7 189 212 7 193 216 11 188 213 7 186 209 4 191 212 13 
193 212 24 187 211 3 188 214 1 190 216 7 186 211 8 185 208 4 187 210 5 185 209 1 190 215 10 187 210 6 191 215 5 193 218 5 190 213 8 189 210 7 185 206 3 191 215 5 196 218 11 199 222 10 198 222 6 196 218 11 185 206 5 187 210 6 189 212 7 181 201 5 172 193 4 177 198 5 191 214 9 194 219 6 188 209 10 180 200 4 188 211 6 196 221 5 197 220 8 193 217 7 188 210 5 190 214 4 198 222 188 235 224 220 237 225 225 236 227 220 242 223 225 234 224 222 236 227 222 235 225 226 236 227 222 198 222 62 198 223 7 198 218 7 195 217 10 189 211 4 188 212 4 199 223 7 203 223 10 199 218 14 182 203 14 184 207 11 190 216 7 195 220 5 192 216 8 186 209 7 195 219 11 190 214 6 190 213 9 195 217 8 182 203 4 175 195 9 195 218 13 189 213 5 175 198 6 181 204 8 180 204 4 174 195 4 178 200 4 193 215 8 197 223 4 192 218 9 184 209 4 180 202 3 184 206 10 186 211 6 182 204 5 176 197 6 187 209 10 197 219 12 197 220 8 193 214 11 191 212 9 195 218 6 188 209 6 190 211 12 194 218 8 200 222 13 195 217 8 203 227 9 199 221 12 191 212 11 179 199 3 184 205 4 201 224 10 199 222 10 180 201 10 178 200 4 193 216 11 192 215 11 198 222 12 211 237 8 215 240 14 199 222 10 187 208 9 191 214 10 191 214 9 192 215 11 201 226 11 200 225 10 192 216 6 191 213 4 193 215 6 191 215 7 189 212 7 184 207 5 190 212 13 191 213 16 190 214 6 197 223 4 192 216 8 189 212 7 194 221 5 181 206 3 172 194 5 174 196 9 178 204 7 189 217 10 195 222 6 192 215 11 190 215 2 196 223 7 201 226 20 203 230 14 198 223 7 198 222 12 204 230 11 209 235 12 202 226 18 188 211 9 187 210 8 182 209 8 189 214 11 199 226 9 198 229 4 202 229 13 198 221 9 190 213 8 192 217 11 187 215 6 191 220 8 199 226 9 191 216 10 187 212 9 190 216 7 198 223 7 200 227 10 205 233 8 196 223 7 195 221 12 201 228 12 197 223 12 182 209 6 176 202 5 186 214 7 192 221 7 189 214 9 183 211 4 181 209 3 180 206 9 183 208 3 184 209 6 184 209 6 182 206 6 185 209 11 186 211 6 195 220 4 188 211 6 174 195 6 173 195 6 175 201 4 185 208 6 194 219 6 195 222 3 189 218 4 195 219 9 186 209 7 177 204 5 184 206 7 193 217 7 195 220 7 190 213 8 185 210 5 
190 216 7 193 218 5 194 217 13 189 212 7 187 210 6 188 210 13 189 214 11 186 211 6 176 199 5 181 203 6 196 221 5 196 221 8 191 215 7 193 217 7 178 201 5 173 199 4 174 200 3 195 221 10 202 229 4 196 223 7 193 216 12 194 219 13 194 220 7 184 207 5 181 205 7 189 218 6 194 218 10 186 209 4 188 213 8 184 212 6 179 206 5 181 206 3 187 212 7 194 220 9 186 215 3 176 202 5 182 209 6 197 223 12 201 228 12 195 221 12 196 223 7 205 233 8 200 227 10 198 223 7 190 216 7 187 212 9 191 216 10 199 226 9 191 220 8 187 215 6 192 217 11 190 213 8 198 221 9 202 229 13 198 229 4 199 226 9 189 214 11 182 209 8 187 210 8 188 211 9 202 226 18 209 235 12 204 230 11 198 222 12 198 223 7 203 230 14 201 226 20 196 223 7 190 215 2 192 215 11 195 222 6 189 217 10 178 204 7 174 196 9 172 194 5 181 206 3 194 221 5 189 212 7 192 216 8 197 223 4 190 214 6 191 213 16 190 212 13 184 207 5 189 212 7 191 215 7 193 215 6 191 213 4 192 216 6 200 225 10 201 226 11 192 215 11 191 214 9 191 214 10 187 208 9 199 222 10 215 240 14 211 237 8 198 222 12 192 215 11 193 216 11 178 200 4 180 201 10 199 222 10 201 224 10 184 205 4 179 199 3 191 212 11 199 221 12 203 227 9 195 217 8 200 222 13 194 218 8 190 211 12 188 209 6 195 218 6 191 212 9 193 214 11 197 220 8 197 219 12 187 209 10 176 197 6 182 204 5 186 211 6 184 206 10 180 202 3 184 209 4 192 218 9 197 223 4 193 215 8 178 200 4 174 195 4 180 204 4 181 204 8 175 198 6 189 213 5 195 218 13 175 195 9 182 203 4 195 217 8 190 213 9 190 214 6 195 219 11 186 209 7 192 216 8 195 220 5 190 216 7 185 207 11 182 203 14 198 220 15 201 224 10 199 223 7 189 211 2 189 211 4 195 217 10 196 219 7 199 223 5 232 223 218 242 223 225 236 226 224 235 226 217 236 224 224 236 221 224 240 225 220 234 226 224 225 225 217 190 214 4 191 214 2 187 208 9 196 215 9 198 218 5 196 221 5 188 211 6 180 200 4 188 209 10 194 219 6 191 214 9 177 198 5 172 193 4 181 201 5 189 212 7 187 210 6 185 206 5 196 218 11 198 222 6 199 222 10 196 218 11 191 215 5 185 206 3 189 210 7 190 213 8 193 218 5 191 215 5 187 210 6 190 215 10 185 209 1 188 211 7 
184 206 7 187 210 5 189 215 4 189 215 6 187 208 5 188 207 3 
204 225 26 191 213 4 196 218 9 204 228 10 191 213 4 188 209 8 189 212 8 183 205 6 186 211 5 189 212 7 190 216 5 205 232 7 207 232 9 198 221 9 195 218 6 196 219 5 189 210 9 196 216 5 195 215 6 192 214 7 192 214 5 193 217 9 198 223 7 195 220 5 187 210 8 187 209 10 191 214 9 190 214 6 182 204 5 185 208 6 188 211 7 199 226 9 200 226 7 190 215 2 183 205 6 186 210 2 188 215 98 235 225 226 240 225 222 237 225 225 236 227 222 239 224 227 235 226 227 234 224 222 240 224 224 214 223 196 207 232 8 205 226 7 191 213 8 186 209 7 180 204 4 189 213 3 203 227 9 199 220 5 188 210 5 187 210 5 194 218 8 195 219 11 197 220 15 196 220 12 191 215 5 188 211 6 187 210 6 193 215 6 195 218 4 193 214 11 200 224 8 186 207 4 179 200 9 188 212 2 189 214 1 189 212 10 193 215 10 187 208 5 187 210 5 196 221 8 205 230 14 192 214 7 186 206 10 200 225 10 199 224 11 179 201 4 185 205 9 195 216 17 198 220 15 198 220 15 195 217 8 199 223 7 192 214 5 186 209 7 189 211 12 194 218 10 200 225 10 196 222 3 195 220 4 198 224 3 197 220 8 190 211 10 193 215 8 195 217 8 181 204 2 181 205 7 192 216 8 194 218 8 193 216 12 205 228 14 213 234 15 208 231 5 193 215 10 193 214 11 193 217 7 190 213 8 196 220 12 198 223 10 193 216 11 184 209 4 184 209 4 189 212 7 191 214 9 180 200 5 184 207 3 192 216 8 188 212 4 195 220 5 195 221 2 201 226 13 196 222 9 194 220 7 181 206 1 172 194 7 172 194 7 182 206 8 189 218 6 194 220 7 198 223 8 200 224 8 193 219 6 195 221 12 199 226 10 196 221 6 201 227 8 208 235 8 212 238 15 199 226 7 187 215 9 186 214 5 188 213 7 192 215 13 197 221 11 201 226 11 196 223 7 191 217 4 200 226 13 190 218 11 179 205 8 194 219 14 197 224 8 184 209 6 180 204 4 184 208 8 195 219 9 190 214 6 187 209 10 187 212 7 188 214 1 196 222 13 186 211 6 182 207 4 185 212 9 193 222 8 197 224 8 190 216 7 176 202 5 175 201 6 176 203 2 177 200 8 180 204 6 179 202 6 179 202 6 183 207 7 185 208 4 183 205 9 175 195 9 180 204 4 189 215 6 194 218 10 191 215 7 191 215 5 191 217 6 191 220 4 186 214 7 180 203 9 181 206 3 189 213 5 193 215 6 197 221 5 199 224 9 201 229 4 
194 220 9 190 215 10 196 221 6 189 213 5 187 208 5 187 210 8 187 210 6 190 214 6 202 228 5 204 228 10 192 215 11 184 209 4 192 218 5 187 212 7 185 208 3 197 221 3 207 232 6 203 229 6 193 217 7 197 223 12 197 223 10 190 216 5 179 203 5 176 204 5 183 212 6 179 203 5 176 198 2 182 207 4 181 209 0 177 204 3 191 220 8 202 230 6 194 223 9 184 213 9 182 207 4 186 211 6 196 222 13 188 214 1 187 212 7 187 209 10 190 214 6 195 219 9 184 208 8 180 204 4 184 209 6 197 224 8 194 219 14 179 205 8 190 218 11 200 226 13 191 217 4 196 223 7 201 226 11 197 221 11 192 215 13 188 213 7 186 214 5 187 215 9 199 226 7 212 238 15 208 235 8 201 227 8 196 221 6 199 226 10 195 221 12 193 219 6 200 224 8 198 223 8 194 220 7 189 218 6 182 206 8 172 194 7 172 194 7 181 206 1 194 220 7 196 222 9 201 226 13 195 221 2 195 220 5 188 212 4 192 216 8 184 207 3 180 200 5 191 214 9 189 212 7 184 209 4 184 209 4 193 216 11 198 223 10 196 220 12 190 213 8 193 217 7 193 214 11 193 215 10 208 231 5 213 234 15 205 228 14 193 216 12 194 218 8 192 216 8 181 205 7 181 204 2 195 217 8 193 215 8 190 211 10 197 220 8 198 224 3 195 220 4 196 222 3 200 225 10 194 218 10 189 211 12 186 209 7 192 214 5 199 223 7 195 217 8 198 220 15 198 220 15 195 216 17 185 205 9 179 201 4 199 224 11 200 225 10 186 206 10 192 214 7 205 230 14 196 221 8 187 210 5 187 208 5 193 215 10 189 212 10 189 214 1 188 212 2 179 200 9 186 207 4 200 224 8 193 214 11 195 218 4 193 215 6 187 210 6 188 211 6 191 215 5 196 220 12 197 220 15 195 219 11 194 218 8 187 210 5 188 210 5 198 222 6 203 227 9 188 212 2 181 203 4 186 209 7 191 213 8 205 226 7 208 232 94 227 228 220 236 227 218 235 225 226 239 224 221 244 225 219 235 227 225 237 229 218 242 221 236 193 217 133 186 214 8 188 210 3 183 206 4 192 212 3 199 226 7 199 226 9 188 211 7 185 208 6 182 204 5 190 214 6 191 214 9 187 209 10 187 210 8 195 220 5 198 223 7 193 217 9 192 214 5 192 214 7 195 215 6 196 216 5 189 210 9 196 219 5 195 218 6 198 221 9 207 232 9 205 232 7 190 216 5 189 212 7 186 211 5 183 205 8 189 213 5 189 210 9 191 213 6 
204 228 10 194 218 8 191 213 4 199 220 5 
198 219 28 193 217 7 190 214 6 197 221 5 200 224 8 187 208 5 183 206 4 189 212 8 191 215 7 181 203 7 175 198 6 190 216 5 202 226 6 196 221 8 197 224 5 201 225 7 198 222 4 197 221 5 201 222 5 197 220 6 199 222 8 194 219 4 198 224 5 202 227 3 206 228 5 208 232 14 205 230 7 207 232 8 199 223 7 196 219 5 194 217 3 202 228 9 213 234 7 203 225 3 187 209 10 183 204 3 190 213 8 214 228 203 242 222 224 234 224 222 235 226 221 240 227 221 234 225 220 243 228 223 233 226 220 243 226 219 198 223 131 192 223 6 206 227 10 196 218 9 182 204 8 183 205 9 199 221 12 192 214 5 188 209 8 180 201 8 181 203 6 186 208 12 189 210 9 196 220 12 194 218 10 195 219 11 188 211 6 191 211 15 185 207 8 191 214 2 199 219 10 196 218 13 191 214 9 193 216 11 191 214 10 191 213 16 203 226 14 201 224 10 197 219 12 197 222 7 198 221 9 205 230 7 202 226 8 201 223 14 195 219 9 193 216 11 187 210 5 194 217 3 197 220 6 196 217 16 200 222 13 199 222 10 192 213 14 190 213 8 183 205 8 185 208 6 197 221 11 193 217 9 184 207 5 191 215 7 197 219 10 201 224 10 200 223 9 194 215 12 183 205 6 187 210 6 193 218 5 194 218 10 191 215 7 194 216 9 201 220 16 190 209 3 181 201 5 194 218 10 192 215 10 180 202 5 187 208 9 193 216 11 190 213 8 185 210 7 190 215 9 196 223 4 201 227 6 197 220 8 188 209 8 188 212 4 196 220 12 195 219 11 192 216 6 189 214 8 190 216 5 199 227 5 194 219 4 184 207 5 183 205 8 187 210 16 190 215 10 186 211 5 196 219 14 203 229 10 196 222 9 187 212 9 187 212 6 186 209 4 188 211 9 193 216 11 201 224 19 191 216 10 173 199 6 169 191 4 185 210 7 182 205 1 179 200 7 179 201 5 185 209 9 183 208 5 175 196 5 176 199 5 173 199 6 186 210 12 190 214 4 185 210 4 189 214 8 187 213 4 187 212 6 186 211 6 189 211 14 194 219 14 183 211 2 176 202 5 175 201 4 185 210 5 189 218 4 184 209 6 191 215 7 197 222 9 181 206 3 177 204 5 182 206 8 180 204 4 179 201 4 180 204 6 183 207 7 187 212 7 189 212 8 187 210 8 184 207 5 187 212 9 187 212 6 191 217 8 197 222 9 194 221 5 189 217 10 189 217 8 185 210 5 175 202 3 181 208 5 188 214 5 193 218 3 189 213 5 180 202 5 185 210 4 
190 218 9 192 218 5 193 218 3 190 213 9 186 209 7 193 217 9 194 216 7 193 215 8 196 220 10 198 223 8 194 218 10 192 218 7 201 227 14 192 218 9 197 222 6 203 228 4 198 223 10 191 214 10 191 216 10 184 209 4 188 213 8 178 204 9 168 195 6 178 206 8 180 209 5 174 202 3 174 201 2 181 207 10 188 217 5 191 220 4 204 232 10 193 220 4 182 210 4 189 217 10 185 210 5 175 201 4 176 202 5 183 211 2 194 219 14 189 211 14 186 211 6 187 212 6 187 213 4 189 214 8 185 210 4 190 214 4 186 210 12 173 199 6 176 199 5 175 196 5 183 208 5 185 209 9 179 201 5 179 200 7 182 205 1 185 210 7 169 191 4 173 199 6 191 216 10 201 224 19 193 216 11 188 211 9 186 209 4 187 212 6 187 212 9 196 222 9 203 229 10 196 219 14 186 211 5 190 215 10 187 210 16 183 205 8 184 207 5 194 219 4 199 227 5 190 216 5 189 214 8 192 216 6 195 219 11 196 220 12 188 212 4 188 209 8 197 220 8 201 227 6 196 223 4 190 215 9 185 210 7 190 213 8 193 216 11 187 208 9 180 202 5 192 215 10 194 218 10 181 201 5 190 209 3 201 220 16 194 216 9 191 215 7 194 218 10 193 218 5 187 210 6 183 205 6 194 215 12 200 223 9 201 224 10 197 219 10 191 215 7 184 207 5 193 217 9 197 221 11 185 208 6 183 205 8 190 213 8 192 213 14 199 222 10 200 222 13 196 217 16 197 220 6 194 217 3 187 210 5 193 216 11 195 219 9 201 223 14 202 226 8 205 230 7 198 221 9 197 222 7 197 219 12 201 224 10 203 226 14 191 213 16 191 214 10 193 216 11 191 214 9 196 218 13 199 219 10 191 214 2 185 207 8 191 211 15 188 211 6 195 219 11 194 218 10 196 220 12 189 210 9 186 208 12 181 203 6 180 200 7 188 209 8 192 214 5 197 221 11 183 205 9 182 204 8 196 218 9 204 228 10 202 223 8 220 228 213 239 225 222 236 225 219 240 224 227 235 228 220 236 227 220 237 227 218 237 228 221 230 226 214 187 214 15 188 208 12 182 204 7 188 209 6 203 224 5 210 238 5 202 228 9 194 217 3 196 219 5 199 223 7 207 232 8 205 230 7 208 232 14 206 228 5 202 227 3 198 224 5 194 219 4 199 222 8 197 220 6 201 222 5 197 221 5 198 222 4 201 225 7 197 224 5 196 221 8 202 226 6 190 216 5 175 198 6 181 203 7 191 215 7 189 212 8 182 205 1 188 209 6 
199 223 7 198 222 6 190 213 8 193 217 9 191 213 6 
194 217 25 189 214 8 188 213 7 192 219 3 205 231 10 206 231 15 193 217 7 190 214 4 191 215 7 179 202 6 173 199 6 181 208 9 188 211 7 184 212 5 197 226 12 198 222 6 197 222 7 198 221 9 189 211 2 196 219 5 192 217 2 180 202 3 183 206 4 186 206 10 182 201 11 179 201 5 188 211 6 193 217 7 195 220 4 187 210 6 184 206 9 195 221 8 211 235 17 202 225 11 194 218 8 200 223 11 188 216 10 191 217 120 235 228 220 242 224 222 236 229 223 236 222 221 243 225 223 233 229 218 234 228 230 234 227 221 239 224 227 188 214 29 202 223 6 202 223 8 192 214 5 188 211 9 194 216 17 194 217 15 192 216 6 187 208 9 190 212 7 194 218 2 197 221 5 192 214 7 190 213 8 200 223 18 200 222 13 197 221 3 196 222 9 191 212 9 191 213 6 191 213 8 188 211 9 189 212 10 190 213 9 191 214 10 195 217 10 193 215 6 192 214 9 198 222 12 199 221 12 198 218 7 205 226 9 194 216 7 185 209 1 186 209 5 185 207 8 186 208 11 186 208 9 186 209 7 191 215 5 195 218 14 201 222 21 202 226 10 202 223 20 195 216 15 196 219 7 196 218 9 183 205 8 186 209 7 196 219 7 207 232 6 210 236 7 200 224 8 183 205 8 188 210 11 190 213 9 190 213 8 190 216 3 197 222 6 207 232 8 193 216 2 176 196 13 187 209 10 197 222 9 190 214 4 190 214 4 194 216 7 189 210 7 184 205 6 191 215 7 195 220 7 190 213 8 202 227 14 200 223 11 183 206 1 185 208 3 193 217 9 187 210 5 181 205 7 186 210 10 192 218 5 192 216 8 186 208 9 191 217 6 194 219 16 189 212 8 177 198 7 176 198 2 184 209 4 194 220 7 188 214 5 189 213 5 197 222 9 193 217 9 189 212 10 191 214 9 185 210 5 178 201 5 170 190 4 179 203 5 186 214 7 190 213 8 184 207 2 188 213 8 191 214 10 184 207 5 174 197 5 179 202 8 190 214 6 190 213 8 196 221 8 200 227 10 196 222 9 181 208 7 175 198 2 186 211 6 191 220 4 183 212 6 171 201 7 173 201 2 182 209 6 192 221 9 183 208 5 181 203 7 187 212 7 192 221 9 192 221 9 192 221 7 192 218 5 188 211 9 189 214 8 193 219 6 190 216 3 193 217 7 191 215 7 183 206 4 183 207 7 188 214 5 196 223 7 196 221 8 189 213 3 188 218 10 187 215 8 185 208 6 182 210 4 188 218 8 191 220 8 189 215 6 186 211 8 185 214 2 189 219 9 
190 218 9 187 211 13 187 210 5 194 220 9 196 222 11 198 222 12 197 220 6 191 213 4 192 215 11 197 227 9 194 221 5 190 215 10 193 218 5 192 215 11 192 218 9 195 222 6 198 225 9 190 215 9 183 207 7 182 209 6 189 215 6 182 206 8 170 195 7 181 205 7 184 207 3 185 210 5 188 218 10 187 215 8 192 218 5 201 227 14 194 220 11 179 202 6 184 209 6 193 219 6 182 209 6 173 201 2 171 201 7 183 212 6 191 220 4 186 211 6 175 198 2 181 208 7 196 222 9 200 227 10 196 221 8 190 213 8 190 214 6 179 202 8 174 197 5 184 207 5 191 214 10 188 213 8 184 207 2 190 213 8 186 214 7 179 203 5 170 190 4 178 201 5 185 210 5 191 214 9 189 212 10 193 217 9 197 222 9 189 213 5 188 214 5 194 220 7 184 209 4 176 198 2 177 198 7 189 212 8 194 219 16 191 217 6 186 208 9 192 216 8 192 218 5 186 210 10 181 205 7 187 210 5 193 217 9 185 208 3 183 206 1 200 223 11 202 227 14 190 213 8 195 220 7 191 215 7 184 205 6 189 210 7 194 216 7 190 214 4 190 214 4 197 222 9 187 209 10 176 196 13 193 216 2 207 232 8 197 222 6 190 216 3 190 213 8 190 213 9 188 210 11 183 205 8 200 224 8 210 236 7 207 232 6 196 219 7 186 209 7 183 205 8 196 218 9 196 219 7 195 216 15 202 223 20 202 226 10 201 222 21 195 218 14 191 215 5 186 209 7 186 208 9 186 208 11 185 207 8 186 209 5 185 209 1 194 216 7 205 226 9 198 218 7 199 221 12 198 222 12 192 214 9 193 215 6 195 217 10 191 214 10 190 213 9 189 212 10 188 211 9 191 213 8 191 213 6 191 212 9 196 222 9 197 221 3 200 222 13 200 223 18 190 213 8 192 214 7 197 221 5 194 218 2 190 212 7 188 209 8 192 216 6 193 218 15 194 216 17 189 210 9 193 215 8 202 222 9 201 222 5 187 221 108 233 225 223 239 223 223 236 227 228 241 223 219 239 224 227 236 225 231 236 225 219 235 222 229 197 224 179 187 210 5 196 215 11 199 224 9 195 218 6 204 224 11 211 235 15 195 221 8 184 206 9 187 210 6 195 220 4 193 217 7 188 211 6 179 201 5 182 201 11 186 206 10 183 206 4 180 202 3 192 217 2 196 219 5 189 211 2 198 221 9 197 222 7 198 222 6 197 226 12 184 212 5 188 211 7 181 208 9 173 199 6 179 202 6 191 215 7 190 214 6 193 217 7 205 231 12 205 231 10 
191 217 6 187 215 8 189 215 6 188 211 6 
198 221 25 183 206 2 183 208 5 193 218 13 196 218 9 199 225 6 202 229 12 200 224 8 190 212 5 187 211 3 185 210 4 186 212 3 190 211 8 185 206 5 190 213 11 196 222 11 197 220 6 204 228 8 205 226 7 198 217 11 198 220 11 191 215 5 197 222 6 196 220 4 188 211 7 182 203 10 188 211 9 195 219 11 193 215 6 191 213 8 188 208 12 193 216 11 199 222 8 198 223 10 192 215 11 200 227 10 204 220 8 199 223 7 217 227 203 235 224 220 238 227 221 236 229 221 238 225 216 240 229 225 233 224 219 237 228 221 238 224 224 215 224 197 194 220 11 193 215 8 195 217 10 202 222 11 196 219 5 195 221 12 197 222 9 198 225 8 204 229 13 202 225 13 198 219 4 191 213 8 190 213 9 191 213 8 198 217 11 191 213 6 195 218 13 199 223 7 197 221 5 199 223 3 197 220 8 189 209 13 189 210 7 198 221 9 199 223 5 190 212 5 183 204 5 186 207 8 198 223 7 205 231 12 208 232 16 208 230 8 207 227 14 200 220 9 196 216 7 194 216 11 192 213 10 189 212 8 192 215 11 181 203 6 184 207 5 195 217 8 206 226 13 202 224 15 197 222 7 191 218 2 186 209 7 187 210 8 196 220 12 204 226 19 201 223 14 197 220 6 195 217 10 192 213 10 180 202 5 176 199 5 189 212 7 198 221 7 201 225 9 196 218 11 184 207 2 187 210 8 188 211 7 195 219 9 190 212 5 193 214 15 192 215 10 186 211 8 186 213 10 191 216 13 180 202 5 191 214 9 201 226 10 194 218 8 184 207 5 187 210 6 188 211 6 187 210 6 187 212 7 185 212 9 189 217 10 187 212 9 189 212 10 199 223 15 208 231 19 196 221 8 171 193 4 168 189 6 184 211 8 190 215 10 184 206 7 193 218 5 200 226 5 194 219 6 194 219 6 197 220 8 191 214 2 186 214 5 192 217 11 200 221 6 190 213 8 197 222 9 204 230 9 199 229 9 200 227 8 195 219 9 196 219 5 195 224 8 192 214 7 194 218 8 198 222 6 189 212 7 185 209 9 181 204 8 175 198 4 188 213 10 181 208 9 177 200 6 192 214 7 189 215 4 188 213 8 182 211 9 180 209 5 185 210 4 190 215 9 193 219 10 192 218 9 190 212 7 188 211 6 198 224 5 196 221 6 187 213 2 190 214 6 190 212 7 183 205 6 184 212 5 194 219 6 194 218 8 186 209 5 186 211 6 181 203 4 172 199 6 178 209 9 188 218 6 190 220 0 196 221 31 195 224 80 192 219 122 192 225 156 
192 228 184 203 222 190 210 224 201 219 221 207 223 226 209 224 225 207 222 224 203 224 227 206 217 222 200 208 221 195 206 221 190 191 224 179 187 219 143 188 221 108 193 222 72 192 220 40 187 216 12 184 209 4 177 205 6 179 214 8 183 215 7 179 206 5 175 198 2 177 201 3 188 213 8 190 216 5 186 209 5 190 218 12 195 221 8 194 221 5 191 216 10 186 211 6 180 209 7 182 211 9 189 214 8 188 214 5 190 216 5 174 201 2 181 208 9 186 211 8 177 198 5 182 204 8 186 208 9 190 212 7 198 221 7 193 217 7 192 216 8 198 223 8 196 221 5 193 219 8 198 228 8 201 228 9 203 231 7 197 224 8 190 213 8 198 223 8 191 217 8 186 214 5 191 213 6 195 221 10 193 219 6 193 220 4 199 223 3 194 217 5 183 206 4 190 215 10 186 209 13 168 190 4 171 193 4 197 222 9 206 231 16 200 223 18 189 211 12 187 212 6 191 216 10 185 212 9 187 212 7 187 210 6 188 211 6 187 210 6 184 207 5 194 218 8 201 226 10 191 214 9 180 202 5 191 216 13 186 213 10 186 211 8 192 215 10 193 214 15 190 212 5 195 219 9 188 211 7 187 210 8 184 207 2 196 218 11 201 225 9 198 221 7 189 212 7 176 199 5 180 202 5 192 213 10 195 217 10 197 220 6 201 223 14 204 226 19 196 220 12 187 210 8 186 209 7 191 218 2 197 222 7 202 224 15 206 226 13 195 217 8 184 207 5 181 203 6 192 215 11 189 212 8 192 213 10 194 216 11 196 216 7 200 220 9 207 227 14 208 230 8 208 232 16 205 231 12 198 223 7 186 207 8 183 204 5 190 212 5 199 223 5 198 221 9 189 210 7 189 209 13 197 220 8 199 223 3 197 221 5 199 223 7 195 218 13 191 213 6 198 217 11 191 213 8 190 213 9 191 213 8 198 219 4 202 225 13 204 229 13 198 223 8 196 222 9 196 220 10 199 218 4 202 222 13 195 217 10 192 216 6 196 218 9 223 224 210 237 225 225 236 224 224 237 227 218 240 220 222 242 225 218 236 225 231 236 227 218 234 225 216 197 219 58 199 223 7 201 222 5 202 225 13 193 214 11 197 224 7 199 222 8 193 216 11 188 208 12 191 213 8 193 215 6 195 219 11 188 211 9 182 203 10 188 211 7 196 220 4 197 222 6 191 215 5 198 220 11 198 217 11 205 226 7 204 228 8 197 220 6 196 222 11 190 213 11 185 206 5 190 211 8 186 212 3 185 210 4 187 211 3 190 212 5 
199 222 8 201 228 9 199 225 6 195 219 9 193 218 15 181 209 3 184 207 2 192 214 7 
194 216 29 185 208 6 177 200 6 181 207 12 191 215 15 191 217 6 197 224 5 206 230 14 200 225 10 193 217 7 199 225 6 199 225 6 200 225 9 198 224 3 191 215 5 195 220 7 201 227 4 197 223 4 201 225 9 206 229 15 201 224 10 198 224 5 205 230 6 205 225 4 194 217 5 200 222 13 204 229 6 205 230 7 202 226 10 195 218 6 196 220 12 201 228 11 207 230 2 204 225 8 196 221 8 198 223 7 196 216 5 193 219 6 206 233 60 235 225 223 236 226 224 236 222 222 241 225 225 233 230 221 236 226 225 240 227 221 238 229 224 239 225 222 195 220 103 183 214 14 194 216 11 201 221 10 198 218 7 186 210 2 183 204 5 184 208 10 205 228 16 207 231 13 197 220 6 201 225 9 200 225 9 197 221 5 201 223 0 199 219 6 189 211 4 189 210 7 190 214 6 198 221 17 198 219 18 189 210 7 184 205 4 201 226 11 203 227 11 195 217 12 194 216 9 195 218 4 192 214 9 204 227 15 210 234 16 207 229 6 211 232 17 209 230 15 200 220 7 202 226 10 196 219 7 194 218 8 195 219 9 190 213 9 193 215 6 188 209 6 185 206 3 193 214 13 199 222 8 194 217 5 175 196 7 178 199 10 194 217 15 192 215 10 185 208 6 191 213 16 198 224 5 203 228 5 191 213 4 180 200 4 184 206 9 199 222 8 197 221 5 194 216 7 185 206 7 179 201 4 187 209 12 195 219 9 190 216 7 187 209 12 194 217 12 183 206 2 183 207 9 191 217 8 194 220 7 189 215 6 193 217 7 201 226 13 202 228 9 198 223 10 194 217 12 195 220 5 194 221 4 190 216 5 182 206 6 199 224 18 200 227 11 195 219 9 202 227 11 203 229 8 184 206 7 176 197 6 183 206 10 184 209 3 183 205 6 184 207 3 191 215 5 189 214 8 192 215 10 194 217 12 196 218 13 189 213 13 183 206 2 195 218 4 188 211 6 185 207 8 199 224 8 199 226 9 193 224 9 197 224 5 200 223 9 192 217 11 190 213 9 193 219 10 196 221 6 180 204 4 178 199 6 192 219 3 200 225 10 191 220 8 185 215 7 187 215 9 188 217 5 191 215 7 185 214 2 182 211 5 180 209 5 188 211 6 187 210 6 182 206 6 185 214 8 191 222 4 191 220 6 190 216 5 193 215 8 189 213 5 186 216 8 172 202 8 175 201 6 195 220 7 199 224 8 187 218 26 178 214 56 181 214 84 188 217 109 191 223 148 197 223 186 211 224 198 221 225 210 230 228 216 235 226 219 
237 224 218 236 227 222 233 226 220 235 224 218 242 224 224 235 223 223 239 225 225 238 224 224 240 224 225 239 223 224 239 225 225 236 227 222 235 228 220 242 227 224 236 225 221 234 227 217 234 225 220 233 223 222 228 225 218 215 227 207 199 223 197 199 224 192 193 224 183 186 223 171 187 222 166 187 219 144 190 220 106 188 216 71 187 215 43 193 223 13 188 218 8 185 215 7 188 217 5 189 217 8 184 214 4 182 211 5 185 214 2 194 217 5 187 216 4 186 215 9 189 215 6 194 220 7 198 225 8 192 218 5 178 200 4 182 204 5 196 221 5 194 220 11 189 214 8 193 217 7 198 223 8 197 224 8 194 223 9 200 225 10 200 226 5 186 207 8 186 214 7 195 218 6 182 205 1 189 213 13 192 221 7 195 217 10 191 214 9 189 214 8 192 216 8 184 207 5 183 205 6 185 210 4 183 207 7 175 198 6 185 207 8 203 229 8 201 226 10 194 219 6 201 226 13 198 223 17 183 207 9 190 216 5 194 221 4 195 220 5 194 217 12 198 223 10 202 228 9 201 226 13 193 217 7 189 215 6 194 220 7 191 217 8 183 207 9 183 206 2 194 217 12 187 209 12 190 216 7 195 219 9 187 209 12 179 201 4 185 206 7 194 216 7 197 221 5 199 222 8 184 206 9 180 200 4 191 213 4 203 228 5 198 224 5 191 213 16 185 208 6 192 215 10 194 217 15 178 199 10 175 196 7 194 217 5 199 222 8 193 214 13 185 206 3 188 209 6 193 215 6 190 213 9 195 219 9 194 218 8 196 219 7 202 226 10 200 220 7 209 230 15 211 232 17 207 229 6 210 234 16 204 227 15 192 214 9 195 218 4 194 216 9 195 217 12 203 227 11 201 226 11 184 205 4 189 210 7 198 219 18 198 221 17 190 214 6 189 210 7 189 211 4 199 219 6 201 223 0 197 221 5 200 225 9 201 225 9 197 220 6 207 231 13 205 228 16 182 209 6 182 204 7 190 210 1 195 219 3 200 223 9 193 215 10 187 214 13 191 222 152 238 224 215 237 228 223 233 227 227 234 224 223 235 230 226 236 227 220 234 225 220 237 227 226 211 220 199 206 233 8 196 219 7 194 217 5 198 223 7 197 221 11 205 225 4 207 228 9 201 228 11 196 220 12 195 218 6 202 226 10 205 230 7 204 229 6 200 222 13 194 217 5 205 225 4 205 230 6 198 224 5 201 224 10 206 229 15 201 225 9 197 223 4 201 227 4 195 220 7 191 215 5 198 224 3 200 225 9 
199 225 6 199 225 6 193 217 7 200 225 10 206 230 12 197 224 7 191 217 8 191 214 10 183 206 10 177 200 6 185 207 8 188 209 8 
200 222 26 193 218 5 192 217 4 184 209 3 183 206 4 182 207 4 183 205 6 195 217 8 198 223 10 194 219 6 196 221 5 198 223 8 192 216 8 190 215 2 197 222 7 201 226 10 201 227 6 201 227 6 196 222 3 197 220 6 203 228 13 197 223 2 202 223 6 199 218 5 183 203 8 188 209 8 205 228 14 206 231 8 194 217 5 187 208 9 187 210 6 191 215 5 199 223 15 202 224 15 203 224 5 202 224 2 189 213 3 191 214 10 195 226 8 198 223 168 236 227 222 238 223 218 234 224 223 236 225 219 238 227 225 237 228 219 236 224 224 231 226 220 230 227 220 195 218 65 193 222 10 202 222 9 194 221 4 193 215 6 183 203 8 174 199 11 195 218 14 205 230 14 201 225 7 203 223 10 198 218 7 203 227 7 200 224 8 198 221 7 198 222 4 193 216 12 192 215 10 202 226 18 197 219 10 192 214 7 187 210 6 197 222 9 198 222 6 194 217 5 185 208 3 190 211 8 191 212 9 198 223 10 204 229 6 200 223 9 207 227 18 202 222 9 193 212 6 192 214 9 202 225 11 200 224 4 188 212 4 185 208 4 200 224 8 205 229 9 198 222 4 203 227 9 213 235 13 202 223 8 181 202 3 182 202 7 198 220 11 196 218 9 183 206 2 183 207 7 191 216 10 203 227 9 209 230 11 196 216 3 184 206 7 192 216 6 198 221 9 207 230 18 206 230 12 195 220 5 196 220 10 199 225 6 203 229 10 204 229 3 203 227 7 201 226 13 193 217 9 188 211 7 188 211 9 189 212 8 188 211 6 187 210 8 197 222 9 198 223 10 191 214 9 193 217 7 189 213 3 183 205 6 174 195 6 184 206 10 197 224 7 202 229 10 204 230 11 206 232 13 194 218 8 190 211 8 188 213 7 192 217 4 191 215 5 194 219 6 191 217 6 187 212 9 184 208 8 173 196 4 183 205 6 182 204 5 166 186 3 180 204 6 186 214 5 174 200 5 176 199 3 186 215 3 196 223 4 193 220 4 198 219 4 199 222 8 197 224 8 195 224 8 211 238 11 196 223 7 184 209 4 192 217 11 202 228 9 195 222 6 186 212 3 200 227 10 200 230 12 190 219 3 189 211 4 187 211 3 189 215 4 185 210 5 177 203 6 181 210 6 189 218 4 198 221 9 191 220 18 188 216 43 189 218 74 186 218 111 189 222 151 195 226 184 205 224 192 221 225 202 225 222 215 227 224 215 230 226 215 235 226 221 235 224 220 234 224 222 236 224 226 236 225 223 242 224 222 236 225 219 236 225 221 
235 225 226 240 226 226 242 222 231 236 226 224 235 224 218 237 226 220 238 227 223 238 227 223 238 227 223 234 223 221 235 223 223 236 224 224 237 226 224 235 226 221 236 225 219 241 226 223 237 225 227 235 226 221 235 228 222 238 228 219 240 225 218 241 226 221 237 226 220 236 227 218 237 226 222 239 225 224 240 226 223 234 225 218 229 225 214 230 222 209 221 224 207 213 225 203 208 223 200 196 224 186 186 222 152 185 219 107 190 216 80 188 219 40 201 230 14 201 228 11 178 210 3 190 224 6 201 228 9 193 216 11 184 209 3 198 223 7 210 239 9 195 225 7 194 223 7 198 225 9 196 218 9 194 218 2 197 222 6 188 213 7 173 199 2 174 200 3 190 214 6 180 203 7 166 186 3 183 205 8 184 205 6 174 195 6 184 208 8 186 214 8 190 215 9 193 217 9 191 217 8 190 216 7 185 213 4 190 213 11 194 218 8 205 231 12 204 230 11 203 229 6 197 224 5 183 206 14 174 196 9 183 205 6 189 213 3 193 217 7 191 214 9 198 223 10 197 222 9 187 210 8 188 211 6 189 212 8 188 211 9 188 211 7 193 217 9 201 226 13 203 227 7 204 229 3 203 229 10 199 225 6 196 220 10 195 220 5 206 230 12 207 230 18 198 221 9 192 216 6 184 206 7 196 216 3 209 230 11 203 227 9 191 216 10 183 207 7 183 206 2 196 218 9 198 220 11 182 202 7 181 202 3 202 223 8 213 235 13 203 227 9 198 222 4 205 229 9 200 224 8 185 208 4 188 212 4 200 224 4 202 225 11 192 214 9 193 212 6 202 222 9 207 227 18 200 223 9 204 229 6 198 223 10 191 212 9 190 211 8 185 208 3 194 217 5 198 222 6 197 222 9 187 210 6 192 214 7 197 219 10 202 226 18 192 215 10 193 216 12 198 222 4 198 221 7 200 224 8 203 227 7 198 218 7 203 223 10 201 225 7 205 230 14 195 218 14 177 199 10 182 203 10 194 213 7 195 218 6 199 224 8 200 224 8 195 217 57 238 227 223 237 226 224 241 220 225 243 223 222 236 227 220 235 224 218 232 223 218 240 225 218 240 224 224 199 221 78 198 225 6 190 215 10 191 213 4 201 222 5 203 225 3 201 224 10 199 224 11 191 215 5 187 210 6 187 208 9 194 217 5 206 231 8 205 228 14 188 209 8 183 203 8 199 218 5 202 223 6 197 223 2 203 228 13 197 220 6 196 222 3 201 227 6 201 227 6 201 226 10 197 222 7 
190 215 2 192 216 8 198 223 8 196 221 5 194 219 6 198 223 10 194 218 10 183 207 7 183 205 6 184 205 4 185 209 1 192 217 4 195 217 8 194 216 9 
201 223 26 200 223 11 193 216 4 202 226 8 198 221 7 191 212 11 181 203 7 180 204 4 184 206 9 182 207 4 193 219 8 199 225 2 198 224 3 192 214 7 190 213 8 197 223 12 204 229 6 204 228 10 197 220 8 191 213 4 187 208 7 189 212 8 192 213 10 189 207 9 179 199 4 169 189 4 183 205 8 195 219 11 199 222 8 204 228 10 194 216 7 196 218 9 192 216 8 185 208 6 187 210 8 195 220 5 194 217 5 194 213 7 198 223 10 202 226 18 235 224 218 240 222 218 236 224 224 240 229 227 239 221 217 237 225 225 236 226 225 233 227 215 235 223 223 228 226 214 198 218 32 193 218 3 189 212 7 194 214 5 201 222 3 196 218 13 192 213 12 197 221 11 205 231 10 206 232 3 197 221 5 197 222 6 206 231 8 204 223 7 199 222 8 192 214 5 191 214 9 191 214 10 195 219 9 200 224 6 203 228 12 195 218 16 192 214 9 191 215 7 185 208 6 187 208 7 187 209 2 186 208 9 191 216 11 191 215 7 197 220 8 201 224 10 196 218 11 185 206 7 199 222 10 206 231 7 194 217 5 185 205 10 186 208 9 191 213 6 198 220 11 195 216 15 199 221 12 208 233 9 199 223 7 198 217 14 198 220 13 200 223 11 196 218 13 186 211 5 193 218 12 197 222 7 201 226 11 199 224 8 198 223 8 193 217 9 194 216 9 198 220 13 198 221 7 200 223 9 199 225 6 195 220 5 194 217 5 197 219 10 199 223 3 197 222 9 201 226 20 199 223 13 191 213 6 188 210 3 191 214 12 186 208 11 187 212 9 193 219 8 196 222 11 199 224 11 193 218 5 184 206 9 169 189 3 173 194 1 184 206 10 195 219 11 204 230 7 203 228 13 198 221 7 193 216 4 186 209 5 187 211 1 187 210 6 181 203 6 178 200 3 183 207 7 179 204 1 178 201 7 180 202 3 189 211 6 178 198 3 173 195 6 183 210 7 181 204 10 187 211 13 190 215 9 199 224 9 201 228 11 201 227 6 202 228 9 194 220 9 195 225 7 208 236 12 209 235 12 188 214 5 185 210 5 187 215 9 193 223 5 192 221 7 184 219 11 192 227 11 195 225 7 186 213 12 185 215 42 191 223 100 192 222 152 196 221 181 204 223 191 208 221 195 220 224 209 233 223 214 232 223 218 233 226 220 235 226 221 234 223 221 237 225 225 237 225 225 237 225 229 241 222 224 240 224 224 237 228 223 237 227 218 242 224 222 241 225 226 236 227 220 237 228 221 
239 230 223 236 232 221 237 228 219 236 227 218 235 223 223 236 222 222 237 230 224 235 227 216 237 228 223 236 227 222 236 227 220 237 227 218 238 228 219 235 224 218 235 224 218 234 225 218 237 226 222 237 226 224 236 225 223 235 223 223 235 228 222 237 226 220 234 225 218 237 221 222 241 223 219 239 224 219 235 223 225 234 222 222 236 222 222 235 223 223 234 225 218 232 225 219 236 225 219 236 227 220 238 227 221 235 223 223 235 223 225 237 221 222 239 226 220 236 229 221 227 228 220 223 225 211 216 224 203 208 223 190 195 222 151 188 221 90 183 214 32 188 213 7 199 235 11 203 235 14 195 224 12 194 220 7 200 228 4 199 227 2 202 229 10 195 225 7 188 216 7 184 213 11 181 204 8 186 211 8 172 198 5 176 199 3 189 208 4 180 203 7 178 201 7 179 203 5 183 208 5 178 200 1 183 203 7 187 210 6 186 210 2 187 210 5 193 215 6 197 220 6 202 227 11 204 230 7 195 219 11 183 207 9 173 195 6 168 190 3 184 206 9 193 218 5 199 224 11 196 222 11 193 219 8 187 212 9 186 208 11 191 214 12 188 210 3 191 213 6 199 223 13 201 226 20 197 222 9 199 223 3 197 219 10 194 217 5 195 220 5 199 225 6 200 223 9 198 221 7 198 220 13 194 216 9 193 217 9 198 223 8 199 224 8 201 226 11 197 222 7 193 218 12 186 211 5 196 218 13 200 223 11 198 220 13 198 217 14 199 223 7 208 233 9 199 221 12 195 216 15 198 220 11 191 213 6 186 208 9 185 205 10 194 217 5 206 231 7 199 222 10 185 206 7 196 218 11 201 224 10 197 220 8 191 215 7 191 216 11 186 208 9 187 209 2 187 208 7 185 208 6 191 215 7 192 214 9 195 218 16 203 228 12 200 224 6 195 219 9 191 214 10 191 214 9 192 214 5 199 222 8 204 223 7 206 231 8 197 222 6 197 221 5 206 232 3 205 231 10 197 221 11 192 213 12 194 217 12 198 224 3 191 216 3 189 214 9 193 216 4 199 219 10 207 222 191 243 226 219 234 226 224 231 226 222 243 223 225 236 226 217 237 227 225 245 225 227 230 223 217 210 220 193 202 225 13 195 224 12 193 213 2 196 214 8 197 220 6 187 210 6 183 210 7 193 215 10 196 218 9 194 216 7 204 228 10 199 222 8 195 219 11 183 205 8 169 189 4 179 199 4 189 207 9 192 213 10 189 212 8 187 208 7 191 213 4 
197 220 8 204 228 10 204 229 6 197 223 12 190 213 8 192 214 7 198 224 3 199 225 2 193 219 8 182 207 4 184 206 9 180 204 6 181 203 7 191 212 11 201 221 8 201 224 10 193 216 2 200 223 9 196 218 11 
206 227 28 195 221 2 188 212 2 201 226 10 212 237 11 198 219 4 192 213 10 196 226 6 197 220 6 192 217 2 192 215 10 186 208 9 190 213 9 190 213 8 187 212 6 189 218 6 205 230 15 208 232 12 203 227 9 207 228 13 194 213 7 189 211 4 188 209 6 187 208 5 187 209 4 189 210 11 188 211 9 187 208 9 190 211 8 203 227 11 205 229 9 210 235 9 211 230 14 194 214 5 195 224 12 204 232 8 210 230 9 208 228 6 201 225 7 202 225 11 206 227 106 240 226 225 233 231 219 235 224 220 242 223 227 238 229 224 239 227 227 240 224 225 239 223 224 230 227 218 225 222 215 202 227 11 196 219 7 189 212 8 189 216 13 195 218 13 193 217 19 179 203 5 189 212 10 206 227 10 197 220 6 195 218 16 209 235 14 211 236 13 202 228 9 196 219 5 201 222 7 192 214 9 184 206 7 190 214 6 199 224 11 204 228 10 201 221 8 193 215 10 191 212 9 192 214 9 194 216 9 183 206 1 176 199 7 179 202 6 189 213 3 203 229 6 200 226 5 198 223 8 198 222 6 213 235 28 208 231 17 194 213 10 185 206 13 185 207 10 192 214 7 195 217 12 187 209 4 196 219 7 202 225 11 205 228 16 206 229 15 200 223 9 195 216 13 187 209 10 194 219 6 194 218 8 189 212 10 185 210 7 195 220 7 200 226 7 197 220 8 192 214 7 200 222 13 201 225 7 192 216 6 190 213 11 190 216 7 192 217 2 190 214 6 190 215 10 187 216 4 199 226 9 199 224 8 194 218 8 193 218 5 186 211 6 187 211 11 186 211 6 189 214 9 199 223 15 201 226 10 202 228 9 197 223 10 195 221 12 189 212 7 183 206 1 199 225 6 203 229 8 204 230 11 202 227 11 199 225 4 201 226 11 197 221 11 190 214 6 185 207 8 181 203 6 182 207 4 185 209 9 187 215 9 198 223 7 200 224 8 185 210 7 179 203 5 173 195 8 187 210 16 199 225 16 187 217 5 188 213 8 188 217 3 186 214 5 183 207 9 184 207 11 194 223 7 204 232 7 197 226 10 184 211 8 179 208 4 192 216 32 192 221 69 179 221 113 191 226 172 209 231 195 232 228 217 235 228 218 237 227 218 238 225 219 237 225 225 236 226 227 234 224 225 235 223 223 236 228 226 234 224 222 237 226 224 237 228 221 237 228 223 233 224 219 236 225 221 236 227 220 234 229 226 236 226 225 238 224 224 236 222 221 234 224 223 237 225 225 239 226 220 
234 227 221 236 224 224 236 226 224 238 227 221 235 226 219 235 228 222 236 228 226 236 224 226 240 221 227 240 222 222 240 224 225 237 225 225 233 223 222 236 226 225 237 225 227 239 224 227 239 225 225 237 234 219 236 231 225 237 225 229 235 225 223 239 225 222 236 225 221 233 223 222 234 224 223 236 228 225 235 225 224 234 224 225 237 226 224 238 227 221 237 226 220 237 226 224 240 226 226 233 228 225 235 223 223 241 222 226 241 223 223 237 225 225 236 222 221 237 223 223 236 227 222 237 231 219 237 226 220 238 227 221 236 227 220 234 225 220 238 228 219 235 227 216 226 223 216 210 231 198 198 224 179 185 220 128 181 216 70 185 216 24 191 215 7 187 212 7 185 217 9 195 225 17 187 210 16 173 194 5 179 202 8 186 209 4 201 225 5 199 225 6 186 214 8 184 209 6 184 208 8 180 202 3 185 206 5 192 214 7 197 221 13 202 226 16 200 225 2 203 227 9 204 228 12 203 229 6 199 225 6 183 206 2 188 212 4 197 221 13 198 223 8 202 228 9 201 226 10 199 223 15 189 214 9 186 211 6 187 211 11 186 211 6 193 218 5 194 218 8 199 224 8 199 226 9 187 216 4 190 215 10 190 214 6 192 217 2 190 216 7 190 213 11 192 216 6 201 225 7 200 222 13 192 214 7 197 220 8 200 226 7 195 220 7 185 210 7 189 212 10 194 218 8 194 219 6 187 209 10 195 216 13 200 223 9 206 229 15 205 228 16 202 225 11 196 219 7 187 209 4 195 217 12 192 214 7 185 207 10 185 206 13 194 213 10 208 231 17 213 235 28 198 222 6 198 223 8 200 226 5 203 229 6 189 213 3 179 202 6 176 199 7 183 206 1 194 216 9 192 214 9 191 212 9 193 215 10 201 221 8 204 228 10 199 224 11 190 214 6 184 206 7 192 214 9 201 222 7 196 219 5 202 228 9 211 236 13 209 235 14 195 218 16 197 220 6 206 227 10 189 212 10 179 203 5 193 217 19 196 219 15 192 215 11 189 212 8 200 218 8 193 227 8 199 222 106 240 224 224 240 224 227 238 227 221 237 228 219 239 226 218 231 226 223 238 228 229 233 224 217 235 228 222 207 225 53 201 226 13 204 225 6 207 227 6 209 229 10 204 231 6 197 223 14 193 216 4 210 231 12 210 235 9 205 229 9 203 227 11 190 211 8 187 208 9 188 211 9 189 210 11 187 209 4 187 208 5 188 209 6 
189 211 4 194 213 7 207 228 13 203 227 9 208 232 12 205 230 15 189 218 6 187 212 6 190 213 8 190 213 9 186 208 9 192 215 10 192 217 2 197 220 6 198 225 8 193 215 10 198 218 5 212 237 11 201 226 10 188 214 3 196 219 5 201 219 9 
207 229 24 188 214 5 177 204 1 182 210 4 194 221 5 204 229 5 196 220 4 191 217 8 203 229 8 210 235 11 202 223 6 193 215 6 190 213 8 172 195 3 177 200 8 192 215 11 197 223 12 204 229 13 213 238 15 212 235 9 208 230 8 208 230 8 202 223 4 201 221 10 203 224 5 206 228 6 196 219 5 192 215 3 191 213 4 190 212 5 193 218 5 197 221 11 202 225 13 197 216 12 196 220 4 205 224 18 206 229 15 211 234 4 208 223 6 194 218 10 199 221 12 206 226 173 244 226 224 233 231 218 238 228 226 230 228 216 240 229 223 235 235 225 243 226 218 242 223 227 237 226 220 215 228 202 202 225 13 199 220 17 187 203 6 184 207 3 201 223 16 193 217 9 182 205 3 182 204 8 183 207 9 177 200 4 193 216 11 205 227 5 195 219 9 193 215 8 199 219 6 193 212 9 187 209 13 186 211 8 196 220 10 210 236 7 217 237 18 208 229 12 201 225 7 202 223 6 200 221 4 192 214 5 183 205 8 181 204 0 187 209 12 189 211 14 196 221 8 203 229 6 197 221 5 196 217 18 208 229 10 203 223 10 195 216 13 191 213 14 194 219 13 201 227 8 199 222 8 194 213 10 191 213 8 193 217 9 199 224 9 189 211 6 183 204 5 193 215 10 201 225 7 194 217 3 186 207 6 186 208 9 190 213 8 200 225 10 199 224 9 186 209 4 193 216 14 197 221 13 193 217 7 187 212 6 183 210 9 197 224 5 198 223 8 197 221 11 195 220 7 190 213 9 195 220 14 197 224 7 202 229 10 198 225 9 193 220 4 188 217 1 191 218 2 192 218 7 193 216 11 194 219 6 203 230 13 197 222 17 201 226 10 198 223 10 198 222 12 203 229 8 199 225 6 200 225 9 204 230 11 214 240 17 212 237 14 204 228 10 194 218 8 187 210 5 189 212 8 193 218 13 194 223 7 198 225 6 200 226 7 198 223 8 186 209 4 176 197 4 172 192 6 183 208 5 191 219 10 188 216 7 191 220 6 188 218 8 184 220 10 181 209 3 194 219 13 203 231 51 203 224 159 210 225 196 221 227 215 225 226 212 234 230 219 235 225 224 237 224 231 242 221 226 235 224 222 233 223 224 234 225 220 237 228 221 237 225 225 238 224 224 244 226 222 242 224 220 235 224 218 242 224 222 244 222 224 240 222 222 236 224 228 237 226 224 239 223 223 241 221 223 237 226 220 237 223 222 236 225 219 236 227 220 236 226 224 235 226 219 
238 227 221 236 224 226 237 228 221 237 226 222 235 223 225 239 220 222 241 221 222 240 222 218 237 222 225 235 225 224 237 223 223 237 225 225 237 226 224 236 225 221 234 225 218 236 227 220 235 226 219 234 227 219 238 229 222 235 228 222 232 227 224 237 228 223 238 228 219 242 225 218 237 225 225 237 225 225 236 229 221 238 227 223 238 223 216 239 224 217 239 226 220 236 227 220 236 226 224 237 226 220 238 224 224 236 226 225 236 226 227 235 224 222 235 226 219 235 228 220 237 228 223 237 226 222 235 226 221 236 225 219 234 224 223 237 228 229 235 227 224 236 227 220 237 226 220 236 227 222 235 231 220 234 225 220 238 228 219 238 224 223 234 223 221 227 225 213 206 223 191 194 223 177 184 219 117 173 209 59 174 207 2 189 211 6 192 222 10 196 225 9 199 227 5 193 222 6 192 220 14 187 212 9 187 210 6 196 218 9 207 228 13 210 237 12 213 242 14 203 230 13 201 227 8 200 225 9 203 229 8 197 221 11 198 222 14 201 226 10 198 221 16 203 229 10 194 219 6 193 216 11 192 218 7 191 218 2 188 217 1 193 220 4 198 225 9 202 229 10 197 224 7 195 220 14 190 213 9 195 220 7 197 221 11 198 223 8 197 224 5 183 210 9 187 212 6 193 217 7 197 221 13 193 216 14 186 209 4 199 224 9 200 225 10 190 213 8 186 208 9 186 207 6 194 217 3 201 225 7 193 215 10 183 204 5 189 211 6 199 224 9 193 217 9 191 213 8 194 213 10 199 222 8 201 227 8 194 219 13 191 213 14 195 216 13 203 223 10 208 229 10 196 217 18 197 221 5 203 229 6 196 221 8 189 211 14 187 209 12 181 204 0 183 205 8 192 214 5 200 221 4 202 223 6 201 225 7 208 229 12 217 237 18 210 236 7 196 220 10 186 211 8 187 209 13 193 212 9 199 219 6 193 215 8 195 219 9 205 227 5 193 216 11 177 200 4 183 207 9 182 204 8 182 205 3 193 217 9 201 223 16 184 205 2 184 207 5 198 220 15 200 225 9 204 229 65 226 227 213 239 226 220 235 225 224 232 234 220 241 231 222 235 228 220 236 226 224 241 231 222 237 227 236 201 229 154 193 222 10 195 218 6 204 223 7 209 235 4 207 231 15 202 224 17 196 219 7 197 216 10 205 225 14 197 221 11 193 218 5 190 212 5 191 213 4 192 215 3 196 219 5 206 228 6 203 224 5 
201 221 10 202 223 4 208 230 8 208 230 8 212 235 9 213 238 15 204 229 13 197 223 12 192 215 11 177 200 8 172 195 3 190 213 8 193 215 6 202 223 6 210 235 11 203 229 8 192 216 6 196 219 5 204 229 6 192 222 4 181 210 6 177 204 3 189 212 7 202 221 5 
198 221 29 189 215 6 183 208 5 181 208 9 181 210 4 196 222 3 203 224 5 188 211 7 185 207 10 200 223 9 211 234 8 201 222 3 194 217 3 188 211 7 190 213 8 195 220 5 196 220 10 191 214 12 201 227 8 204 229 3 199 219 10 194 215 12 203 224 7 202 224 2 204 223 7 203 222 8 194 214 5 192 211 5 199 219 8 196 219 7 192 216 6 195 220 5 197 223 10 190 214 6 189 217 8 196 219 14 201 221 10 202 228 9 195 220 7 191 219 10 194 219 6 201 220 30 213 227 201 238 228 227 234 229 226 236 227 220 237 223 223 236 224 226 235 225 223 238 228 218 226 225 220 240 229 223 206 225 193 204 226 27 200 223 9 194 213 10 193 216 12 200 224 8 196 219 5 187 210 8 188 211 9 189 212 8 187 210 5 185 208 4 187 210 8 201 223 14 199 220 5 191 210 4 183 203 10 177 197 11 180 201 8 192 216 8 206 226 17 207 232 9 205 230 6 209 230 11 211 231 9 203 224 9 194 217 5 195 217 8 191 215 7 187 209 12 190 213 11 202 227 14 200 226 5 197 219 12 198 218 7 197 217 8 191 210 7 187 209 4 189 213 3 192 216 6 198 220 13 199 219 10 202 224 17 206 231 16 205 229 9 201 225 9 186 207 4 185 207 2 191 213 4 188 210 3 181 201 5 192 214 9 199 222 10 200 225 10 194 218 8 188 211 7 190 215 2 196 221 8 193 219 8 188 213 8 187 214 11 197 222 6 199 221 16 199 223 7 204 230 7 188 211 7 185 208 4 196 223 7 196 223 7 193 220 4 196 222 9 199 225 14 195 221 10 189 215 6 184 206 9 176 198 2 182 204 5 184 208 8 183 207 7 194 220 9 192 219 3 196 223 7 204 232 10 198 224 5 192 216 6 200 226 5 200 226 7 207 231 13 212 237 11 204 227 13 186 208 11 185 208 4 198 223 8 201 229 7 193 218 2 202 222 9 212 239 10 200 228 4 183 211 2 182 214 6 194 217 5 187 215 32 189 216 87 192 219 126 189 223 163 213 226 200 229 222 214 235 228 220 236 227 222 235 228 222 237 226 222 238 227 221 238 224 223 240 222 222 237 224 216 236 227 218 235 227 225 237 222 225 238 222 223 240 225 220 240 227 219 236 227 222 235 225 224 237 227 228 233 225 223 235 227 224 235 225 223 237 228 223 236 227 218 236 227 220 234 226 223 233 228 225 238 227 223 236 226 225 243 234 225 237 238 220 234 237 226 236 231 225 238 224 223 
237 225 225 235 226 219 234 224 223 233 228 224 235 227 224 237 226 224 237 228 219 237 226 220 236 227 222 239 225 225 236 222 222 235 224 222 237 228 223 237 226 220 237 226 222 236 225 223 239 225 225 236 227 222 237 228 221 237 228 219 237 226 220 238 222 223 240 224 224 240 225 220 237 226 220 237 221 221 236 222 221 233 223 222 233 227 227 234 225 226 236 226 227 239 223 224 240 221 223 236 226 224 234 223 221 234 225 218 235 228 222 237 226 220 239 224 221 237 224 218 237 225 225 242 224 224 239 225 224 235 225 226 239 225 224 242 224 224 239 220 224 238 227 225 232 227 221 236 227 220 237 225 225 236 224 224 238 226 228 236 221 224 239 224 227 237 226 224 234 224 223 235 228 220 235 223 225 227 228 214 213 238 199 200 225 186 195 223 148 201 229 92 197 223 40 187 212 7 182 212 4 196 229 14 206 237 11 204 231 6 201 225 9 199 224 9 191 215 5 197 224 5 205 233 11 196 223 7 192 219 3 195 221 10 183 207 7 184 207 5 181 203 4 176 198 2 184 206 9 189 215 6 195 221 10 199 225 14 196 222 9 193 220 4 196 223 7 196 223 7 185 208 4 188 211 7 204 230 7 199 223 7 199 221 16 197 222 6 187 214 11 188 213 8 193 219 8 196 221 8 190 215 2 188 211 7 194 218 8 200 225 10 199 222 10 192 214 9 181 201 5 188 210 3 191 213 4 185 207 2 186 207 4 201 225 9 205 229 9 206 231 16 202 224 17 199 219 10 198 220 13 192 216 6 189 213 3 187 209 4 191 210 7 197 217 8 198 218 7 197 219 12 200 226 5 202 227 14 190 213 11 187 209 12 191 215 7 195 217 8 194 217 5 203 224 9 211 231 9 209 230 11 205 230 6 207 232 9 206 226 17 192 216 8 180 201 8 177 197 11 183 203 10 191 210 4 199 220 5 201 223 14 187 210 8 185 208 4 187 210 5 189 212 8 188 211 9 187 210 8 196 219 5 200 224 8 193 216 12 194 212 14 202 222 9 202 227 14 204 228 54 227 223 214 236 227 220 235 224 218 236 227 228 237 225 225 239 226 220 233 224 227 240 230 220 236 230 218 228 227 209 199 221 12 194 217 3 194 218 8 196 218 9 205 226 11 198 220 11 199 221 14 192 215 10 189 214 8 199 223 7 195 220 5 192 216 6 196 219 7 199 219 8 192 211 5 194 214 5 203 222 8 204 223 7 202 224 2 
203 224 7 194 215 12 199 219 10 204 229 3 201 227 8 191 214 12 196 220 10 195 220 5 190 213 8 188 211 7 194 217 3 201 222 3 211 234 8 200 223 9 185 207 10 188 211 7 203 225 3 196 221 5 181 210 6 181 208 9 183 208 5 190 214 6 193 215 10 
190 215 27 193 219 6 195 217 8 180 202 5 179 208 2 202 228 7 209 230 13 197 219 10 192 215 11 197 221 11 205 232 5 201 224 12 197 220 8 197 221 5 196 220 10 197 222 7 197 218 3 190 212 5 194 218 10 198 222 12 200 224 14 184 207 5 190 212 7 202 223 8 210 231 14 209 231 8 208 229 12 204 224 13 200 221 6 201 222 7 191 213 6 192 214 9 198 223 7 193 215 10 193 215 8 202 227 12 204 230 9 201 225 9 193 217 7 192 216 6 200 224 8 194 220 7 197 218 79 227 224 215 241 227 226 236 234 219 236 226 225 236 227 220 236 227 220 236 232 223 244 231 222 236 222 222 241 225 225 223 229 201 202 224 51 191 216 10 202 225 11 207 228 9 197 217 8 182 205 3 192 218 9 202 228 7 206 230 12 198 223 7 200 224 8 205 230 6 205 230 4 201 225 5 190 212 3 176 198 2 178 199 8 182 205 11 189 210 7 195 219 11 202 226 16 202 226 8 204 225 6 202 223 8 199 219 8 200 221 6 205 226 7 203 227 7 201 224 12 199 224 9 208 235 8 209 233 13 209 233 13 207 228 9 201 220 14 199 220 3 199 223 7 199 222 10 196 218 11 189 210 11 190 211 10 193 215 6 198 215 12 211 231 12 204 225 6 196 218 13 192 215 13 184 204 9 182 202 7 190 211 8 195 217 8 193 216 11 181 203 6 186 208 12 184 206 9 192 216 6 192 218 7 182 206 6 180 207 6 183 208 5 187 210 8 189 215 6 194 220 9 188 213 8 187 210 5 193 218 5 191 215 7 187 212 6 187 212 7 202 228 19 202 228 15 191 217 8 194 218 10 194 218 10 181 203 7 177 199 2 183 206 10 185 213 7 186 213 12 187 212 9 191 217 8 193 218 5 195 220 5 193 217 9 192 215 11 186 209 5 192 214 7 198 220 11 189 212 7 184 207 5 189 212 7 191 224 13 191 220 6 193 219 10 195 222 47 195 222 81 197 219 134 201 222 191 224 224 214 230 227 218 230 226 217 236 222 222 235 226 217 234 225 220 235 224 220 241 225 225 236 225 223 234 224 222 236 227 220 242 223 225 236 221 224 233 229 220 236 227 222 241 227 226 234 229 223 236 227 222 237 226 220 238 227 223 237 225 225 235 224 222 235 224 218 237 226 222 242 224 220 235 224 220 234 225 218 237 226 224 237 225 227 234 222 224 238 227 221 237 226 222 238 222 222 237 230 220 237 233 224 237 226 220 237 226 220 
235 225 224 234 224 223 236 227 222 236 224 226 238 226 226 237 226 224 235 224 222 235 223 225 236 225 223 237 225 227 236 225 219 234 227 219 231 224 218 233 226 220 233 224 217 234 225 218 235 224 218 237 226 222 238 227 223 235 223 225 238 224 224 237 226 224 238 223 226 237 223 223 235 223 225 234 223 221 236 227 220 239 225 225 235 224 220 238 225 219 243 225 221 240 220 221 242 224 224 237 226 220 235 231 220 236 229 219 239 225 225 237 226 224 234 227 219 234 224 223 237 226 224 236 227 222 237 227 225 238 228 227 235 225 223 234 224 225 235 224 220 235 226 217 237 228 223 236 225 219 237 223 223 236 224 224 238 223 226 236 226 217 236 227 220 237 228 223 234 225 220 237 226 220 237 228 223 235 225 223 235 224 218 237 228 221 236 227 218 234 224 223 239 224 227 236 227 222 230 226 214 225 222 213 215 225 201 199 222 176 191 219 132 188 215 82 191 216 37 192 218 5 195 220 5 188 216 7 191 217 6 187 211 11 188 213 10 187 213 4 184 207 11 175 199 1 180 203 7 194 218 10 194 218 10 191 217 8 202 228 15 202 228 19 187 212 7 187 212 6 191 215 7 193 218 5 187 210 5 188 213 8 194 220 9 189 215 6 187 210 8 183 208 5 180 207 6 182 206 6 192 218 7 192 216 6 184 206 9 186 208 12 181 203 6 193 216 11 195 217 8 190 211 8 182 202 7 184 204 9 192 215 13 196 218 13 204 225 6 211 231 12 198 215 12 193 215 6 190 211 10 189 210 11 196 218 11 199 222 10 199 223 7 199 220 3 201 220 14 207 228 9 209 233 13 209 233 13 208 235 8 199 224 9 201 224 12 203 227 7 205 226 7 200 221 6 199 219 8 202 223 8 204 225 6 202 226 8 202 226 16 195 219 11 189 210 7 182 205 11 178 199 8 176 198 2 190 212 3 201 225 5 205 230 4 205 230 6 200 224 8 198 223 7 206 230 12 202 228 7 192 218 9 182 205 3 197 217 8 207 228 9 202 225 11 197 217 6 203 223 10 207 231 33 226 226 216 236 222 222 233 234 220 241 232 225 235 227 224 237 227 218 235 223 225 237 235 222 232 226 226 232 225 217 196 219 79 203 219 6 200 223 9 190 219 7 192 218 9 201 225 7 208 229 12 201 226 11 191 217 6 192 216 6 198 223 7 192 214 9 191 213 6 201 222 7 200 221 6 204 224 13 
208 229 12 209 231 8 210 231 14 202 223 8 190 212 7 184 207 5 200 224 14 198 222 12 194 218 10 190 212 5 197 218 3 197 222 7 196 220 10 197 221 5 197 220 8 201 224 12 205 232 5 197 221 11 192 215 11 197 220 8 209 230 11 203 229 8 180 207 4 181 203 6 195 217 8 194 219 4 184 208 8 
180 199 22 186 209 5 200 226 5 195 218 4 186 209 4 194 218 8 203 229 8 201 223 14 195 219 11 196 219 5 200 225 9 198 223 8 200 224 4 207 229 7 198 221 7 197 224 7 205 231 10 205 230 6 206 228 6 199 222 8 192 216 6 191 217 4 191 216 1 192 214 9 200 226 7 204 227 13 208 230 8 209 234 10 209 233 13 213 233 14 207 226 10 202 221 5 196 218 9 197 217 8 201 222 7 199 223 7 206 231 8 211 234 8 204 224 11 199 223 7 197 221 11 199 222 8 193 217 17 191 218 121 237 225 225 237 228 221 237 226 220 240 225 230 235 226 221 233 228 224 237 233 221 239 228 224 235 225 216 237 229 226 233 234 220 196 220 124 193 213 4 203 227 7 208 233 10 194 216 11 185 208 6 193 219 6 199 219 8 196 218 13 197 223 10 208 233 10 208 235 8 205 231 8 206 228 5 194 214 5 186 207 8 189 212 7 199 224 9 196 221 8 200 223 11 204 225 8 210 231 12 205 226 11 195 218 6 188 209 8 191 217 6 196 219 7 197 217 6 194 213 10 197 217 6 197 219 10 204 225 6 209 231 8 209 229 16 208 232 14 208 231 5 206 227 8 200 223 9 198 222 6 205 226 9 201 222 7 186 209 4 200 223 9 208 230 7 207 226 12 210 230 17 196 219 7 186 209 7 190 212 7 204 229 13 210 234 14 196 220 10 193 212 8 190 209 6 179 201 2 189 211 6 191 215 7 184 209 4 186 214 7 188 216 10 194 220 9 197 223 12 193 220 3 194 219 6 197 222 7 193 218 5 183 211 5 178 207 5 184 212 3 196 222 11 201 228 12 198 223 7 205 231 12 200 223 9 189 212 7 196 221 6 190 216 7 190 216 7 190 220 8 197 224 5 198 223 10 195 221 10 199 225 6 197 224 8 191 219 10 190 216 5 192 223 5 199 226 9 197 225 26 192 219 106 188 224 160 221 222 206 222 224 211 234 225 220 233 225 223 236 224 224 238 227 221 234 229 225 233 229 220 232 227 221 240 225 218 242 224 222 236 226 224 236 226 225 233 226 220 237 226 222 235 223 223 237 223 223 238 225 219 240 223 216 237 225 229 234 222 224 236 227 220 243 224 220 235 224 220 233 225 222 239 224 227 238 222 225 238 226 228 236 224 224 237 223 220 233 226 220 237 226 220 240 224 224 240 221 225 240 224 224 237 226 220 236 227 220 237 226 222 239 224 227 239 225 224 235 226 221 235 228 222 234 227 219 
236 226 225 237 226 220 237 226 222 238 227 225 235 231 220 226 224 212 215 220 200 202 222 187 190 221 151 187 221 127 185 220 104 188 217 99 193 226 87 191 220 68 189 215 54 183 214 58 185 216 76 186 218 111 181 223 141 198 223 183 208 225 193 219 223 209 223 223 211 228 225 216 232 225 219 234 225 218 236 224 226 237 225 225 238 228 226 240 226 223 238 223 216 236 227 220 234 230 221 234 227 217 237 225 225 241 225 225 237 226 222 236 227 218 237 227 218 235 223 223 239 225 225 236 224 224 233 226 218 241 226 223 236 228 217 235 225 224 239 224 227 239 225 225 238 228 219 236 227 220 235 223 223 237 221 224 237 226 222 237 229 218 238 222 225 238 222 223 233 228 225 235 228 218 237 229 226 233 225 222 236 227 220 234 224 222 235 224 220 237 226 222 237 228 219 235 223 225 237 225 225 236 227 220 235 226 219 236 227 218 236 227 222 234 224 222 234 227 217 224 225 209 210 223 197 196 223 172 197 224 131 191 220 92 189 219 63 190 216 29 195 221 12 187 212 7 196 222 9 205 230 14 197 224 5 202 228 9 196 222 9 184 212 3 182 206 6 182 210 3 192 216 6 197 222 6 190 219 7 195 220 5 198 221 9 192 221 7 188 216 9 188 213 8 184 209 6 192 216 8 188 211 7 180 202 5 188 210 5 194 213 10 197 220 6 211 235 19 205 230 14 190 211 8 186 209 7 195 219 9 211 229 21 207 227 6 206 231 8 200 224 8 186 209 5 199 222 8 207 227 8 198 222 6 200 225 9 207 227 8 209 231 8 207 233 14 210 230 17 209 232 6 202 226 8 198 217 11 195 218 6 194 213 7 199 218 5 195 218 4 191 217 6 186 211 8 195 218 6 207 226 10 210 231 14 202 226 8 201 225 9 197 220 8 199 222 10 188 214 5 186 207 8 194 214 3 204 229 6 205 231 8 208 235 10 207 233 10 200 223 9 198 217 11 195 218 6 194 219 4 183 208 5 194 216 9 207 232 9 206 226 7 190 214 4 194 220 9 214 235 32 217 231 196 237 225 225 237 226 220 242 234 223 238 227 223 242 227 222 243 225 223 234 224 223 240 220 221 227 229 218 193 221 170 196 217 16 198 223 8 197 219 12 199 223 7 204 224 11 211 234 8 206 231 8 199 223 7 201 222 7 197 217 8 196 218 9 202 221 5 207 226 10 213 233 14 209 233 13 209 234 10 208 230 8 
204 227 13 200 226 7 192 214 9 191 216 1 191 217 4 192 216 6 199 222 8 206 228 6 205 230 6 205 231 10 197 224 7 198 221 7 207 229 7 200 224 4 198 223 8 200 225 9 196 219 5 195 219 11 200 223 11 204 228 8 193 219 8 185 210 4 196 219 7 201 225 5 186 209 5 174 193 5 
191 213 27 186 208 9 187 208 5 185 207 2 185 210 5 184 211 8 191 217 8 206 227 8 202 226 8 196 219 7 195 217 12 190 215 2 203 228 13 215 237 30 204 227 15 200 225 10 205 228 14 208 231 5 212 233 4 213 234 7 203 224 7 191 214 2 198 221 7 190 212 5 185 207 10 199 221 14 201 222 5 203 227 11 202 225 11 206 227 10 216 235 19 209 230 11 195 219 9 192 215 10 200 226 7 195 217 8 195 217 10 203 229 6 200 224 4 206 230 12 205 229 13 203 227 9 199 221 12 198 218 7 200 227 158 233 224 217 239 223 224 236 229 221 236 224 226 237 224 218 238 227 223 235 223 227 243 223 225 233 226 218 237 228 221 233 230 225 199 222 180 195 217 21 198 227 15 204 224 15 206 227 10 205 225 12 195 221 8 185 208 6 188 214 5 198 223 8 206 230 10 210 235 12 208 233 10 203 225 2 199 219 8 196 220 10 194 220 9 199 224 9 198 222 6 201 224 12 214 235 18 217 237 15 204 225 8 197 219 10 198 222 4 202 225 11 198 223 8 195 218 4 196 219 7 196 219 5 201 225 9 209 233 15 204 224 13 199 222 10 204 228 10 207 229 7 205 230 15 196 218 11 203 224 9 212 237 13 200 223 9 199 219 10 204 225 10 198 216 6 201 220 14 195 220 7 184 207 5 168 187 7 175 196 5 196 221 8 206 231 7 205 226 7 200 223 11 191 215 7 190 214 4 196 219 5 192 216 6 192 214 5 189 212 7 194 219 6 197 221 5 198 221 7 197 221 13 195 222 5 188 218 6 173 196 4 178 204 9 189 217 8 181 206 3 189 217 10 195 225 5 205 229 11 199 225 6 193 219 6 198 224 3 196 225 9 193 220 4 196 223 7 200 230 8 198 234 10 201 225 7 198 223 7 194 222 50 194 218 104 188 223 155 208 224 197 221 222 204 226 228 217 233 224 219 244 225 227 243 222 227 236 227 220 240 225 222 236 225 221 239 229 220 236 227 222 237 227 218 236 226 224 239 224 227 233 224 219 235 226 219 237 226 222 243 230 221 239 225 222 236 228 225 236 227 222 239 225 222 237 223 222 234 222 222 236 229 219 237 227 225 238 224 223 235 226 227 237 227 228 239 225 225 239 224 217 240 227 219 233 224 215 235 225 223 238 224 224 241 222 226 238 227 223 235 226 221 236 227 222 236 225 221 237 223 223 239 224 227 233 226 216 234 223 219 231 224 218 228 226 214 
226 223 214 215 223 202 203 222 190 192 221 154 190 220 134 194 226 93 198 226 46 195 222 5 183 213 5 172 206 5 178 210 5 185 209 11 186 209 5 189 214 8 193 219 10 197 220 6 191 213 4 179 206 7 188 217 3 191 218 2 186 215 9 182 214 9 184 211 10 178 207 3 186 215 11 196 224 28 189 219 46 187 216 76 200 224 100 201 230 137 198 224 150 195 222 169 199 223 189 210 223 197 215 219 202 222 221 216 227 225 213 226 226 216 233 224 219 237 225 225 236 226 225 235 223 227 236 226 224 235 224 218 242 224 222 234 222 222 239 224 227 237 225 225 240 222 222 244 224 225 238 223 226 238 227 221 237 226 222 236 227 222 235 230 224 236 226 225 237 226 220 237 224 218 240 221 225 236 229 223 240 225 220 237 225 229 237 227 226 236 224 224 237 225 227 234 224 223 235 225 216 236 227 222 236 225 219 243 223 224 240 223 216 235 225 216 236 227 222 238 224 224 238 224 224 237 226 224 239 225 224 242 233 224 239 231 220 234 225 216 235 225 216 231 222 215 219 226 208 203 224 191 200 226 163 203 228 110 198 226 66 189 216 23 180 208 9 185 217 12 174 204 8 167 198 6 191 217 6 194 223 9 195 224 12 197 222 7 197 222 6 194 220 9 188 213 8 191 215 5 192 217 4 193 220 1 192 214 5 191 215 5 198 223 8 207 226 13 208 230 8 194 220 7 174 197 5 168 188 3 184 207 3 196 219 7 202 222 13 197 217 6 202 225 11 196 221 8 199 223 7 211 236 13 204 225 10 196 217 14 204 229 16 207 229 7 203 227 7 199 224 9 204 224 13 209 233 17 201 224 10 197 220 6 194 219 6 193 220 4 199 222 10 202 227 14 196 221 5 198 220 11 205 224 8 218 236 14 214 235 16 201 224 12 198 221 9 200 223 9 195 220 7 197 220 8 198 221 9 203 224 7 211 233 11 210 235 12 205 231 8 199 224 8 188 214 5 184 209 6 198 220 11 204 227 15 206 227 10 204 225 10 203 225 16 195 217 8 193 219 8 203 229 32 212 227 194 239 220 222 234 225 220 245 226 228 234 225 216 230 229 227 234 224 223 231 226 220 241 220 227 239 225 225 217 222 202 199 221 25 200 222 13 205 226 9 206 230 14 206 230 12 200 224 4 203 229 6 195 217 10 195 217 8 200 226 7 192 215 10 195 219 9 209 230 11 216 235 19 206 227 10 202 225 11 
203 227 11 201 222 5 199 221 14 185 207 10 190 212 5 198 221 7 191 214 2 203 224 7 213 234 7 212 233 4 208 231 5 205 228 14 200 225 10 204 227 15 215 237 30 203 228 13 190 215 2 195 217 12 196 219 7 202 226 8 204 230 11 192 216 8 186 211 5 185 210 4 184 207 5 185 208 4 185 207 8 186 207 8 
202 224 27 196 222 3 200 226 5 196 221 5 193 219 6 198 225 8 200 227 8 201 227 8 206 226 13 202 226 6 197 219 10 195 220 5 194 220 1 195 220 5 205 231 10 199 223 7 196 220 2 195 218 6 199 222 10 207 232 8 204 228 10 195 217 8 197 221 3 197 221 5 184 206 7 195 217 12 200 223 11 200 223 9 208 232 16 200 224 6 202 223 8 206 230 10 208 229 12 207 231 13 201 225 7 201 221 8 197 217 6 194 217 5 192 214 9 193 212 9 199 220 5 195 215 4 199 221 12 207 231 13 209 234 19 206 230 156 233 226 220 234 223 217 237 226 220 238 228 219 235 225 224 234 222 224 239 225 222 240 227 221 243 225 223 236 227 222 240 233 225 221 223 209 200 223 73 201 220 14 196 215 11 201 225 17 198 222 2 188 209 6 182 203 4 189 213 5 190 214 4 193 217 7 200 226 5 203 226 12 205 230 17 201 227 6 192 218 7 200 223 9 194 216 7 189 212 8 196 220 4 210 231 4 205 226 7 196 218 13 204 224 15 208 233 9 211 237 18 206 231 18 198 223 7 194 217 3 186 206 10 192 215 11 203 227 7 199 223 5 200 224 8 207 231 13 199 224 9 192 214 9 194 216 7 198 220 11 195 220 7 195 220 4 197 220 8 195 217 8 192 213 10 204 229 14 197 221 13 178 198 2 174 195 4 181 205 7 189 213 5 194 218 10 186 209 5 190 214 6 193 219 6 197 223 14 192 214 7 186 209 7 178 205 4 182 210 4 184 209 6 188 209 6 198 220 13 201 226 11 186 214 5 172 197 9 168 194 7 184 211 12 184 206 7 182 205 9 182 211 5 194 225 10 195 225 7 196 220 12 189 217 8 185 217 10 193 218 12 195 219 43 196 224 105 204 230 167 216 227 193 222 226 203 234 227 217 234 225 218 236 223 217 236 229 223 238 222 222 243 220 226 242 223 225 242 221 226 236 225 219 237 227 218 240 224 225 238 223 226 236 226 225 237 230 224 238 232 220 239 223 224 240 221 227 241 222 224 237 228 221 235 227 224 236 234 222 243 229 229 236 226 225 237 226 222 234 225 220 238 228 226 237 226 224 237 225 227 233 221 221 241 226 221 236 227 222 239 228 224 239 226 218 236 225 221 236 227 220 235 226 221 236 225 219 235 224 218 232 223 218 225 223 211 218 225 207 213 223 199 205 221 195 197 226 182 184 221 141 187 219 110 192 219 78 185 216 50 175 205 19 
184 209 6 196 223 6 183 215 10 186 220 2 189 213 5 181 209 3 190 219 5 185 210 7 186 206 10 188 210 5 190 219 7 191 221 11 182 209 10 186 212 3 187 215 8 196 221 8 195 217 8 182 210 4 188 218 10 191 214 10 195 218 6 199 227 5 194 226 3 194 223 7 204 226 17 196 221 8 190 219 7 188 211 6 191 217 6 195 217 8 188 211 7 190 217 14 185 219 11 184 213 7 187 212 6 191 217 8 193 220 17 187 217 44 181 215 69 183 217 105 191 222 146 201 229 170 207 224 190 217 222 200 223 226 209 231 227 218 236 227 222 240 224 225 234 229 223 233 230 223 238 222 225 238 223 220 237 230 222 234 230 221 238 235 226 235 224 222 238 228 219 236 227 220 235 225 224 236 225 223 234 234 226 238 229 222 233 226 220 233 224 219 236 227 218 241 226 221 241 223 223 234 225 216 236 227 222 231 226 222 237 223 222 240 219 224 241 222 224 237 225 225 236 226 225 236 225 221 237 226 222 235 230 226 236 224 224 238 224 223 234 225 218 234 225 218 235 228 220 236 228 226 235 227 225 239 224 219 235 225 216 227 229 215 217 226 207 214 223 204 189 221 172 173 220 108 188 217 49 203 225 18 200 220 11 185 210 7 178 210 5 181 210 6 182 205 3 186 209 5 190 214 6 199 221 14 195 217 8 190 212 3 187 208 5 194 218 8 187 213 4 181 203 6 174 195 4 178 198 5 195 221 12 204 227 13 192 213 10 195 217 10 199 219 8 195 220 4 195 217 8 199 219 8 194 217 5 192 215 10 200 225 9 205 230 14 200 223 9 200 224 4 205 226 7 192 215 10 186 208 9 194 217 3 200 224 8 208 231 17 214 235 18 207 232 9 203 225 16 195 219 11 205 226 7 209 232 6 196 220 2 189 213 5 193 215 8 200 223 11 191 217 6 202 226 8 205 228 16 203 227 11 201 225 5 194 219 4 189 214 11 188 213 7 179 202 0 187 208 5 201 222 3 201 225 15 196 217 16 197 221 13 204 223 20 197 224 7 208 230 41 217 227 200 236 227 222 235 223 223 244 226 226 234 224 223 241 220 217 234 228 228 241 223 219 234 229 225 238 223 220 233 229 217 210 234 78 200 230 12 198 222 14 195 217 8 198 217 3 193 212 9 192 214 9 194 217 5 197 217 6 201 221 8 201 225 7 207 231 13 208 229 12 206 230 10 202 223 8 200 224 6 208 232 16 200 223 9 200 223 11 
195 217 12 184 206 7 197 221 5 197 221 3 195 217 8 204 228 10 207 232 8 199 222 10 195 218 6 196 220 2 199 223 7 205 231 10 195 220 5 194 220 1 195 220 5 197 219 10 202 226 6 206 226 13 201 227 8 201 227 8 196 226 6 192 219 3 196 221 5 200 226 5 196 222 1 198 218 9 
205 223 25 188 210 3 188 211 7 186 209 5 182 204 7 192 217 4 200 226 7 202 227 11 205 230 7 205 232 7 202 226 6 201 225 5 195 220 5 185 210 5 196 222 11 205 230 6 199 222 10 196 217 14 194 217 12 205 232 5 205 232 5 198 222 6 202 228 5 207 233 10 197 220 15 187 210 6 190 214 6 193 218 5 197 222 6 205 229 9 199 223 7 195 219 11 202 222 13 205 230 7 205 230 6 206 228 6 204 225 6 204 225 8 197 218 1 197 217 8 208 227 13 193 216 4 189 213 5 202 223 6 206 230 22 218 238 29 210 233 163 237 225 225 238 221 229 236 224 228 238 227 221 236 224 224 235 226 219 234 225 220 236 226 225 233 223 221 239 233 221 232 237 217 241 232 223 210 226 155 192 219 28 191 217 4 202 226 10 207 226 10 188 212 4 185 209 11 200 223 9 203 225 16 199 224 9 196 216 7 196 218 11 208 234 23 199 221 14 198 218 9 190 212 5 186 209 4 192 214 7 197 220 6 194 217 3 196 219 17 203 225 20 209 230 11 201 221 10 197 219 10 201 223 16 199 223 15 192 215 3 189 211 6 199 221 16 198 220 15 184 205 2 193 214 13 188 209 8 187 210 5 196 220 4 201 225 5 195 220 5 192 218 7 194 218 8 193 216 11 190 213 9 200 223 18 207 232 16 195 217 12 193 213 2 188 211 7 185 206 3 193 215 6 183 206 4 181 203 6 188 217 5 202 229 12 197 221 11 183 208 5 183 208 2 189 218 4 193 221 12 195 223 17 200 226 15 201 226 11 193 218 2 187 210 6 176 199 5 182 206 8 197 224 7 184 212 3 180 209 5 185 213 6 189 218 50 189 221 120 202 225 183 208 221 201 225 228 209 238 227 223 239 221 221 237 233 224 242 231 227 236 229 223 236 225 223 242 224 220 243 225 221 235 228 220 233 224 215 240 221 225 233 223 221 236 225 223 235 226 221 236 227 220 233 228 224 237 227 226 239 225 225 239 224 229 233 228 224 235 225 226 236 227 220 237 228 223 234 222 222 242 223 225 235 233 221 235 229 217 240 226 226 240 227 219 236 228 217 240 221 223 241 222 224 243 225 223 237 227 218 235 228 222 234 224 222 228 224 215 219 226 208 207 223 196 197 223 186 188 222 146 193 224 105 198 221 78 193 223 41 195 222 21 194 217 5 194 219 6 192 223 8 185 215 3 188 213 7 187 215 8 188 216 9 191 220 8 190 216 3 184 207 5 
187 212 6 188 217 5 196 223 7 184 205 4 171 198 7 188 213 8 195 224 10 200 227 11 199 223 13 198 225 6 190 218 9 195 220 5 193 220 4 189 217 10 196 223 7 198 221 7 186 211 8 183 210 9 184 209 6 189 217 8 200 224 8 197 222 7 199 226 9 200 225 10 196 220 10 189 218 4 194 223 7 195 222 6 198 228 8 197 224 7 198 223 7 200 225 9 194 223 9 188 217 3 193 220 4 193 223 5 194 223 7 192 221 7 187 217 7 195 226 9 191 220 4 183 210 9 177 206 4 179 209 1 190 217 28 190 223 74 189 224 134 204 223 191 219 222 205 229 225 216 235 228 218 233 225 222 236 227 222 238 231 221 237 227 218 235 225 226 232 224 221 241 226 223 238 227 223 235 228 220 235 224 222 238 224 224 237 226 220 235 223 223 234 222 224 236 226 227 235 223 225 237 227 218 237 226 220 235 226 221 237 225 225 237 226 224 234 224 222 238 224 224 239 224 219 241 231 219 237 231 219 235 225 223 235 223 225 236 224 224 238 227 225 236 227 222 237 227 225 236 224 226 236 225 223 233 223 222 235 223 227 237 226 220 233 226 218 236 225 221 240 225 222 240 225 222 233 227 215 217 226 205 200 222 184 191 222 146 190 220 106 183 214 59 185 214 26 196 222 13 201 228 12 184 217 4 176 204 5 183 206 4 191 214 9 184 209 4 188 212 2 193 212 6 194 217 5 206 233 16 200 224 16 190 213 8 194 218 10 193 217 9 193 218 3 194 221 2 201 225 7 196 221 6 187 208 5 188 209 8 192 215 11 185 206 3 196 218 13 199 222 17 187 211 3 192 217 4 200 222 13 201 223 14 197 216 10 203 221 13 207 231 13 202 226 18 196 217 18 195 218 4 197 221 5 191 213 4 187 209 4 190 212 5 197 219 12 197 220 15 209 234 21 195 218 13 193 217 7 199 223 7 203 226 14 201 225 9 187 207 11 190 212 3 206 226 7 202 225 11 194 217 3 196 216 3 205 227 18 213 232 16 214 236 138 234 232 219 237 226 222 236 227 222 236 227 220 234 227 219 236 226 225 240 224 225 234 225 220 237 222 225 243 224 220 234 234 224 215 237 126 200 232 24 201 225 7 190 212 7 195 215 4 207 228 13 197 217 8 197 218 1 204 225 8 204 225 6 206 228 6 205 230 6 205 230 7 202 222 13 195 219 11 199 223 7 205 229 9 197 222 6 193 218 5 190 214 6 187 210 6 
197 220 15 207 233 10 202 228 5 198 222 6 205 232 5 205 232 5 194 217 12 196 217 14 199 222 10 205 230 6 196 222 11 185 210 5 195 220 5 201 225 5 202 226 6 205 232 7 205 230 7 202 227 11 200 226 5 191 217 6 181 205 7 187 209 4 190 211 8 188 210 1 199 217 7 
206 227 26 202 226 8 203 227 11 195 217 8 189 212 10 199 226 9 201 229 5 201 225 5 196 223 7 198 225 8 205 232 7 206 228 6 206 229 15 203 229 10 197 223 0 206 231 7 213 234 15 204 225 8 192 211 5 197 217 6 203 224 9 196 215 9 195 219 11 196 222 9 192 216 6 194 217 13 195 219 9 195 220 4 189 212 7 190 214 6 201 227 6 195 220 4 200 225 9 204 228 10 205 229 11 206 231 16 207 231 13 206 231 8 200 224 8 195 217 8 203 226 14 202 222 13 195 218 14 195 217 12 195 219 3 202 226 8 212 233 14 215 235 140 235 233 220 236 227 220 240 221 225 236 226 224 240 224 225 235 225 226 236 226 225 243 225 221 236 227 220 243 226 219 236 228 226 236 231 228 228 228 216 198 223 142 208 233 30 207 235 13 205 225 12 191 215 5 195 218 6 196 221 6 204 228 10 204 228 10 192 216 6 198 222 6 198 221 7 202 225 11 201 224 12 201 224 12 197 220 8 194 217 3 191 216 1 184 207 5 195 220 7 208 232 12 205 226 9 195 214 8 202 225 11 203 227 11 201 223 14 204 229 6 206 230 10 199 223 7 199 223 7 200 223 9 195 217 8 191 213 8 188 210 5 195 218 4 202 226 6 199 222 8 197 219 10 197 220 6 202 228 7 195 220 5 202 228 7 205 231 8 199 225 4 199 225 6 203 227 9 209 235 6 207 234 7 191 215 7 191 216 10 203 229 8 205 232 13 196 221 6 194 217 5 195 220 5 195 222 5 201 226 13 205 230 17 194 226 3 191 224 9 193 219 10 183 213 5 185 219 36 193 224 94 200 225 160 207 221 195 225 225 215 235 228 220 238 224 224 234 225 220 235 231 222 241 224 217 238 223 216 236 227 222 235 226 227 241 222 224 242 224 224 239 223 224 240 224 224 236 231 225 237 229 226 236 227 222 237 226 220 238 227 223 236 227 220 233 228 222 237 221 221 241 223 223 240 230 221 239 226 220 233 223 224 236 227 220 236 229 221 235 224 218 240 225 220 243 225 221 236 227 218 238 222 222 237 234 225 235 228 222 236 225 219 235 226 221 232 227 221 230 228 216 215 223 202 194 222 181 194 224 138 192 221 81 187 213 30 193 219 6 185 218 7 187 220 5 197 223 12 193 217 9 189 217 10 189 215 6 187 210 8 187 212 6 195 224 8 201 228 12 194 223 9 191 220 6 197 219 10 198 225 8 190 216 7 176 203 4 183 211 4 
203 231 9 208 234 15 196 219 7 189 210 9 191 220 4 202 227 4 198 221 7 196 226 6 194 223 7 192 218 9 186 211 6 193 218 3 199 221 14 191 217 8 194 224 6 195 220 5 183 206 4 175 198 2 182 207 2 189 215 4 195 219 11 200 226 13 191 217 6 175 202 3 185 213 6 191 221 3 187 217 7 186 216 6 200 227 8 209 237 12 209 235 16 205 230 15 197 224 7 192 218 7 192 216 6 187 212 6 192 218 9 190 217 18 193 223 13 189 220 3 189 214 8 192 218 7 182 209 6 190 219 7 197 222 6 187 216 4 184 218 9 181 215 7 182 207 4 183 208 3 189 216 49 196 230 92 208 234 145 199 223 173 215 220 198 223 227 213 225 226 218 235 223 223 232 227 223 233 226 220 235 227 225 234 227 219 236 227 218 239 228 222 235 226 219 237 226 220 239 225 225 233 225 223 238 227 221 236 226 224 235 230 226 236 231 227 236 225 221 237 226 220 236 227 220 237 228 219 240 226 223 234 222 222 237 225 225 238 224 224 240 225 222 241 226 223 237 224 218 238 228 219 242 222 221 238 228 219 236 227 220 239 225 224 234 222 222 235 227 224 236 226 227 234 227 219 234 226 223 235 231 220 237 228 223 237 223 220 233 224 215 235 229 217 225 225 215 219 231 209 218 231 203 196 224 184 190 220 132 210 234 86 209 233 47 202 227 11 199 224 8 192 226 7 203 230 11 203 227 7 194 221 4 200 228 4 200 220 7 198 220 13 198 223 8 202 226 8 195 218 4 187 211 3 192 214 9 198 217 11 201 225 9 200 221 4 203 222 9 208 229 10 206 227 10 199 221 12 204 228 12 201 225 15 194 216 9 204 226 3 207 234 9 195 220 7 185 206 3 189 215 2 193 220 4 197 220 8 204 224 11 201 225 7 202 226 10 199 219 6 197 222 7 193 215 6 205 229 13 204 228 12 196 221 5 194 218 10 192 214 5 205 224 11 215 235 14 205 232 13 199 223 13 204 225 8 207 230 116 226 230 215 233 228 225 235 228 222 236 227 220 238 222 223 236 226 225 236 224 224 243 222 227 233 225 223 236 231 225 241 231 222 235 236 222 211 232 155 204 225 10 193 218 5 195 217 12 195 218 13 201 221 8 204 224 15 195 217 8 200 224 8 206 231 8 207 231 13 206 231 16 205 229 11 204 228 10 200 225 9 195 220 4 201 227 6 190 214 6 189 212 7 195 220 4 195 219 9 194 217 13 
192 216 6 196 222 9 195 219 11 196 215 9 203 224 9 197 217 6 192 211 5 204 225 8 213 234 15 206 231 7 197 223 0 203 229 10 206 229 15 206 228 6 205 232 7 198 225 8 196 223 7 200 226 5 202 228 7 199 226 9 190 213 11 195 217 10 203 227 11 202 226 10 202 221 8 
202 222 26 191 213 6 194 219 6 195 219 3 185 208 4 186 211 5 192 219 3 198 223 7 197 224 7 197 225 3 203 229 6 202 226 6 198 218 5 199 222 10 198 222 6 196 219 5 205 228 14 209 234 11 206 230 10 204 225 6 203 224 5 201 221 8 200 220 7 208 229 10 195 217 8 184 207 5 199 224 8 207 233 4 199 222 8 188 210 5 197 222 6 199 222 10 196 219 14 196 219 7 199 223 7 203 229 8 204 229 6 205 226 11 204 224 13 198 220 13 201 222 7 198 223 8 201 223 14 205 230 15 203 225 16 204 228 10 207 229 7 198 225 8 202 223 106 244 226 222 243 227 228 226 226 218 239 228 226 240 227 221 237 226 224 239 229 219 237 225 227 241 223 221 236 227 218 235 226 217 237 228 221 235 223 223 229 226 207 203 228 145 204 224 28 194 220 7 191 213 6 196 221 6 198 225 6 211 232 17 206 227 10 198 219 4 200 224 8 202 228 9 197 223 4 203 225 18 200 219 13 193 215 8 187 208 9 185 202 10 191 215 5 204 231 6 203 229 8 197 221 5 200 220 9 203 223 10 200 224 8 208 235 8 217 243 12 216 238 16 217 238 21 215 239 21 214 236 14 205 229 9 203 226 14 202 226 10 204 226 4 201 225 9 205 227 20 208 233 9 211 236 13 203 227 9 202 225 11 208 233 10 198 221 7 198 225 8 201 227 8 201 226 10 214 238 18 205 226 9 188 212 4 197 222 6 204 230 9 196 215 9 183 211 2 188 223 9 188 212 2 195 217 8 200 228 65 198 226 139 201 222 189 215 223 200 224 227 208 229 226 219 235 223 225 238 231 225 231 232 216 235 225 223 239 224 219 240 224 224 235 224 218 234 225 220 242 223 225 236 226 225 233 225 223 244 222 225 230 229 224 235 224 218 240 222 218 237 225 225 238 223 226 235 224 220 234 225 220 234 225 218 234 225 218 234 222 224 244 223 230 242 221 230 242 223 227 237 226 220 237 227 218 235 228 218 237 228 221 234 224 222 237 224 231 232 228 225 234 224 223 239 225 225 235 226 221 223 235 211 218 231 203 216 221 199 194 222 145 188 221 68 196 221 16 199 230 4 192 227 9 186 221 7 196 222 9 194 220 7 192 221 7 193 222 6 189 215 6 197 222 9 197 223 10 186 214 7 182 205 3 187 215 6 191 216 3 199 219 6 195 220 5 190 219 5 192 218 5 193 217 7 181 205 7 169 194 6 180 207 6 197 224 5 
197 224 7 192 218 9 178 205 6 185 214 2 196 216 5 197 222 6 196 225 11 193 219 8 189 212 7 183 207 7 186 214 7 196 226 8 196 222 9 192 218 7 195 222 6 195 220 5 191 214 9 186 209 7 191 215 5 192 216 6 192 216 6 197 225 3 194 217 5 183 207 9 183 213 5 192 218 9 180 207 8 181 208 7 198 223 8 203 228 5 197 220 6 195 221 12 187 212 7 185 208 4 185 211 0 176 202 5 185 212 11 196 226 6 194 220 9 183 211 5 187 220 7 189 219 7 194 220 11 197 222 9 191 220 6 194 229 5 201 229 5 196 221 6 191 220 8 194 224 6 192 222 0 202 229 10 205 236 11 186 221 7 189 215 4 195 225 7 191 221 37 191 222 82 196 221 137 201 229 188 224 225 211 233 226 216 237 226 220 235 225 224 234 225 218 237 227 215 237 226 224 241 226 221 242 224 220 239 224 219 235 225 216 234 225 220 237 223 220 242 224 222 242 223 229 237 224 233 241 223 223 235 226 219 235 228 222 237 227 225 236 227 222 236 226 224 237 226 224 236 224 224 235 226 229 236 232 223 236 229 219 234 223 221 237 225 227 235 226 219 236 225 219 236 226 225 237 226 224 236 227 228 239 225 222 241 226 219 234 225 220 237 226 224 242 223 225 243 228 223 239 220 222 236 225 223 233 230 225 235 236 218 231 227 215 224 225 207 210 225 194 200 225 185 208 234 147 201 226 125 205 227 101 216 235 93 207 231 81 204 228 56 204 223 19 201 227 4 199 226 9 197 226 14 202 228 7 211 235 15 214 240 21 215 239 21 214 239 16 216 244 12 206 234 9 199 224 9 203 223 12 197 220 6 197 222 6 204 228 10 204 230 7 191 215 5 185 202 8 187 208 7 193 215 10 200 219 15 205 224 18 198 222 6 203 227 7 202 223 8 200 220 7 207 226 10 210 231 12 200 225 10 195 220 4 191 214 2 199 219 6 204 225 8 200 227 10 197 224 5 196 222 121 239 220 214 235 226 217 244 225 231 243 223 232 234 223 219 240 230 221 239 226 220 242 224 222 240 224 224 231 227 224 241 227 224 236 225 221 233 223 221 203 223 134 203 229 6 204 228 12 205 224 18 205 230 14 200 225 10 198 221 9 199 224 9 198 220 13 204 224 13 205 226 11 204 229 6 203 229 8 199 223 7 196 219 7 196 219 14 199 222 10 197 222 6 188 210 5 199 222 8 207 233 4 199 224 8 184 207 5 
195 217 8 208 229 10 200 220 7 201 221 8 203 224 5 204 225 6 206 230 10 209 234 11 205 228 14 196 219 5 198 222 6 199 222 10 198 218 5 202 226 6 203 229 6 197 225 3 197 224 7 198 223 7 193 218 5 186 211 6 186 209 5 195 218 4 193 218 5 190 214 6 199 219 10 
209 228 25 198 223 7 195 219 9 199 223 13 201 225 9 194 216 7 188 211 7 200 227 11 201 226 11 195 220 5 196 221 8 206 232 9 208 234 5 208 230 8 204 225 8 194 217 5 192 217 4 196 221 6 200 226 5 209 236 11 213 240 13 213 238 12 209 229 7 211 229 7 204 225 6 201 224 10 197 222 7 206 228 6 208 229 12 198 219 4 194 217 3 193 214 13 192 214 9 188 209 6 188 210 5 193 215 6 196 218 9 201 221 8 204 225 6 203 223 10 199 219 8 198 220 13 199 222 8 199 224 8 200 220 7 197 224 8 204 230 9 216 236 15 200 226 15 193 218 90 230 226 223 243 225 221 237 226 220 237 226 222 236 225 223 232 227 224 237 225 225 242 221 226 240 226 226 236 226 217 243 222 221 237 225 227 232 232 224 240 225 218 235 227 216 208 227 163 199 220 65 197 220 8 192 221 5 202 228 7 205 227 4 201 222 7 201 226 10 201 225 7 202 226 10 201 223 14 199 219 8 206 227 12 198 218 9 187 206 2 189 211 4 202 226 8 211 237 14 203 229 8 196 219 5 202 225 13 196 219 7 196 219 7 207 231 11 215 237 15 210 232 10 206 231 8 217 240 14 214 239 15 207 232 9 209 234 11 203 228 5 190 215 0 189 212 10 201 223 18 217 238 19 208 232 16 204 227 13 211 236 10 197 221 5 196 219 7 197 222 6 198 222 4 204 229 5 200 228 4 189 215 6 190 218 9 197 222 19 175 213 52 177 216 107 184 220 146 203 227 191 223 223 211 238 223 218 234 225 216 235 225 223 238 225 219 237 224 218 239 225 224 241 222 224 242 232 223 241 238 221 240 237 220 236 226 224 239 225 225 238 227 221 235 229 217 239 224 219 237 221 222 238 223 226 235 227 224 238 234 222 236 227 218 237 226 220 236 229 219 236 227 222 236 226 224 235 228 218 237 224 218 236 226 224 234 229 225 239 223 224 238 223 218 236 227 220 234 224 223 240 226 225 236 222 222 238 228 226 239 220 214 231 225 209 213 225 205 196 221 192 197 223 149 199 224 78 203 230 27 198 228 8 186 223 6 197 225 1 198 226 4 191 220 4 192 218 7 188 217 1 188 216 7 191 221 9 187 212 6 190 215 2 197 222 7 193 219 6 187 215 6 190 219 7 192 218 7 191 215 7 196 220 10 197 224 7 193 218 2 200 223 11 195 220 5 193 219 6 184 207 5 179 200 7 181 206 3 189 215 6 194 217 5 
191 213 6 181 208 5 186 214 8 197 223 10 197 222 7 195 221 8 197 226 12 190 219 5 184 212 5 188 213 7 195 221 8 185 215 5 181 213 6 183 211 4 186 211 5 189 214 9 193 220 4 193 220 4 193 219 10 191 220 8 193 219 6 200 225 12 201 227 14 197 224 7 192 218 7 182 209 8 186 215 9 191 216 10 192 221 9 196 221 8 200 227 8 195 224 8 189 215 4 189 218 6 186 214 8 188 216 10 192 222 2 195 221 8 185 212 9 187 216 4 195 219 11 186 210 2 185 213 4 191 220 8 186 216 8 191 217 4 189 217 8 191 220 4 195 225 5 194 226 3 193 223 5 198 228 10 200 231 6 198 225 6 196 225 13 195 221 10 180 207 4 187 212 6 186 218 10 194 228 10 190 215 9 189 216 27 184 215 78 178 217 128 191 218 163 212 225 199 223 228 208 233 226 216 234 225 220 235 225 223 237 225 225 236 225 223 237 228 223 235 226 219 236 227 220 236 232 221 235 228 222 235 226 219 239 225 222 235 224 222 234 225 220 238 223 226 240 224 224 239 228 226 240 236 227 235 236 218 232 232 220 237 221 222 240 224 225 236 224 224 241 226 219 245 224 221 234 227 219 235 224 218 240 222 218 240 224 224 237 225 225 238 223 226 237 225 225 236 229 223 237 226 224 234 222 222 235 226 227 234 230 221 235 228 222 236 227 220 236 227 220 233 225 222 237 235 223 232 228 217 230 232 219 235 238 221 233 226 220 233 226 218 225 225 215 223 228 205 215 233 195 209 230 191 214 239 181 218 242 182 207 229 164 211 232 141 214 235 104 210 231 78 196 219 43 197 219 23 204 224 13 199 220 5 203 229 8 210 237 12 195 225 5 184 211 8 185 206 5 198 218 7 208 227 11 196 219 7 199 223 15 202 227 12 200 226 7 200 227 11 201 222 7 203 228 4 201 229 5 192 223 6 194 221 5 199 218 14 206 227 24 205 228 50 203 226 156 231 231 219 238 227 221 235 225 226 236 228 226 237 226 220 241 220 229 238 227 225 236 227 220 238 223 226 234 223 229 243 223 224 233 227 215 235 227 225 232 226 212 208 226 140 216 238 16 205 230 7 198 221 9 200 220 7 200 222 13 197 222 7 198 220 11 199 219 6 203 223 10 204 225 6 201 221 8 196 218 9 193 215 6 188 210 5 188 209 6 192 214 9 193 214 13 194 217 3 198 219 4 208 229 12 206 228 6 197 222 7 
201 224 10 204 225 6 211 229 7 209 229 7 213 238 12 213 240 13 209 236 11 200 226 5 196 221 6 192 217 4 194 217 5 204 225 8 208 230 8 208 234 5 206 232 9 196 221 8 195 220 5 201 226 11 200 225 10 188 211 7 193 216 11 200 226 7 199 221 12 195 220 7 199 225 6 204 224 13 
205 226 27 200 224 6 197 221 5 202 221 15 204 226 17 205 228 14 199 225 4 202 227 3 213 234 17 204 226 17 194 218 8 196 223 4 201 225 5 205 224 8 203 222 8 193 212 8 182 204 5 195 217 10 201 222 5 196 217 2 203 227 9 209 236 9 209 234 10 206 231 7 208 229 4 208 233 7 205 230 7 212 234 11 209 229 7 201 222 7 201 222 7 196 216 3 192 217 4 191 217 6 193 219 6 192 214 7 190 212 3 198 223 10 205 230 17 210 235 9 205 227 4 201 225 5 204 230 11 204 228 8 202 224 1 198 220 13 200 225 10 209 230 13 210 231 12 196 221 8 202 223 30 219 228 199 230 228 231 239 226 220 239 225 222 238 229 220 235 233 221 236 227 220 235 231 222 235 226 221 238 227 221 236 225 223 235 223 225 237 226 222 234 225 218 234 226 223 228 223 219 212 228 201 202 225 147 201 225 43 205 231 10 199 226 10 208 232 12 214 237 11 215 236 11 204 229 6 199 223 7 206 225 12 209 230 11 201 227 6 196 216 7 194 213 10 198 217 11 198 220 13 200 226 5 199 225 6 205 226 11 199 218 5 196 218 9 203 222 6 205 225 12 194 217 5 194 214 5 196 218 9 194 219 4 202 226 6 198 222 6 191 215 7 186 209 4 196 219 7 202 226 8 196 221 6 194 220 9 195 221 12 190 223 12 196 220 10 197 222 7 200 225 19 201 229 66 198 221 139 208 218 193 220 225 202 226 223 214 232 228 216 232 225 219 241 226 223 243 223 225 236 225 223 234 226 224 237 226 222 233 226 218 236 227 222 240 220 229 241 222 224 233 228 222 232 229 220 234 224 223 237 227 218 235 230 224 239 229 220 238 224 221 237 226 230 234 222 224 237 228 221 236 225 221 238 227 221 237 233 221 237 232 226 237 227 226 236 224 224 241 226 223 242 224 220 235 225 224 236 224 224 237 223 220 242 223 225 240 226 223 233 227 215 227 227 215 226 223 216 217 220 201 192 226 176 195 226 122 197 229 58 200 230 8 193 224 7 188 218 6 196 220 12 186 214 8 189 218 4 191 220 6 188 216 9 195 222 5 197 227 7 197 224 8 190 221 6 176 200 0 187 211 11 199 225 12 198 225 9 194 220 9 188 217 5 185 213 4 185 213 6 187 215 8 196 226 8 202 233 8 199 229 7 196 223 7 188 214 5 189 214 8 196 223 7 194 220 7 181 205 5 179 210 8 185 215 5 196 226 6 205 231 12 
200 227 8 195 225 7 200 228 6 207 231 11 202 226 10 199 227 3 192 222 4 191 220 4 182 209 6 184 209 4 190 213 8 185 212 9 181 208 9 175 196 7 180 201 2 190 213 8 197 222 6 196 221 8 194 218 10 193 220 4 194 223 9 207 237 19 203 230 11 196 220 4 197 223 12 184 217 2 195 225 5 200 227 10 198 223 7 196 227 10 196 227 9 189 215 6 186 214 7 190 221 6 195 224 8 206 234 12 200 230 12 184 213 9 184 212 3 183 211 4 187 215 6 191 220 8 198 225 8 197 226 14 187 212 9 174 200 3 193 219 8 198 223 10 200 227 8 194 224 4 188 216 7 191 219 10 191 216 3 189 212 10 195 221 10 189 220 3 194 225 10 200 230 10 198 228 10 193 227 6 194 221 5 194 219 4 195 220 5 192 214 9 180 204 4 186 212 3 193 222 6 184 216 45 177 216 99 178 218 132 196 224 183 216 221 201 230 222 211 232 228 219 233 234 220 240 234 220 237 226 222 236 227 222 239 225 222 238 222 222 237 226 220 236 227 222 235 229 217 235 230 224 235 226 217 242 223 225 240 225 220 235 225 216 236 225 221 240 223 229 242 223 227 233 229 220 243 221 224 239 223 224 238 227 223 237 226 220 237 226 222 235 225 226 236 227 220 237 226 220 235 224 222 237 226 222 236 227 220 237 228 223 237 226 224 236 224 226 237 225 227 238 222 223 236 227 220 238 226 226 241 222 224 242 227 224 238 224 223 242 224 222 240 224 225 240 224 225 235 225 223 236 226 225 237 226 224 237 222 225 238 225 219 239 226 220 237 226 220 236 226 224 225 225 215 224 226 212 223 224 208 218 226 202 212 221 204 209 222 194 204 223 191 199 221 182 203 225 150 211 229 127 205 224 98 200 222 87 205 229 79 214 236 66 215 235 50 209 232 38 201 227 42 208 229 62 202 224 100 200 225 142 205 227 188 218 226 203 228 224 213 236 226 225 235 224 218 235 227 224 236 227 218 238 227 225 239 224 221 235 231 220 241 225 226 235 231 222 237 230 220 236 225 223 241 226 221 234 225 226 238 228 219 233 225 223 202 221 142 209 230 11 207 231 15 203 224 9 198 220 11 199 226 1 204 228 8 208 228 9 200 226 5 205 226 7 210 235 9 205 230 17 198 223 10 190 212 3 192 214 7 193 219 6 191 217 6 192 217 4 196 216 3 201 222 7 201 222 7 209 229 7 
212 234 11 205 230 7 208 233 7 208 229 4 206 231 7 209 234 10 209 236 9 203 227 9 196 217 2 201 222 5 195 217 10 182 204 5 193 212 8 203 222 8 205 224 8 201 225 5 196 223 4 194 218 8 204 226 17 213 234 17 200 227 2 200 224 6 206 229 15 204 227 15 202 221 17 197 221 3 199 224 8 200 220 9 
209 230 37 199 223 5 204 225 8 200 224 6 200 224 6 197 221 5 199 223 7 201 225 7 203 227 7 204 228 10 198 222 14 198 224 5 200 226 3 203 228 13 207 231 13 202 223 6 189 213 5 191 213 4 197 220 8 195 217 10 186 209 4 194 219 4 204 229 6 208 231 5 205 227 5 199 223 7 201 225 9 211 231 9 213 234 9 207 228 11 204 225 6 205 225 4 204 226 4 198 222 6 197 222 9 202 228 5 198 224 3 201 223 14 201 225 17 202 227 14 208 227 14 205 226 7 200 220 9 200 220 11 202 226 8 198 222 4 205 229 11 205 230 7 199 223 3 200 224 14 206 226 15 207 228 11 209 229 118 234 230 218 237 226 222 242 224 220 236 225 229 237 230 224 235 233 221 238 228 219 235 224 220 238 224 223 233 225 222 238 223 218 239 226 220 239 226 220 235 223 223 233 228 222 240 227 221 235 226 219 215 227 203 203 225 153 198 219 56 203 221 15 198 227 11 208 235 10 207 229 7 196 214 6 193 215 10 209 226 8 209 234 10 203 229 10 199 222 10 197 222 6 198 223 8 204 225 10 205 229 11 204 225 8 197 222 7 202 223 6 208 229 10 201 225 7 196 216 3 194 217 3 194 224 4 196 227 10 204 229 14 192 214 5 188 211 15 193 220 45 198 224 73 201 223 99 188 217 135 192 220 171 195 226 185 203 229 192 220 224 209 228 225 218 235 233 220 238 229 222 237 226 220 237 228 223 237 227 228 234 227 221 234 225 218 235 226 219 242 224 220 236 226 224 233 224 227 240 224 227 242 223 229 235 226 221 236 227 220 236 227 222 240 222 222 237 223 223 235 226 221 237 228 221 236 227 222 234 230 227 236 225 223 239 226 220 237 235 220 234 227 219 239 226 220 236 225 223 234 227 219 236 227 220 242 227 220 238 232 220 234 234 222 236 222 221 242 223 225 237 226 220 224 225 209 210 224 198 192 224 161 189 219 95 193 213 36 187 211 3 188 212 4 185 219 10 191 220 6 198 230 7 200 230 8 202 230 5 200 226 5 207 233 10 204 232 7 200 226 7 191 220 8 186 214 8 192 218 5 201 229 5 197 227 5 194 225 7 184 212 3 182 209 10 191 220 8 199 226 7 200 228 4 194 223 7 190 218 11 179 206 7 175 201 4 181 210 6 191 221 9 196 226 4 196 223 7 188 217 5 188 217 3 193 218 12 187 210 8 183 208 5 182 210 3 192 218 7 208 235 8 
207 232 9 201 226 13 190 219 3 189 218 4 192 221 5 191 220 6 190 218 11 188 216 7 186 211 6 176 203 4 183 211 5 192 221 9 196 222 9 194 221 5 197 224 7 201 229 7 205 231 8 202 229 4 195 220 7 199 224 11 202 228 5 206 234 10 205 231 12 197 224 7 195 224 8 196 226 6 192 218 5 187 216 2 195 225 7 198 228 8 196 222 13 190 218 11 183 213 5 188 218 6 196 226 6 195 226 8 187 220 7 177 205 7 169 195 2 176 202 7 190 218 12 195 224 8 200 228 6 198 225 6 191 219 10 182 209 10 184 212 3 194 225 7 197 227 5 201 229 5 192 218 5 186 214 8 191 220 8 200 226 5 205 233 8 207 234 9 200 226 3 204 231 6 200 231 6 198 230 7 191 220 6 194 218 10 188 212 4 186 209 4 192 214 7 189 212 7 189 215 2 198 224 11 196 220 10 189 215 4 185 212 11 191 220 4 207 235 10 204 231 6 204 230 37 202 226 88 199 220 141 197 223 188 202 226 192 216 226 202 232 234 213 238 225 219 234 222 224 237 228 219 230 230 218 238 227 221 236 227 220 235 224 222 238 223 226 236 226 225 235 227 224 236 225 219 241 225 225 234 222 222 237 228 221 237 227 218 243 225 221 242 223 225 236 224 226 238 227 223 241 226 219 236 227 222 235 227 224 234 229 223 241 234 228 242 224 220 236 227 218 235 228 220 241 222 226 239 225 225 237 225 225 237 226 222 235 224 222 234 222 224 237 225 225 235 225 224 237 229 226 233 228 222 237 226 220 243 224 220 238 223 220 237 228 219 237 228 223 236 227 222 237 226 220 237 226 220 234 230 219 237 227 218 237 226 224 234 225 220 237 226 220 236 229 223 235 233 218 236 227 220 232 227 221 233 224 217 233 229 218 231 233 222 232 228 219 233 224 219 233 226 218 228 226 214 233 225 222 238 227 221 236 227 220 240 227 221 235 226 221 234 225 218 234 222 222 237 227 218 237 225 227 236 225 229 242 225 217 241 226 223 234 231 224 233 230 225 236 226 224 234 225 218 235 224 222 243 228 221 234 229 223 239 228 222 206 227 126 201 223 16 200 224 4 205 230 7 205 229 11 198 222 4 202 226 8 200 220 11 200 220 9 205 226 7 208 227 14 202 227 14 201 225 17 201 223 14 198 224 3 202 228 5 197 222 9 198 222 6 204 226 4 205 225 4 204 225 6 207 228 11 
213 234 9 211 231 9 201 225 9 199 223 7 205 227 5 208 231 5 204 229 6 194 219 4 186 209 4 195 217 10 197 220 8 191 213 4 189 213 5 202 223 6 207 231 13 203 228 13 200 226 3 198 224 5 198 222 14 204 228 10 203 227 7 200 224 6 199 223 5 197 221 5 199 225 6 199 223 7 204 225 8 199 223 5 205 224 20 
212 231 28 201 222 3 199 223 7 199 224 9 202 227 14 198 220 13 198 220 11 202 226 10 200 225 10 198 224 3 200 224 4 203 227 9 207 232 9 207 234 9 205 231 12 204 228 8 201 225 9 205 229 11 211 235 19 204 229 6 196 220 2 191 213 4 199 223 7 203 227 7 199 223 5 194 219 4 198 221 7 204 228 12 210 232 10 208 230 8 205 226 9 205 227 5 207 228 11 209 230 11 196 217 2 196 216 5 198 218 9 197 216 10 198 220 13 197 222 7 198 218 5 204 225 6 207 229 6 205 225 14 201 223 14 204 228 10 198 221 9 202 222 13 200 219 13 194 218 10 200 219 15 201 226 13 201 228 11 210 234 62 212 233 200 234 227 217 237 224 218 241 225 226 240 231 224 234 224 225 236 226 225 240 224 225 237 226 224 236 225 223 237 223 223 235 223 223 239 223 223 235 223 223 234 230 221 236 227 218 242 226 226 233 226 218 233 226 220 221 226 206 202 227 172 211 233 106 219 240 57 212 230 20 193 218 3 196 223 7 199 229 11 198 230 9 198 224 5 204 228 12 205 225 12 198 222 14 197 226 12 194 215 14 184 205 6 196 220 12 205 231 34 202 226 68 196 217 96 196 222 125 198 225 158 202 224 188 209 225 198 223 227 212 233 225 222 235 223 223 232 224 221 234 227 217 233 234 218 236 229 223 235 223 223 239 220 222 243 222 227 240 224 224 238 227 221 235 226 219 238 227 225 237 226 224 235 228 222 242 229 221 243 225 223 235 225 224 241 227 224 240 230 220 237 231 219 236 227 220 235 223 223 234 227 219 238 228 219 234 225 218 236 225 223 237 225 225 235 224 220 237 228 221 241 222 224 235 226 221 238 231 223 233 223 224 236 226 225 236 229 221 237 226 222 240 220 229 236 225 221 234 222 224 232 227 221 218 226 203 210 230 195 204 233 179 193 222 116 199 226 51 201 227 8 191 217 6 184 216 8 195 222 6 199 223 13 190 219 7 190 214 6 197 221 11 183 210 11 181 209 3 182 209 8 179 203 3 189 215 6 189 214 8 195 222 6 205 231 10 199 227 5 198 223 7 196 223 6 198 228 10 195 221 8 195 222 6 200 227 11 197 220 8 198 224 13 202 227 11 200 226 5 204 232 10 204 231 12 193 219 6 186 211 6 186 215 3 191 220 6 194 224 6 195 225 7 197 224 8 199 228 14 189 217 8 191 217 6 203 229 6 202 228 5 
198 225 6 195 222 3 189 215 4 191 217 8 190 218 9 184 211 8 189 215 6 190 214 4 189 214 8 186 214 8 188 214 5 191 215 5 199 224 9 200 227 11 197 224 7 203 231 6 204 232 8 206 231 7 208 233 10 203 230 11 202 232 10 209 237 12 209 236 11 201 231 9 197 229 4 193 226 0 190 220 8 189 220 2 185 215 5 180 209 5 194 226 5 198 225 6 198 227 11 200 229 13 200 228 19 195 224 12 195 225 7 193 222 6 192 221 9 188 217 5 187 212 6 194 220 7 205 233 11 205 233 11 199 227 5 201 228 11 197 223 12 197 220 8 200 227 11 195 222 6 195 221 8 198 228 10 196 223 6 198 223 7 199 227 5 205 231 8 195 222 6 188 213 7 189 215 4 178 202 2 182 209 8 181 209 2 183 210 11 196 220 10 190 216 3 193 217 9 199 221 12 197 222 9 190 216 3 191 217 4 201 227 8 199 224 8 193 218 2 206 232 9 204 230 9 198 225 6 196 226 8 185 213 6 180 209 7 180 209 3 190 216 7 204 229 6 198 224 15 189 218 50 199 229 107 202 224 160 206 221 198 215 224 205 227 224 217 236 227 218 237 224 218 238 223 218 237 227 218 235 228 222 234 225 226 237 226 220 236 229 219 233 230 223 235 228 220 236 227 222 234 226 224 234 230 221 234 229 226 235 226 217 245 225 224 243 224 226 239 225 225 235 225 226 238 223 226 237 222 217 237 226 220 239 230 225 241 235 223 241 228 222 242 224 220 240 225 220 241 226 223 243 225 221 238 228 219 237 226 220 236 226 225 238 224 224 234 223 221 234 225 226 234 231 226 238 225 217 238 223 218 233 225 222 236 224 224 236 228 225 234 229 226 238 227 225 237 226 220 236 229 223 236 229 223 237 225 225 236 224 224 236 231 225 236 239 222 238 234 223 238 227 225 241 226 223 243 222 227 240 225 222 235 225 223 238 223 226 235 225 223 237 225 225 239 225 225 238 223 226 236 224 224 233 224 227 237 226 220 236 226 224 234 226 224 235 227 224 242 229 220 240 225 218 236 224 224 233 226 218 243 234 229 233 233 221 238 229 222 202 224 113 197 219 12 197 220 8 200 220 11 202 222 13 198 221 9 204 228 10 201 223 14 205 225 14 207 229 6 204 225 6 198 218 5 197 222 7 198 220 13 197 216 10 198 218 9 196 216 5 196 217 2 209 230 11 207 228 11 205 227 5 205 226 9 
208 230 8 210 232 10 204 228 12 198 221 7 194 219 4 199 223 5 203 227 7 199 223 7 191 213 4 196 220 2 204 229 6 211 235 19 205 229 11 201 225 9 204 228 8 205 231 12 207 234 9 207 232 9 203 227 9 200 224 4 198 224 3 200 225 10 202 226 10 197 219 12 198 220 13 201 228 12 199 224 9 201 222 7 200 224 6 208 224 12 
217 236 33 202 223 8 192 215 3 191 215 5 195 217 10 193 215 10 196 218 9 207 233 12 209 234 11 207 233 10 202 226 8 201 221 8 197 221 5 201 227 8 197 224 5 196 221 5 190 212 5 191 212 9 197 221 11 201 226 11 202 225 11 201 226 3 204 229 6 199 222 8 192 216 6 197 220 8 199 224 1 202 229 4 208 232 14 209 229 16 205 226 7 207 232 8 215 238 12 217 240 14 210 232 9 206 226 7 206 226 7 196 216 3 190 212 7 196 222 3 200 225 9 204 227 13 209 230 11 207 227 14 205 228 14 212 237 13 206 230 14 205 225 12 199 223 5 203 223 4 196 221 8 196 219 5 191 218 2 197 222 7 202 230 8 200 226 129 224 225 207 241 226 221 237 226 222 235 227 224 236 224 224 232 228 217 233 229 220 244 223 230 231 228 223 235 226 219 243 225 221 239 226 220 237 226 222 236 226 225 238 223 230 239 225 225 236 229 219 237 226 224 239 231 228 241 230 228 235 233 218 228 231 212 221 229 208 217 228 194 209 225 186 199 224 185 199 221 159 198 219 124 199 223 127 205 227 163 204 226 187 204 224 189 219 228 201 221 226 206 232 235 218 229 227 214 233 224 217 234 225 220 234 224 222 237 225 229 241 226 223 239 226 220 237 226 220 237 226 220 237 228 221 235 225 224 237 235 223 237 235 220 239 225 225 233 224 219 240 225 222 237 226 222 235 228 220 238 227 221 236 227 222 240 225 222 244 227 220 241 223 223 236 222 222 236 228 226 237 226 224 236 229 221 235 227 224 237 225 227 241 228 222 239 224 219 237 223 222 236 225 223 237 226 222 235 228 222 235 230 224 239 220 222 235 224 220 232 228 217 235 224 220 244 225 221 237 227 218 230 225 219 224 224 216 207 225 199 190 221 143 194 220 87 190 217 26 185 211 2 187 217 7 189 219 7 190 213 9 186 215 3 197 220 6 186 209 5 180 207 6 202 227 11 208 232 14 195 221 10 196 219 7 195 221 2 185 213 4 185 209 9 188 214 5 185 210 5 194 223 9 202 232 10 203 230 11 200 226 5 205 231 8 213 239 18 205 232 13 201 229 7 200 226 5 196 219 5 200 225 10 203 228 5 198 224 5 197 222 7 201 227 8 205 233 9 199 227 5 192 217 2 190 214 4 195 221 8 200 227 8 194 223 9 190 218 9 184 209 6 186 211 8 186 214 5 197 224 8 203 230 5 196 219 5 
189 215 6 186 214 7 188 214 5 200 227 8 196 223 6 182 210 4 186 214 5 191 217 6 194 221 5 190 219 5 195 222 5 202 227 12 193 219 8 188 213 7 189 218 4 201 227 6 202 230 8 207 235 11 201 227 4 199 226 10 203 233 11 199 230 5 198 225 8 195 222 5 188 221 6 188 219 4 192 221 7 189 219 7 192 223 6 196 223 6 199 226 7 205 233 9 199 229 9 196 226 6 193 219 10 178 201 5 186 213 10 191 220 4 201 228 9 198 222 12 191 215 5 195 220 5 202 229 10 205 233 9 199 225 4 197 222 6 196 223 4 203 228 5 200 225 10 196 219 5 200 226 5 201 229 7 205 232 13 213 239 18 205 231 8 201 227 6 203 230 11 202 232 10 194 223 9 185 210 5 188 214 5 185 209 9 185 213 4 196 221 5 194 219 4 197 221 11 208 232 14 200 225 12 182 206 6 185 210 7 196 221 6 188 214 5 189 212 7 195 218 4 194 217 5 185 208 3 191 214 10 195 218 14 193 218 3 196 219 5 193 218 5 194 221 4 196 223 7 197 224 8 197 222 6 189 215 6 183 210 9 191 214 9 201 228 11 193 220 63 182 217 117 190 218 167 209 224 195 222 223 207 231 227 216 229 227 215 238 223 218 242 223 225 237 225 225 237 226 220 242 225 218 241 223 221 237 228 221 235 228 222 234 226 223 235 228 220 234 225 218 237 228 221 241 225 225 235 225 226 238 227 223 237 235 220 239 235 223 234 225 218 238 224 221 238 226 226 235 225 226 237 227 225 235 227 225 235 223 223 237 225 225 237 225 225 233 226 218 236 225 221 237 234 225 237 226 224 236 225 223 238 223 216 241 226 219 235 228 220 236 227 222 238 225 219 234 227 219 233 225 222 233 228 222 242 229 220 241 223 221 238 231 225 237 235 223 237 230 220 237 230 220 235 226 219 235 223 223 240 225 220 237 228 223 238 227 223 236 227 220 237 226 220 237 226 222 237 226 224 233 225 222 237 227 217 236 222 221 231 227 218 243 225 221 235 223 223 236 228 225 239 225 222 243 223 225 236 224 226 243 229 220 199 226 175 193 215 28 190 220 8 199 221 12 200 224 6 201 222 7 205 225 12 206 230 14 212 237 13 205 228 14 207 227 14 209 230 11 204 227 13 200 225 9 196 222 3 190 212 7 196 216 3 206 226 7 206 226 7 210 232 9 217 240 14 215 238 12 207 232 8 205 226 7 209 229 16 
208 232 14 202 229 4 199 224 1 197 220 8 192 216 6 199 222 8 204 229 6 201 226 3 202 225 11 201 226 11 197 221 11 191 212 9 190 212 5 196 221 5 197 224 5 201 227 8 197 221 5 201 221 8 202 226 8 207 233 10 209 234 11 207 233 10 196 218 11 195 214 11 195 219 11 191 215 5 192 215 1 200 224 8 214 230 18 
212 235 31 207 233 12 205 232 5 203 228 5 205 226 9 193 213 0 186 208 3 197 223 12 204 225 6 202 226 8 208 232 16 204 228 8 197 220 6 193 219 10 195 221 8 192 214 5 187 209 4 184 207 5 188 211 6 194 220 9 201 226 13 205 231 8 206 233 4 206 232 13 196 218 9 199 223 7 211 235 17 210 232 23 199 223 5 203 224 7 207 229 7 196 216 5 196 217 16 209 232 20 209 234 11 214 237 11 214 237 11 211 234 8 195 218 6 189 211 14 193 217 7 206 229 17 211 231 18 205 226 9 202 227 4 200 224 4 201 225 7 205 230 7 211 232 5 208 228 9 207 226 10 201 227 6 204 228 12 210 232 10 211 232 13 193 222 8 204 226 27 203 229 142 232 225 219 235 228 222 237 225 225 237 226 222 238 228 219 243 223 225 242 223 225 239 226 217 237 226 220 236 227 220 237 226 224 241 227 224 236 229 221 239 226 220 239 225 224 240 226 225 233 224 217 237 226 222 236 226 224 235 228 222 234 231 224 237 233 222 237 229 226 235 226 217 235 226 219 239 232 224 236 225 223 239 225 222 234 225 218 239 225 225 236 226 225 238 224 223 240 230 228 235 225 223 236 227 222 235 226 219 239 231 220 239 233 219 235 227 224 233 226 220 234 230 219 234 227 219 235 225 216 241 221 222 240 224 225 235 224 218 238 229 222 234 232 220 236 228 225 236 226 224 233 233 223 237 239 226 236 233 226 237 226 224 227 227 225 237 226 224 236 226 225 236 225 221 239 225 222 236 230 232 237 226 224 244 225 219 233 234 220 236 233 226 235 226 227 235 224 220 237 226 220 241 221 223 240 224 225 239 225 224 230 230 220 222 230 207 209 225 196 200 223 151 201 230 104 200 226 55 197 216 13 201 225 9 198 230 7 204 227 15 196 220 10 188 213 7 195 217 8 207 231 15 199 224 8 192 222 4 201 229 7 194 220 7 176 203 2 190 212 3 203 227 9 199 224 11 201 225 9 205 230 6 197 224 5 193 218 5 189 212 10 189 217 11 184 214 2 193 222 6 208 233 17 201 227 4 195 219 9 197 226 10 195 222 6 193 218 3 202 228 7 201 225 7 201 226 10 204 235 10 202 230 6 199 227 3 200 228 6 200 227 8 195 225 5 193 219 8 186 211 8 190 216 5 194 221 5 188 217 5 182 210 4 180 207 6 184 212 5 190 219 5 191 220 8 195 221 10 194 220 9 
189 215 4 195 221 8 204 230 11 207 233 12 193 219 10 176 203 4 180 209 3 187 213 4 192 218 5 195 221 10 199 224 9 196 222 11 185 213 6 184 211 8 192 219 3 199 225 6 201 229 7 200 230 8 201 228 9 198 224 11 193 222 10 191 219 10 195 224 12 196 222 3 190 219 5 195 225 7 197 224 7 195 225 5 195 221 8 201 226 10 202 228 7 195 221 8 192 222 4 196 226 6 191 220 4 186 214 7 184 212 5 191 217 6 198 223 8 193 219 6 188 211 7 193 217 7 196 224 2 200 228 6 200 226 7 199 225 4 203 229 6 204 235 10 201 226 10 201 225 7 202 228 7 193 218 3 195 222 6 197 226 10 195 219 9 201 227 4 207 234 17 193 222 6 184 214 2 189 217 11 190 211 10 194 217 5 197 224 5 205 230 7 200 226 7 199 222 8 204 228 8 189 213 5 180 203 1 194 221 5 201 229 7 194 219 3 198 225 8 205 232 13 192 217 12 188 213 8 197 220 15 205 229 13 205 229 9 199 224 9 194 219 6 198 225 6 203 229 6 198 225 8 194 219 3 200 230 10 203 230 11 192 219 3 188 216 9 192 217 11 190 214 4 187 215 8 192 221 5 204 233 5 207 232 27 198 224 71 197 226 107 205 231 166 202 221 189 216 228 206 223 225 214 229 224 218 234 225 220 236 227 218 237 233 221 237 241 226 236 232 221 238 227 225 240 226 225 239 230 221 235 231 220 234 226 224 238 224 224 240 224 224 240 224 225 239 225 224 236 225 223 233 223 222 238 228 226 240 235 216 234 232 219 239 225 225 237 226 224 237 226 220 243 230 221 240 225 220 237 228 223 237 225 229 236 224 224 237 226 224 238 226 226 238 231 225 237 226 220 242 224 222 241 228 222 238 234 225 238 231 225 237 227 225 236 224 224 235 225 224 236 226 224 236 224 226 237 226 224 239 225 225 238 226 228 238 224 221 231 227 218 234 225 220 237 228 223 238 227 221 242 224 224 242 222 224 236 227 230 242 226 226 235 223 223 237 227 226 241 226 219 235 228 220 234 226 223 201 225 175 214 231 37 199 234 8 201 228 12 204 225 6 206 225 12 209 229 10 210 233 7 205 230 7 201 225 7 200 224 4 202 227 4 205 226 9 211 231 18 206 229 17 193 217 7 189 211 14 195 218 6 211 234 8 214 237 11 214 237 11 209 234 11 209 232 20 196 217 16 196 216 5 207 229 7 203 224 7 199 223 5 210 232 23 
211 235 17 199 223 7 196 218 9 206 232 13 206 233 4 205 231 8 201 226 13 194 220 9 188 211 6 184 207 5 187 209 4 192 214 5 195 221 8 193 219 10 197 220 6 204 228 8 208 232 16 202 226 8 204 225 6 197 223 10 186 208 3 194 212 2 203 227 9 203 227 7 206 231 5 207 233 10 208 229 14 
196 219 27 196 220 10 201 227 8 208 234 15 217 238 19 206 227 8 199 221 12 205 231 20 208 233 10 201 226 2 197 220 6 194 217 5 196 221 6 193 219 8 198 223 10 205 230 7 205 231 8 199 223 7 190 212 3 184 207 3 197 223 10 204 232 8 203 229 8 210 235 11 205 226 9 194 219 6 201 227 8 210 232 23 208 228 17 204 228 8 208 233 7 201 222 7 189 213 5 187 211 3 189 213 3 200 224 8 207 231 11 206 228 6 203 224 7 194 216 7 193 218 5 199 225 4 202 228 7 208 233 7 209 232 6 205 226 9 198 222 6 200 223 11 208 230 8 211 234 8 199 219 10 192 217 4 200 225 9 211 237 14 214 231 11 204 226 3 202 223 4 196 228 7 209 230 29 207 231 153 221 232 216 235 233 218 242 229 220 233 228 224 241 225 226 235 225 223 236 226 225 239 224 227 237 230 222 239 225 222 236 229 223 238 224 221 231 226 223 240 226 226 239 224 221 235 224 218 235 228 218 236 225 229 241 234 224 236 228 226 236 224 224 236 231 227 236 227 222 237 226 220 235 233 220 236 236 224 237 235 220 236 225 223 235 225 224 237 225 227 239 225 222 238 229 220 239 228 224 240 226 223 237 230 220 239 230 223 236 232 221 236 227 222 234 224 223 236 224 224 236 226 227 238 224 224 237 225 227 235 225 223 237 223 222 236 222 219 234 222 224 236 227 222 242 226 226 243 228 225 237 233 222 236 234 221 242 227 222 239 226 220 234 227 219 240 224 227 239 220 222 237 228 221 237 226 222 236 229 223 237 229 226 241 220 227 235 224 222 225 228 209 220 222 208 210 223 203 187 225 150 184 217 87 197 225 27 205 231 8 190 224 5 199 231 10 209 234 11 204 231 12 188 217 5 192 215 11 206 232 13 199 225 4 193 220 3 194 225 8 195 222 6 204 232 8 205 238 9 205 232 15 194 224 4 197 224 7 193 217 9 200 224 8 199 225 4 192 218 9 201 226 11 205 230 4 200 226 7 203 227 7 196 219 5 185 210 5 179 208 4 186 214 5 194 218 8 199 224 11 195 219 11 193 220 4 192 218 5 193 218 5 198 223 8 195 219 9 193 219 8 198 230 9 198 228 6 197 225 3 199 227 3 197 227 5 198 228 8 197 227 9 192 218 7 186 215 3 197 224 8 196 223 7 183 211 4 184 211 8 190 218 9 195 224 10 196 223 6 195 225 5 195 222 6 193 219 6 202 229 12 
203 229 10 192 219 3 182 210 4 182 211 7 189 218 4 199 225 6 197 222 7 193 217 9 194 219 4 197 222 6 199 226 9 200 227 10 200 226 3 201 231 9 203 231 9 191 218 1 192 218 7 186 215 3 182 211 7 189 216 13 196 221 8 198 226 4 196 222 3 188 213 7 179 208 4 175 201 4 194 220 11 198 225 6 192 217 12 187 218 3 194 224 4 196 226 4 195 224 12 186 213 10 185 210 4 200 227 8 200 228 6 189 218 4 194 221 5 202 230 8 201 231 9 197 227 5 199 227 2 198 226 4 199 226 7 198 230 9 193 219 8 195 219 9 198 223 8 193 218 5 192 218 5 193 220 4 195 219 11 199 224 11 193 219 8 186 214 5 179 208 6 185 210 5 196 219 5 203 227 7 200 226 7 206 231 7 204 228 12 192 216 6 199 225 4 198 225 9 192 218 9 196 223 6 194 224 4 205 232 13 207 236 6 201 232 4 194 223 7 195 225 5 193 220 4 199 226 7 206 232 11 193 215 10 193 216 4 204 230 11 209 233 13 203 228 12 198 224 5 204 232 8 196 225 9 184 212 5 185 213 7 194 219 13 193 215 8 201 221 8 195 222 6 192 222 10 204 230 9 205 226 7 200 227 8 197 228 10 192 221 9 193 216 4 200 222 13 200 223 44 203 228 75 210 232 131 209 233 173 213 230 198 219 226 208 227 227 215 236 227 218 240 225 220 233 226 220 237 226 220 239 225 224 241 223 223 241 223 223 239 226 220 237 228 221 237 227 225 238 231 225 239 232 222 236 229 223 237 227 226 235 230 227 237 228 221 238 227 221 236 227 220 236 227 222 235 225 224 236 234 222 239 238 220 235 233 220 236 228 226 237 227 226 238 231 225 235 224 222 234 229 225 237 235 223 236 227 222 237 226 222 237 228 221 239 225 222 241 226 223 240 225 220 234 226 224 236 226 227 240 224 227 239 228 224 237 225 229 235 225 223 235 225 223 239 225 222 235 227 225 234 230 219 240 234 218 239 230 221 229 232 221 237 231 233 205 228 176 199 224 36 195 225 5 210 232 9 211 238 13 200 225 9 192 217 4 200 220 9 209 234 8 206 231 8 200 223 11 198 222 6 205 226 9 209 232 6 208 233 7 202 228 7 199 225 4 193 218 5 194 216 7 203 224 7 206 228 6 207 231 11 200 224 8 189 213 3 187 211 3 189 213 5 201 222 7 208 233 7 204 228 8 208 228 17 210 232 23 201 227 8 194 219 6 205 226 9 210 235 11 
203 229 8 204 232 8 197 223 10 184 207 3 190 212 3 199 223 7 205 231 8 205 230 7 198 223 10 193 219 8 196 221 6 194 217 5 197 220 6 201 226 2 208 233 10 205 231 22 199 221 12 207 227 8 215 240 16 209 233 15 201 227 8 195 221 10 191 212 9 
202 224 27 194 218 8 190 213 8 196 220 10 204 230 11 203 225 3 200 224 6 200 224 6 204 231 6 207 232 9 202 225 11 205 229 11 200 224 4 197 220 6 198 223 8 201 226 10 204 230 9 208 232 12 205 227 5 187 208 5 184 207 5 194 220 7 199 224 11 202 226 6 203 227 9 192 219 3 191 218 2 201 225 7 207 231 13 207 233 10 209 236 11 209 232 6 203 228 5 200 226 3 201 227 8 201 227 6 202 226 6 205 226 9 203 225 3 204 225 8 201 225 5 201 227 8 197 224 8 202 227 12 204 227 13 205 225 12 201 225 7 202 227 11 211 234 6 212 235 7 206 230 10 196 218 13 197 218 3 197 224 7 204 227 15 208 229 4 198 223 10 190 215 2 200 226 5 198 223 8 201 224 30 201 225 149 231 222 213 232 227 223 235 229 217 238 224 224 235 226 221 236 226 224 235 231 222 237 226 220 235 228 222 235 224 222 235 225 216 237 231 219 237 227 225 237 225 225 234 225 220 232 225 217 237 227 218 245 225 224 235 227 224 235 224 222 239 226 218 235 226 219 235 226 221 237 226 222 237 228 221 239 225 222 240 224 225 240 222 220 234 227 219 235 226 221 237 228 221 238 236 224 241 234 226 237 230 224 238 231 221 240 234 220 236 233 226 240 233 223 237 235 223 234 230 219 232 225 219 234 227 221 241 222 224 236 226 224 237 228 219 234 227 221 239 225 225 237 222 225 234 234 222 237 232 226 236 225 223 233 228 224 237 225 227 241 221 222 234 225 216 233 226 220 229 225 216 222 225 214 203 223 188 188 220 145 186 218 85 196 220 36 191 216 10 184 209 6 177 204 3 186 211 8 189 212 7 194 216 9 184 209 6 188 214 5 200 227 8 207 233 10 202 228 9 199 223 5 206 234 12 198 229 11 187 212 6 189 215 4 193 222 6 198 223 10 205 233 11 208 236 12 188 216 9 188 214 5 186 210 10 188 212 14 187 213 4 191 218 2 206 232 9 202 228 9 200 224 16 205 229 13 201 226 10 191 217 6 195 225 7 199 229 11 198 225 6 203 230 5 204 231 4 202 228 9 198 224 11 190 219 5 196 222 9 187 213 2 187 215 6 198 225 9 187 215 8 186 211 5 190 216 3 187 215 6 193 221 14 204 232 10 199 227 3 189 214 8 195 222 6 206 234 10 195 222 5 189 220 5 196 226 8 196 223 4 197 224 5 195 224 8 194 220 9 192 218 7 200 227 10 199 226 7 
190 218 9 183 212 6 190 219 5 197 225 3 191 215 7 182 207 4 185 213 4 196 223 6 203 229 6 204 232 7 203 231 9 201 228 9 203 233 15 195 224 10 192 218 7 191 217 8 191 217 4 184 212 3 193 219 6 204 230 11 198 227 11 192 216 8 186 211 5 180 209 7 188 216 9 196 223 6 191 220 6 193 221 12 192 223 8 192 221 9 200 227 8 202 234 3 196 228 7 197 224 7 209 237 15 197 224 8 188 216 7 198 228 6 205 233 11 193 221 12 187 215 6 190 217 1 185 210 4 190 216 7 198 225 9 187 215 6 187 213 2 196 222 9 190 219 5 198 224 11 202 228 9 204 231 4 202 229 4 198 225 6 199 229 11 195 225 7 191 217 6 200 225 9 205 228 14 199 223 15 201 227 8 206 232 11 193 218 3 187 213 2 185 212 11 186 211 8 186 215 3 187 217 5 205 235 15 206 234 12 198 222 12 195 219 9 190 216 3 185 213 4 201 228 12 206 234 12 197 224 5 201 227 4 208 234 13 201 227 8 189 215 4 183 208 2 194 218 8 190 212 7 186 211 6 182 204 7 185 207 8 191 216 10 195 222 5 187 210 8 188 210 5 201 221 10 193 216 4 194 217 5 189 211 6 190 211 8 193 217 7 200 226 7 199 225 4 199 224 9 202 233 7 201 233 10 200 218 8 190 214 6 183 214 25 181 216 72 188 218 130 198 221 179 202 221 191 209 225 199 216 230 205 222 235 207 224 234 210 227 231 214 232 233 217 239 232 222 233 228 222 239 236 229 239 235 226 239 225 222 234 226 215 235 224 220 239 225 225 236 226 227 236 226 224 237 228 223 237 226 222 236 226 224 238 222 223 242 222 223 236 227 218 235 228 220 241 225 225 238 229 224 237 226 222 238 227 221 236 227 220 238 228 219 237 230 220 236 227 222 237 226 222 236 227 222 241 226 223 243 229 220 239 225 222 235 224 222 235 225 224 236 229 223 236 229 219 235 225 226 244 225 219 235 225 216 201 226 169 200 225 35 185 215 7 201 222 3 207 228 9 206 226 13 197 224 7 194 218 2 196 218 11 207 228 11 213 234 5 209 234 8 202 227 11 201 225 7 205 225 12 204 227 13 202 227 12 197 224 8 201 227 8 201 225 5 204 225 8 203 225 3 205 226 9 202 226 6 201 227 6 201 227 8 200 226 3 203 228 5 209 232 6 209 236 11 207 233 10 207 231 13 201 225 7 191 218 2 192 219 3 203 227 9 202 226 6 199 224 11 194 220 7 
184 207 5 187 208 5 205 227 5 208 232 12 204 230 9 201 226 10 198 223 8 197 220 6 200 224 4 205 229 11 202 225 11 207 232 9 204 231 6 200 224 6 200 224 6 203 225 3 204 230 9 196 220 12 190 213 8 194 218 8 197 217 6 
204 226 29 202 225 11 192 214 5 190 215 2 199 225 6 202 227 4 199 223 5 195 218 4 200 227 8 207 233 4 203 224 7 203 227 7 208 235 8 209 230 15 207 227 14 196 220 4 194 218 8 194 217 5 198 221 7 202 226 10 191 215 7 189 212 8 193 217 7 194 217 13 194 217 12 197 223 10 197 223 10 197 223 2 200 224 14 205 231 10 206 231 7 209 230 13 204 228 8 196 219 7 204 230 9 212 239 10 203 227 9 197 221 5 203 227 7 202 226 10 198 222 6 198 223 8 199 224 9 200 225 9 197 222 7 197 219 12 201 223 16 194 219 6 197 217 4 209 229 10 213 233 11 211 231 10 202 223 8 191 220 4 198 223 8 206 231 15 206 233 8 203 227 7 198 224 5 202 228 5 200 223 9 188 217 5 194 220 7 202 224 97 204 225 192 228 226 214 241 223 223 243 225 223 241 225 225 237 226 222 236 225 221 239 223 223 240 220 222 237 225 225 238 229 222 235 228 222 237 226 222 237 225 225 237 227 226 234 224 225 238 227 223 239 232 222 235 225 223 237 228 221 237 226 224 240 229 225 235 231 222 233 230 225 237 226 224 235 225 224 242 224 224 242 224 224 241 222 226 237 221 221 236 232 220 237 230 220 234 227 219 237 227 218 237 225 225 242 226 226 241 235 219 242 234 221 240 225 220 242 227 222 237 227 225 237 225 225 236 226 217 235 223 223 240 226 223 236 225 221 238 232 220 234 239 219 238 227 225 224 225 211 220 231 197 197 225 184 181 225 166 186 217 100 199 223 39 195 220 4 188 211 7 194 220 9 197 220 6 201 225 5 200 224 8 191 213 8 183 206 4 181 205 5 193 218 3 202 226 6 192 217 4 185 214 8 193 225 4 207 232 8 207 228 11 201 225 9 205 233 9 207 234 15 186 214 5 189 214 8 193 217 7 196 223 6 199 227 5 198 221 7 187 212 7 190 216 3 193 218 3 191 217 6 196 222 9 191 217 8 190 215 2 199 222 8 200 225 12 190 213 8 190 216 3 181 206 3 184 209 4 192 219 3 202 230 8 206 234 9 201 229 7 204 230 9 196 224 2 194 223 7 186 211 5 187 212 6 189 218 2 203 231 7 208 239 11 201 229 5 196 223 6 190 216 7 191 217 6 193 219 8 185 210 4 188 213 7 180 205 2 189 215 6 187 216 4 187 215 6 192 218 5 198 226 4 200 227 8 192 218 9 195 221 8 201 228 11 200 231 6 194 224 4 182 209 6 184 211 12 186 214 7 
194 220 7 194 221 4 188 216 7 192 223 5 197 226 12 200 229 13 194 223 7 189 218 4 194 223 7 193 219 6 188 216 7 193 222 10 199 226 9 202 229 10 199 226 9 207 235 13 212 240 16 204 232 10 199 227 5 194 220 11 197 227 9 203 231 9 200 228 3 198 228 8 194 223 9 185 215 5 196 226 4 202 230 8 196 223 6 187 216 2 188 217 5 187 212 6 179 203 3 188 213 7 183 208 3 192 218 5 192 218 7 190 215 9 196 223 6 201 228 9 207 238 13 203 231 7 189 218 2 187 212 6 186 211 5 194 223 7 196 224 2 204 230 9 201 229 7 207 235 10 200 230 8 190 219 3 184 209 6 181 206 3 191 217 6 191 214 9 200 225 12 198 223 8 191 216 3 191 217 8 193 222 10 190 218 9 194 219 6 191 216 3 184 212 3 198 223 8 199 225 6 196 223 7 191 220 6 187 215 6 187 213 2 208 234 13 207 231 11 201 224 12 204 228 12 206 233 6 196 223 7 188 213 10 191 218 2 201 227 8 193 218 3 181 206 3 179 206 3 190 214 6 201 222 5 202 226 10 196 219 7 199 222 10 189 211 4 196 220 4 200 223 9 185 207 0 184 205 6 196 219 7 207 233 10 201 225 9 204 226 4 215 240 16 208 230 7 198 225 6 201 227 16 199 221 12 192 217 4 194 218 8 198 228 10 198 228 10 201 225 7 209 234 18 207 235 11 203 229 8 199 225 28 195 221 52 204 224 73 210 231 110 207 231 135 200 223 151 197 220 168 204 224 187 205 224 194 213 223 198 218 225 207 225 228 211 233 232 214 237 228 221 237 223 222 238 227 223 236 227 220 236 229 219 236 226 225 237 223 220 236 225 221 235 226 219 236 226 224 237 225 225 238 227 225 236 226 225 238 224 224 237 226 220 231 227 216 235 226 219 235 228 222 237 225 227 236 224 224 235 228 222 229 227 215 214 228 205 206 221 192 194 223 117 199 222 17 194 229 3 199 223 7 204 225 6 205 231 8 206 230 14 198 222 12 196 220 4 200 225 10 210 230 11 213 236 10 207 228 9 196 219 5 194 219 6 201 223 16 197 219 12 197 222 7 200 225 9 199 224 9 198 223 8 198 222 6 202 226 10 203 227 7 197 221 5 203 227 9 212 239 10 204 230 9 196 219 7 204 228 8 209 230 13 206 231 7 205 231 10 200 224 14 197 223 2 197 223 10 197 223 10 194 217 12 194 217 13 193 217 7 189 212 8 191 215 7 202 226 10 198 221 7 194 217 5 
194 218 8 196 220 4 207 227 14 209 230 15 208 235 8 203 227 7 203 224 7 207 233 4 200 227 8 195 219 3 199 223 5 202 226 6 199 225 6 191 213 4 193 215 6 201 225 9 200 219 6 
206 229 27 209 234 8 215 237 14 213 234 15 206 231 8 205 230 6 203 229 6 202 227 12 203 231 6 208 233 9 204 229 5 195 222 5 201 228 12 213 236 6 211 232 3 203 224 7 186 208 9 183 205 6 183 205 6 190 214 6 189 212 7 182 205 3 190 216 7 191 219 10 189 212 7 192 216 6 195 220 5 194 219 4 193 217 9 205 230 7 205 226 7 197 220 8 202 225 11 198 223 10 200 226 7 213 240 15 206 231 5 206 232 13 208 233 18 208 236 11 199 222 8 196 220 2 197 222 7 199 225 4 202 229 2 203 229 10 204 229 14 203 227 7 196 221 6 198 225 8 204 230 9 203 228 5 206 227 8 206 226 7 199 223 7 203 228 13 204 230 7 208 230 7 197 222 7 198 223 8 204 231 12 196 216 3 193 217 7 196 222 9 204 228 20 206 233 32 208 229 108 205 227 189 234 230 219 237 225 227 234 225 220 242 224 220 233 228 222 237 230 220 238 233 227 237 235 222 242 229 223 241 228 222 237 236 218 237 233 222 237 226 222 236 234 221 236 233 218 236 227 222 239 228 226 237 228 219 239 238 220 237 232 226 233 225 223 239 224 227 236 226 227 235 225 223 238 227 223 238 228 219 233 224 217 236 226 224 235 235 227 239 232 226 235 228 220 236 227 222 233 231 218 236 229 223 238 223 226 236 224 224 238 231 221 237 230 220 235 224 220 235 224 218 226 222 213 211 225 199 199 226 185 209 232 144 211 233 60 208 232 22 207 234 5 202 230 8 191 222 5 202 226 6 204 229 5 203 228 5 199 224 9 209 233 13 214 234 13 205 231 8 203 229 6 204 232 10 197 227 9 187 213 4 190 213 9 193 222 8 197 220 8 194 215 12 192 218 9 196 220 10 207 234 17 206 238 15 208 235 10 210 236 15 199 225 6 194 220 1 189 220 5 193 224 7 204 230 9 201 227 8 200 226 7 200 226 7 195 220 7 188 216 9 195 225 5 192 218 5 191 214 10 192 215 11 200 225 12 197 225 3 190 218 9 196 222 9 193 218 5 190 216 7 195 225 7 202 230 6 193 223 5 195 224 8 204 230 9 203 229 6 192 218 7 184 211 8 188 213 8 186 214 8 196 225 9 205 233 8 201 229 7 193 218 12 192 218 7 198 223 7 193 219 10 190 216 5 196 221 5 190 216 5 192 221 5 194 220 7 193 218 5 200 227 8 198 225 6 195 222 5 195 222 6 192 221 9 188 216 9 185 210 7 181 205 5 188 214 5 191 221 3 195 225 5 
193 220 3 190 216 7 198 226 2 195 221 10 192 221 7 188 217 5 185 210 5 185 208 4 190 216 5 192 218 9 198 224 13 203 229 8 192 219 2 195 224 10 202 228 17 203 228 12 190 219 5 189 223 4 193 224 7 200 227 8 188 216 7 180 209 5 186 214 7 187 215 9 189 218 6 196 226 6 197 223 10 192 216 6 195 222 5 191 220 6 188 217 5 196 221 6 190 214 6 194 216 11 199 223 5 193 217 7 193 218 12 202 230 6 205 233 8 196 226 8 186 214 8 188 213 8 184 211 8 192 218 7 203 229 6 204 230 9 195 224 8 193 223 5 200 230 8 194 224 6 188 216 7 193 218 5 197 222 9 192 218 9 197 225 3 200 225 12 191 214 9 191 214 9 194 219 4 196 226 8 191 216 10 195 218 4 201 225 7 200 225 10 201 225 7 202 230 8 193 225 4 190 219 7 193 220 4 199 224 9 210 236 13 206 234 10 209 235 12 208 235 18 196 221 8 189 218 6 194 218 10 195 221 10 196 220 10 189 214 9 184 212 5 200 225 9 205 231 12 203 231 6 206 231 7 210 234 14 208 232 14 202 222 9 202 227 4 203 230 5 200 228 6 197 222 7 203 229 6 207 234 5 207 232 9 209 234 11 208 232 12 198 223 8 193 220 3 193 218 5 190 215 9 197 217 8 204 229 6 207 232 9 200 223 9 199 222 8 203 228 5 205 230 4 203 227 7 204 228 10 206 230 10 209 235 6 205 226 9 197 223 2 198 218 5 195 226 11 195 224 12 188 214 5 187 208 7 193 214 11 210 232 25 215 238 46 204 230 69 201 223 86 203 226 96 211 236 108 212 233 138 202 223 180 209 232 190 213 236 192 207 229 193 212 228 201 219 234 203 222 235 207 227 230 211 230 226 214 231 222 215 220 223 206 213 227 204 204 230 191 205 226 167 205 229 109 208 233 67 204 226 37 199 222 10 191 217 6 192 216 8 204 232 10 198 223 8 200 220 9 206 231 8 203 231 6 204 230 11 199 223 5 205 225 6 204 228 8 206 226 5 204 230 11 199 224 8 196 221 5 203 227 7 204 229 14 203 229 10 202 229 2 199 225 4 197 222 7 196 220 2 199 222 8 208 236 11 208 233 18 206 232 13 206 231 5 213 240 15 200 226 7 198 223 10 202 225 11 197 220 8 205 226 7 205 230 7 193 217 9 194 219 4 195 220 5 192 216 6 189 212 7 191 219 10 190 216 7 182 205 3 189 212 7 190 214 6 183 205 6 183 205 6 186 208 9 203 224 7 211 232 3 213 236 6 201 228 12 
195 222 5 204 229 5 208 233 9 203 231 6 202 227 12 202 228 7 205 230 7 206 231 8 213 234 15 216 237 12 209 235 6 203 222 9 
207 230 26 195 218 6 201 224 12 209 234 11 211 235 17 210 234 14 201 225 7 198 220 13 197 224 8 206 235 5 205 232 7 198 222 6 199 222 8 201 225 5 205 230 6 207 232 9 204 229 5 201 225 7 195 218 6 190 212 3 198 223 10 201 228 9 200 227 8 198 222 6 204 231 4 206 227 8 193 215 6 190 218 9 197 223 14 205 229 11 203 227 7 200 223 9 196 216 7 192 216 8 194 218 10 203 226 12 202 226 6 197 222 7 208 233 18 216 241 18 213 233 11 198 222 6 196 220 12 197 222 7 204 228 12 203 226 12 200 222 13 203 229 10 204 229 13 204 228 12 207 231 15 204 229 16 202 227 12 211 237 18 204 228 10 204 226 4 204 226 4 203 228 5 199 223 7 194 217 13 201 226 11 198 223 7 202 226 6 195 219 3 194 218 10 203 229 10 196 225 13 194 220 11 198 220 24 210 234 124 212 228 199 230 227 220 240 227 221 236 227 220 237 226 220 237 230 220 234 225 218 236 222 222 237 227 226 237 233 221 238 236 221 236 237 223 235 236 218 238 237 219 238 232 218 235 228 218 236 236 224 237 241 226 237 230 220 236 227 222 234 227 219 236 224 226 239 235 226 241 227 226 238 228 219 235 226 219 238 227 225 235 225 216 236 227 218 231 227 215 227 229 215 213 225 201 205 224 196 196 223 172 202 227 143 192 218 109 196 220 80 198 219 54 191 213 14 187 210 8 189 215 6 194 223 9 200 225 9 200 225 9 199 225 6 189 213 3 187 210 8 200 225 10 201 227 4 198 223 7 202 222 9 208 233 9 209 234 10 204 229 6 204 230 7 207 233 10 202 230 8 200 226 13 199 226 7 201 229 7 196 220 10 192 216 8 191 214 9 187 210 5 185 208 4 196 221 8 203 229 8 207 233 14 207 235 11 193 220 3 192 216 6 196 221 6 195 221 12 191 217 8 201 227 4 200 226 3 198 224 5 195 219 9 198 223 8 199 226 1 202 228 5 203 229 10 198 224 5 199 225 4 188 211 7 186 209 7 187 210 6 182 204 5 182 206 8 176 203 4 186 212 3 196 222 9 201 231 11 202 231 1 199 224 8 188 216 10 183 212 10 189 218 6 188 216 7 191 217 6 196 222 9 196 222 9 188 216 7 193 225 4 196 224 2 193 217 7 201 226 10 205 231 10 203 230 5 200 227 8 196 223 6 193 220 4 191 216 3 195 220 5 195 220 5 193 219 8 193 222 10 187 215 8 191 217 8 198 225 8 195 222 5 196 225 11 
204 228 12 198 223 7 198 223 8 196 222 3 196 223 6 194 223 9 193 222 6 190 216 5 190 215 10 189 213 5 191 214 9 184 209 3 180 209 7 186 216 8 193 222 6 196 221 8 190 219 7 193 219 10 195 218 13 174 200 3 176 204 8 184 211 10 192 218 9 188 213 8 188 217 3 190 216 7 196 223 4 195 225 3 199 226 7 201 227 6 204 230 9 203 228 12 193 217 7 195 225 5 192 224 3 189 217 8 194 223 9 196 222 9 189 218 4 186 216 6 189 218 6 183 212 10 188 216 10 199 224 8 202 231 1 201 231 11 196 222 9 186 212 3 176 203 4 182 206 8 182 204 5 187 210 6 186 209 7 188 211 7 199 225 4 198 224 5 203 229 10 202 228 5 199 226 1 198 223 8 195 219 9 198 224 5 200 226 3 201 227 4 191 217 8 195 221 12 196 221 6 192 216 6 193 220 3 207 235 11 207 233 14 203 229 8 196 221 8 185 208 4 187 210 5 191 214 9 192 216 8 196 220 10 201 229 7 199 226 7 200 226 13 202 230 8 207 233 10 204 230 7 204 229 6 209 234 10 208 233 9 202 222 9 198 223 7 201 227 4 200 225 10 187 210 8 189 213 3 199 225 6 200 225 9 200 225 9 197 222 9 193 215 8 187 208 7 190 213 1 196 219 14 197 221 11 194 218 8 201 226 11 196 221 5 195 220 5 197 223 4 206 230 14 203 228 5 202 228 5 196 221 6 197 220 6 202 227 4 200 225 9 203 227 11 212 235 7 200 224 8 191 213 8 195 215 4 207 232 9 216 241 17 213 236 10 206 226 13 214 235 18 216 237 18 217 238 23 212 238 9 210 235 9 200 232 11 197 226 10 199 222 8 201 221 8 206 230 12 200 225 12 191 217 22 190 216 29 192 215 21 205 230 14 207 233 10 196 221 8 192 218 5 198 225 9 203 228 12 194 218 10 195 219 3 202 226 6 198 223 7 201 226 11 194 217 13 199 223 7 203 228 5 204 226 4 204 226 4 204 228 10 211 237 18 202 227 12 204 229 16 207 231 15 204 228 12 204 229 13 203 229 10 200 222 13 203 226 12 204 228 12 197 222 7 196 220 12 198 222 6 213 233 11 216 241 18 208 233 18 197 222 7 202 226 6 203 226 12 194 218 10 192 216 8 196 216 7 200 223 9 203 227 7 205 229 11 197 223 14 190 218 9 193 215 6 206 227 8 204 231 4 198 222 6 200 227 8 201 228 9 198 223 10 190 212 3 195 218 6 201 225 7 204 229 5 207 232 9 205 230 6 201 225 5 199 222 8 198 222 6 205 232 7 
206 235 5 197 224 8 196 220 12 203 224 9 211 232 13 212 236 18 211 233 11 200 225 12 195 219 11 205 222 6 
210 233 28 201 227 8 197 222 6 201 227 8 205 231 12 205 231 8 203 229 8 191 215 7 188 215 0 201 229 7 206 233 14 200 223 11 199 222 10 198 221 9 203 227 11 205 229 9 207 231 15 202 227 12 201 226 10 205 229 13 204 228 8 202 228 7 210 235 19 202 225 11 202 229 4 214 240 11 204 228 8 195 220 5 200 228 4 203 229 10 201 226 2 208 233 9 211 233 10 201 226 13 199 225 12 202 228 5 202 227 4 197 216 10 192 214 7 200 225 9 207 232 6 200 224 6 197 219 10 201 220 14 198 220 13 201 222 21 193 213 17 191 214 12 201 227 6 204 228 10 202 225 11 200 223 11 196 221 8 203 229 10 207 232 6 205 230 7 206 228 6 206 228 5 208 233 9 206 231 7 199 225 4 199 224 9 206 232 11 204 232 7 208 230 8 210 231 12 206 231 8 195 219 1 197 221 5 200 228 4 196 226 6 188 213 8 181 215 77 176 222 150 208 221 193 222 224 211 222 228 214 234 225 210 233 226 216 232 227 223 237 231 231 237 232 226 233 230 221 234 232 220 239 237 224 235 231 219 236 226 225 240 226 223 237 241 224 232 235 218 227 229 218 225 227 214 216 229 201 208 233 194 207 233 185 209 230 163 201 228 123 202 227 100 204 226 65 206 226 33 197 217 8 194 216 9 187 215 6 191 222 4 204 229 6 196 221 6 197 223 4 200 227 2 207 231 11 191 213 8 180 200 7 191 212 9 195 220 7 201 224 12 205 229 13 200 224 4 191 215 7 183 206 4 186 209 7 191 216 3 187 215 6 192 218 7 198 223 8 193 216 4 197 220 8 206 232 9 200 228 6 195 221 12 199 226 9 207 236 6 205 230 17 197 222 6 201 227 6 202 228 9 199 225 4 193 217 7 196 221 6 205 232 7 205 233 8 195 222 6 188 214 5 189 215 4 177 201 3 181 205 5 195 220 4 199 225 6 199 227 5 205 232 13 206 233 14 192 217 2 189 215 6 199 226 10 197 224 7 198 226 2 190 216 5 185 210 7 184 207 5 182 207 2 179 202 6 170 196 3 180 207 8 192 222 4 203 231 7 212 238 15 206 233 14 195 225 3 194 223 7 190 216 5 190 216 3 190 216 3 189 218 4 186 214 5 183 211 4 194 220 7 193 220 4 184 209 4 190 216 7 197 224 8 199 223 13 194 220 11 189 218 6 192 218 5 195 222 6 195 222 6 196 222 9 197 226 10 197 226 10 184 212 3 182 210 4 188 216 9 187 215 8 187 215 8 196 218 9 194 220 7 
194 221 2 200 226 3 202 230 5 193 223 5 187 215 9 184 208 8 184 207 5 187 210 6 182 207 2 183 208 3 194 218 8 195 218 13 194 218 8 196 222 13 195 221 8 189 217 8 181 210 6 173 201 5 193 219 10 210 234 18 203 229 8 193 222 6 195 220 7 199 224 8 199 224 9 193 220 4 195 221 12 198 223 17 197 222 6 188 213 7 181 209 3 194 221 4 195 221 8 184 209 4 186 214 7 188 216 7 187 215 8 190 216 7 190 216 5 194 223 7 195 225 3 206 233 14 212 238 15 203 231 7 192 222 4 180 207 8 170 196 3 179 202 6 182 207 2 184 207 5 185 210 7 190 216 5 198 226 2 197 224 7 199 226 10 189 215 6 192 217 2 206 233 14 205 232 13 199 227 5 199 225 6 195 220 4 181 205 5 177 201 3 189 215 4 188 214 5 195 222 6 205 233 8 205 232 7 196 221 6 193 217 7 199 225 4 202 228 9 201 227 6 197 222 6 205 230 17 207 236 6 199 226 9 195 221 12 200 228 6 206 232 9 197 220 8 193 216 4 198 223 8 192 218 7 187 215 6 191 216 3 186 209 7 183 206 4 191 215 7 200 224 4 205 229 13 201 224 12 195 220 7 189 212 10 180 200 5 191 213 6 207 231 13 201 226 3 197 222 6 197 222 7 203 230 5 198 224 5 190 214 4 193 215 10 195 217 10 204 225 6 204 228 8 202 226 10 203 227 7 209 230 11 209 233 17 208 233 10 206 228 5 202 226 6 203 228 4 213 235 13 217 242 19 204 230 7 195 220 7 208 233 17 212 237 14 212 233 16 208 229 12 210 232 9 208 230 8 200 225 9 191 215 5 194 219 6 204 229 16 198 224 13 179 204 1 175 196 5 182 204 5 188 209 6 201 225 5 204 228 10 196 219 7 195 220 5 204 231 6 208 232 12 205 230 7 204 232 7 206 232 11 199 224 9 199 225 4 206 231 7 208 233 9 206 228 5 206 228 6 205 230 7 207 232 6 203 229 10 196 221 8 200 223 11 202 225 11 204 228 10 201 227 6 191 214 12 193 213 17 201 222 21 198 220 13 201 220 14 197 219 10 200 224 6 207 232 6 200 225 9 192 214 7 197 216 10 202 227 4 202 228 5 199 225 12 201 226 13 211 233 10 208 233 9 201 226 2 203 229 10 200 228 4 195 220 5 204 228 8 214 240 11 202 229 4 202 225 11 210 235 19 202 228 7 204 228 8 205 229 13 201 226 10 202 227 12 207 231 15 205 229 9 203 227 11 198 221 9 199 222 10 200 223 11 206 233 14 201 229 7 188 215 0 
190 216 7 204 228 10 206 232 9 205 233 11 202 226 8 197 222 6 202 227 11 205 225 6 
208 228 35 208 234 15 207 233 10 198 223 7 196 223 6 196 223 6 193 220 1 191 217 6 193 219 10 200 227 8 205 234 6 208 234 11 201 226 3 202 227 3 205 230 7 202 226 6 203 227 11 193 217 7 189 214 8 206 231 15 211 236 12 199 223 5 198 221 7 202 226 8 198 225 8 210 239 9 214 240 9 202 226 10 194 224 4 202 230 5 206 229 15 205 229 9 207 233 10 207 231 15 202 226 6 207 234 9 209 236 9 206 231 8 203 227 7 204 228 12 208 235 10 210 235 9 208 230 8 209 230 13 211 236 10 211 235 15 207 231 15 200 224 4 200 226 3 203 226 14 201 225 9 202 226 6 197 221 11 194 218 8 203 229 8 205 229 11 204 230 11 202 228 7 199 222 8 205 230 7 203 228 5 197 222 7 197 222 9 202 231 3 205 232 7 202 227 4 202 227 4 203 229 8 207 233 12 210 235 12 210 231 14 199 224 8 191 215 5 187 210 5 189 212 7 186 211 5 201 224 20 210 232 43 199 225 76 203 229 106 210 234 146 209 232 176 205 230 190 202 227 188 203 228 186 207 231 179 195 222 145 189 218 125 193 218 88 197 222 69 203 223 37 205 229 11 206 225 11 203 233 15 195 225 7 194 221 2 205 229 9 210 235 12 206 228 6 213 234 7 205 225 6 200 225 2 202 228 9 197 222 6 204 225 6 204 229 5 203 229 10 205 231 8 208 234 11 210 236 13 196 221 8 192 216 8 196 221 6 201 227 4 201 227 6 204 230 7 202 228 9 202 227 11 203 229 18 201 229 7 207 235 10 210 237 8 208 232 14 196 218 9 193 216 4 201 225 7 200 226 5 194 219 6 195 220 5 207 234 7 212 238 15 206 233 6 206 232 9 200 226 7 202 228 9 204 230 9 197 219 10 197 220 8 200 226 7 205 232 3 208 235 8 201 228 9 194 220 9 193 219 8 197 222 7 200 225 9 201 228 9 202 230 8 204 232 7 198 225 6 191 217 8 191 217 8 199 226 10 202 230 5 207 234 5 207 234 5 200 226 5 198 224 1 199 224 11 186 208 9 173 199 4 180 211 9 192 221 7 210 237 12 209 237 12 201 229 5 202 228 7 200 227 11 202 228 5 205 233 8 200 231 3 191 220 4 193 219 6 196 222 9 201 228 9 194 224 6 191 220 6 197 224 5 194 220 11 192 221 7 196 226 4 196 225 9 195 224 8 195 225 7 196 223 4 198 224 5 196 221 6 191 215 5 193 219 10 189 217 8 188 214 5 188 213 7 187 217 5 192 221 7 196 221 5 200 224 6 204 229 6 
198 226 4 189 217 8 187 216 10 192 219 3 193 222 8 197 226 12 202 229 10 199 223 7 197 220 6 198 225 8 195 224 8 195 222 5 189 218 6 192 220 11 198 225 9 204 230 7 203 229 6 202 228 9 200 225 12 192 223 8 199 229 9 200 230 12 198 228 6 194 225 10 192 220 13 194 224 2 191 220 8 194 224 6 201 228 11 198 222 12 193 219 6 191 220 4 199 230 2 205 233 8 202 228 5 200 227 11 202 228 7 201 229 5 209 237 12 210 237 12 192 221 7 180 211 9 173 199 4 186 208 9 199 224 11 198 224 1 200 226 5 207 234 5 207 234 5 202 230 5 199 226 10 191 217 8 191 217 8 198 225 6 204 232 7 202 230 8 201 228 9 200 225 9 197 222 7 193 219 8 194 220 9 201 228 9 208 235 8 205 232 3 200 226 7 197 220 8 197 219 10 204 230 11 202 228 9 200 226 7 206 232 9 206 233 6 212 238 15 207 234 7 195 220 5 194 219 6 200 226 5 201 225 7 193 216 4 196 218 9 208 232 14 210 237 8 207 235 10 201 229 7 203 229 18 202 227 11 202 228 9 204 230 7 201 227 6 201 227 4 196 221 6 192 216 6 197 220 6 211 236 12 208 233 10 205 229 9 203 227 9 204 229 5 202 226 6 198 222 4 202 226 6 201 226 3 203 224 9 212 235 7 206 228 6 209 234 10 207 228 9 200 219 3 201 225 7 208 232 16 206 226 13 204 229 6 201 225 5 199 221 14 194 216 7 187 208 5 195 218 6 207 231 11 204 228 10 202 226 6 204 229 3 208 233 10 209 235 12 203 229 10 200 226 7 208 232 14 200 224 14 188 211 6 189 213 3 189 213 5 192 215 3 200 224 6 208 232 16 209 236 11 207 233 10 204 230 7 202 226 8 202 226 6 206 231 7 202 231 3 197 222 9 197 222 7 203 228 5 205 230 7 199 222 8 202 228 7 204 230 11 205 229 11 203 229 8 194 218 8 197 221 11 202 226 6 201 225 9 203 226 14 200 226 3 200 224 4 207 231 15 211 235 15 211 236 10 209 230 13 208 230 8 210 235 9 208 235 10 204 228 12 203 227 7 206 231 8 209 236 9 207 234 9 202 226 6 207 231 15 207 233 10 205 229 9 206 229 15 202 230 5 194 224 4 202 226 10 214 240 9 210 239 9 198 225 8 202 226 8 198 221 7 199 223 5 211 236 12 206 231 15 189 214 8 193 217 7 203 227 11 202 226 6 205 230 7 202 227 3 201 226 3 208 234 11 205 234 6 200 227 8 193 219 10 190 216 7 194 220 1 194 224 4 
195 222 3 199 223 7 207 233 12 207 232 16 203 221 11 
212 233 32 204 229 6 207 233 12 200 225 12 196 222 13 200 226 15 197 224 5 196 223 7 204 230 11 210 238 16 204 231 6 200 224 6 198 222 6 200 224 6 201 225 7 205 227 5 205 226 9 193 215 6 190 214 6 199 224 9 202 225 13 207 229 22 198 223 7 192 219 0 193 219 10 196 223 6 206 232 9 205 230 7 196 223 4 199 227 5 205 230 15 207 231 11 202 226 8 194 218 10 192 216 6 196 221 8 201 227 6 205 229 13 205 229 11 209 234 18 210 234 16 208 232 16 208 233 10 204 229 6 205 231 12 211 235 19 209 234 10 209 231 8 199 224 8 205 231 12 207 231 11 204 228 10 200 223 11 195 220 7 201 225 15 199 224 9 199 226 10 199 224 9 190 213 11 198 222 14 206 232 11 203 230 3 200 225 10 206 232 11 212 237 11 202 226 8 193 212 6 195 218 6 202 228 9 208 234 13 215 239 23 209 232 6 199 225 4 201 226 3 199 226 9 193 216 4 195 215 6 198 219 18 199 219 8 197 221 11 200 226 15 190 220 10 183 215 10 189 223 4 198 228 10 206 234 12 209 236 11 205 229 11 198 218 9 197 221 11 200 224 6 200 226 5 202 223 8 209 233 13 209 229 8 197 217 8 198 222 6 198 224 5 202 228 9 213 238 15 211 233 11 199 220 5 202 223 6 201 220 6 193 218 3 199 222 8 205 229 13 203 224 5 201 222 5 212 234 12 211 236 10 199 222 8 198 224 5 199 225 6 200 226 5 196 222 3 187 210 6 187 212 6 197 224 8 192 222 4 193 217 7 208 235 8 208 233 9 203 227 11 198 222 6 197 220 8 192 216 8 189 212 7 188 211 7 186 210 2 193 218 5 202 228 7 202 228 5 195 221 2 192 216 8 192 216 6 197 220 6 209 234 10 207 233 4 207 233 10 211 239 7 208 234 13 204 230 7 202 227 4 202 228 9 203 229 8 204 230 7 201 228 9 199 226 9 194 219 4 187 213 4 189 215 6 194 219 6 200 226 7 207 233 10 212 240 8 214 239 13 209 234 10 208 234 11 196 221 5 184 210 1 186 216 8 188 217 3 198 226 4 201 227 6 198 224 3 198 225 6 193 222 8 197 222 6 202 230 8 198 228 6 190 219 5 195 222 5 199 226 7 200 227 8 194 223 7 199 229 7 203 234 6 199 229 11 194 223 7 197 227 5 199 229 9 199 226 9 194 222 13 198 225 8 201 229 5 201 229 4 201 229 7 192 221 9 182 212 4 188 218 6 192 222 12 192 221 9 193 220 3 199 225 6 203 231 9 206 235 5 200 227 10 
186 211 8 188 216 10 193 222 8 193 223 3 202 229 12 207 235 13 205 232 13 204 232 10 200 227 8 201 229 5 204 232 10 207 234 15 198 224 5 194 218 8 197 224 5 194 226 3 202 233 8 194 219 4 186 215 13 200 230 10 203 233 11 199 229 9 197 227 9 200 230 8 205 234 6 201 231 9 195 224 8 199 226 7 199 227 5 195 222 5 192 218 5 198 228 6 203 231 7 197 222 6 193 222 8 198 225 6 198 224 3 201 227 6 198 226 4 188 217 3 186 216 8 184 210 1 196 221 5 208 234 11 209 234 10 214 239 13 212 240 8 207 233 10 200 226 7 194 219 6 189 215 6 187 213 4 194 219 4 199 226 9 201 228 9 204 230 7 203 229 8 202 228 9 202 227 4 204 230 7 208 234 13 211 239 7 207 233 10 207 233 4 209 234 10 197 220 6 192 216 6 192 216 8 195 221 2 202 228 5 202 228 7 193 218 5 186 210 2 188 211 7 189 212 7 192 216 8 197 220 8 198 222 6 203 227 11 208 233 9 208 235 8 193 217 7 192 222 4 197 224 8 187 212 6 187 210 6 196 222 3 200 226 5 199 225 6 198 224 5 198 223 8 210 235 11 209 234 11 199 223 5 201 225 5 205 229 13 199 223 7 194 218 2 200 220 7 200 224 4 197 221 5 211 233 10 214 236 14 204 229 6 199 223 5 198 222 6 196 216 5 207 231 11 210 234 14 202 223 4 201 225 7 199 223 5 197 220 8 197 218 15 207 227 8 214 236 14 209 234 11 204 230 9 197 222 7 191 215 5 194 220 9 200 226 17 197 222 9 196 220 10 198 220 13 195 215 6 195 215 2 200 224 6 201 225 7 199 225 6 210 233 7 215 238 24 207 232 16 202 228 9 194 218 8 191 213 4 203 227 9 211 239 7 206 232 11 200 225 10 203 230 3 206 232 11 198 222 14 190 213 11 199 224 9 199 226 10 199 224 9 201 225 15 195 220 7 200 223 11 204 228 10 207 231 11 205 231 12 199 224 8 209 231 8 209 234 10 211 235 19 205 231 12 204 229 6 208 233 10 208 232 16 210 234 16 209 234 18 205 229 11 205 229 13 201 227 6 196 221 8 192 216 6 194 218 10 202 226 8 207 231 11 205 230 15 199 227 5 196 223 4 205 230 7 206 232 9 196 223 6 193 219 10 192 219 0 198 223 7 207 229 22 202 225 13 199 224 9 190 214 6 193 215 6 205 226 9 205 227 5 201 225 7 200 224 6 198 222 6 200 224 6 204 231 6 210 238 16 204 230 11 197 223 4 198 224 5 198 226 17 195 221 12 
200 223 11 207 231 11 202 228 7 206 227 12 
207 230 28 205 232 7 209 236 7 209 236 9 200 225 10 199 224 9 201 226 10 194 219 4 196 221 6 207 233 14 205 232 5 202 228 7 198 222 6 201 227 6 200 224 6 198 222 6 202 222 9 196 219 7 191 215 5 204 229 16 205 230 14 197 220 6 195 220 5 195 222 6 192 216 8 191 215 5 193 219 6 197 222 6 195 219 3 195 218 13 194 221 5 194 219 6 196 216 7 188 211 6 186 211 6 196 220 12 196 221 6 187 210 5 191 216 10 196 220 10 199 222 10 193 217 7 196 220 10 207 233 14 209 235 12 204 229 5 212 236 16 212 236 16 206 233 6 206 232 11 205 229 9 203 227 7 202 226 6 196 221 6 198 222 12 199 224 8 196 220 4 202 228 5 199 225 6 190 215 12 196 221 18 199 225 12 196 222 9 204 232 10 212 237 14 213 238 15 199 223 7 198 222 4 197 222 6 202 228 9 214 238 18 216 238 15 213 233 11 209 229 10 201 223 14 200 228 6 200 225 1 200 224 4 204 229 14 211 234 22 205 225 14 196 220 4 192 214 5 197 222 9 206 232 9 198 221 7 205 231 10 206 232 9 201 225 9 205 231 10 207 231 11 205 228 14 200 225 9 197 224 8 207 233 14 204 230 7 209 234 11 205 230 7 201 225 7 203 227 9 209 234 11 205 231 12 199 225 2 197 223 4 194 216 7 189 213 5 201 226 10 201 227 8 195 218 4 196 220 4 203 228 12 200 226 5 196 221 8 191 215 7 192 216 6 189 212 7 186 209 7 187 209 10 191 216 11 188 215 12 178 210 5 186 216 6 202 230 5 205 229 11 209 232 18 202 227 4 203 229 10 199 227 3 203 228 15 203 228 12 198 223 8 198 224 3 199 225 6 198 223 8 192 216 6 191 215 5 193 218 3 201 227 6 200 226 5 200 226 7 204 231 4 211 236 21 210 234 14 206 231 5 198 222 4 196 219 5 197 223 2 202 228 7 195 220 7 188 212 4 193 217 7 197 223 4 197 225 3 193 220 1 194 220 9 197 224 7 205 233 11 210 238 14 207 235 13 201 229 5 201 229 4 202 228 9 195 219 9 197 222 7 199 227 2 193 223 5 195 225 13 196 224 2 200 228 4 198 226 2 191 220 6 188 216 9 185 213 4 203 230 11 195 225 5 190 219 7 191 222 7 194 224 4 190 218 9 183 212 10 190 219 7 193 223 5 192 221 7 194 223 11 196 220 10 195 222 6 196 223 6 192 218 5 175 198 2 176 197 6 189 214 8 187 212 6 183 208 3 194 220 7 201 228 11 207 234 15 195 221 8 177 204 5 
183 207 7 194 220 9 196 223 4 201 227 8 203 229 10 196 220 10 190 216 3 194 223 9 197 224 5 204 230 9 199 224 9 190 219 7 179 206 5 185 210 7 197 224 7 196 226 4 187 217 7 181 208 5 190 218 12 191 220 8 196 223 7 192 221 7 186 216 8 189 219 7 193 224 6 189 220 5 188 218 6 196 226 6 203 230 11 186 211 5 187 215 8 192 221 7 198 226 4 200 228 4 196 224 2 195 225 13 193 223 5 199 227 2 197 222 7 195 219 9 202 228 9 201 229 4 201 229 5 207 235 13 210 238 14 205 233 11 197 224 7 194 220 9 193 220 1 197 225 3 197 223 4 193 217 7 188 212 4 195 220 7 202 228 7 197 223 2 196 219 5 198 222 4 206 231 5 210 234 14 211 236 21 204 231 4 200 226 7 200 226 5 201 227 6 193 218 3 191 215 5 192 216 6 198 223 8 199 225 6 198 224 3 198 223 8 203 228 12 203 228 15 199 227 3 203 229 10 202 227 4 209 232 18 205 229 11 202 230 5 186 216 6 178 210 5 188 215 12 191 216 11 187 209 10 186 209 7 189 212 7 192 216 6 191 215 7 196 221 8 200 225 9 205 229 11 196 220 4 195 217 8 202 226 8 201 227 8 190 212 5 194 216 9 200 221 4 202 224 2 205 229 11 212 234 12 203 226 12 201 227 8 204 230 7 207 233 10 206 231 8 206 232 11 197 222 9 200 223 9 205 228 16 207 232 9 207 232 9 201 225 9 208 232 14 205 229 13 198 223 7 205 231 8 197 222 7 192 214 7 196 219 5 203 225 16 211 233 24 205 228 14 201 225 9 200 225 1 200 226 3 202 225 13 207 231 11 212 234 11 215 238 12 215 240 16 201 227 8 197 223 4 197 221 5 200 224 8 213 237 17 211 237 16 204 232 10 196 222 9 199 225 12 196 221 18 190 215 12 199 225 6 202 228 5 196 220 4 199 224 8 198 222 12 196 221 6 202 226 6 203 227 7 205 229 9 206 232 11 206 233 6 212 236 16 212 236 16 204 229 5 209 235 12 207 233 14 196 220 10 193 217 7 199 222 10 196 220 10 191 216 10 187 210 5 196 221 6 196 220 12 186 211 6 188 211 6 196 216 7 194 219 6 194 221 5 195 218 13 195 219 3 197 222 6 193 219 6 191 215 5 192 216 8 195 222 6 195 220 5 197 220 6 205 230 14 204 229 16 191 215 5 196 219 7 202 222 9 198 222 6 200 224 6 201 227 6 198 222 6 202 228 7 205 232 5 207 233 14 196 221 6 196 219 5 200 226 7 198 225 9 200 227 11 
209 234 8 209 236 7 205 232 7 200 223 9 
206 231 25 204 232 8 204 232 10 208 235 10 207 233 12 203 230 5 201 228 3 199 225 6 197 223 4 201 228 11 209 237 13 206 233 4 203 230 5 199 226 7 203 229 8 205 232 7 200 226 3 197 222 9 194 219 6 196 223 7 208 235 10 207 232 8 194 216 7 190 214 4 198 223 7 199 224 9 197 224 8 204 231 14 203 227 7 199 223 7 199 225 6 203 229 6 209 233 13 208 234 11 200 226 7 195 218 6 191 215 7 190 218 9 202 228 17 203 227 9 195 220 7 187 210 6 187 211 13 202 227 14 214 238 20 209 234 8 208 235 10 209 237 15 211 237 18 210 236 17 202 228 7 199 225 2 200 226 5 198 224 3 202 228 5 200 225 10 198 221 9 196 220 10 195 222 6 191 217 6 201 228 12 196 222 11 187 210 6 195 218 4 194 218 10 194 224 6 193 219 6 200 225 10 196 223 4 199 224 9 211 232 15 206 235 7 207 232 8 199 224 8 189 212 7 196 217 14 201 226 13 202 226 10 204 229 5 213 239 16 218 241 13 212 235 9 202 223 6 201 221 10 215 235 26 206 230 12 200 224 6 199 223 5 192 219 3 200 221 6 200 223 9 198 222 6 200 225 9 196 220 12 201 226 20 206 230 10 203 229 8 199 227 3 200 226 7 202 226 10 203 227 7 208 231 5 213 235 13 214 233 19 206 230 10 202 227 4 199 224 8 203 229 8 204 231 6 208 232 16 200 222 17 203 227 9 200 224 4 191 214 10 196 220 10 199 224 9 190 212 7 188 209 20 191 213 14 193 219 8 187 215 8 187 211 11 195 222 5 204 230 7 205 229 11 198 223 7 200 226 7 203 231 6 202 227 14 205 231 12 203 229 8 205 232 3 203 229 6 199 224 8 198 223 7 200 226 7 206 234 10 208 236 11 210 238 16 201 229 7 198 225 6 202 230 8 210 237 12 211 238 11 206 231 7 202 228 9 201 227 4 207 233 10 207 233 14 195 220 7 190 215 2 199 225 6 208 234 13 195 218 13 185 210 7 187 212 6 189 215 6 201 228 9 198 224 11 187 213 4 195 220 5 205 231 12 198 224 11 189 215 6 199 225 6 196 226 8 187 220 7 192 221 7 207 235 13 204 235 7 198 230 7 196 225 11 189 214 8 202 229 13 199 229 11 191 222 4 188 218 6 189 220 5 184 214 6 175 203 5 181 211 3 191 220 6 190 218 9 190 221 4 187 216 4 184 214 6 188 218 8 190 218 9 186 211 6 192 216 8 199 224 8 194 221 5 192 219 3 193 224 7 202 234 11 205 231 10 190 213 8 
186 216 6 197 229 6 198 223 7 194 221 5 190 216 5 193 219 6 191 217 6 188 216 7 198 228 10 201 229 7 200 227 11 188 216 9 184 213 11 177 206 4 185 213 7 199 226 7 197 223 10 195 221 8 191 221 1 189 220 5 191 220 4 190 219 5 178 207 3 175 203 5 185 215 5 190 221 3 184 217 6 189 223 4 201 231 11 203 230 14 189 214 8 194 225 8 199 231 6 204 235 7 207 235 11 192 221 7 187 220 7 196 226 8 199 225 6 189 215 6 198 224 11 205 231 12 195 220 5 187 213 4 198 224 11 201 228 9 189 215 6 187 212 6 185 210 7 195 218 13 208 234 13 199 225 6 190 215 2 195 220 7 207 233 14 207 233 10 201 227 4 202 228 9 206 231 7 211 238 11 210 237 12 202 230 8 198 225 6 201 229 7 210 238 16 208 236 11 206 234 10 200 226 7 198 223 7 199 224 8 203 229 6 205 232 3 203 229 8 205 231 12 202 227 14 203 231 6 200 226 7 198 223 7 205 229 11 204 230 7 195 222 5 187 211 11 187 215 8 193 219 8 191 213 14 188 209 20 190 212 7 199 224 9 196 220 10 191 214 10 200 224 4 202 227 11 201 223 14 208 232 16 204 230 7 203 229 6 199 224 8 202 228 7 206 230 10 213 233 20 213 234 15 206 232 3 202 226 6 202 227 11 198 225 9 200 228 4 203 229 8 206 232 9 200 226 17 196 219 15 203 227 11 198 223 7 199 225 6 198 221 9 195 218 4 197 223 4 201 227 4 204 230 9 213 237 27 199 221 16 201 222 7 211 234 8 218 241 13 214 239 15 204 229 5 202 226 10 201 226 11 195 218 14 189 211 12 199 223 5 210 233 7 208 233 10 208 234 13 200 226 7 198 223 7 199 224 8 195 220 7 196 221 5 195 219 11 195 218 4 187 210 6 196 222 11 201 228 12 191 217 6 195 222 6 196 220 10 198 221 9 200 225 10 202 228 5 198 224 3 200 226 5 199 225 2 202 228 7 210 236 17 211 237 18 209 237 15 208 235 10 209 234 8 214 238 20 202 227 14 187 211 13 187 210 6 195 220 7 203 227 9 202 228 17 190 218 9 191 215 7 195 218 6 200 226 7 208 234 11 209 233 13 203 229 6 199 225 6 199 223 7 203 227 7 204 231 14 197 224 8 199 224 9 198 223 7 190 214 4 194 216 7 207 232 8 208 235 10 196 223 7 194 219 6 197 222 9 200 226 3 205 232 7 203 229 8 199 226 7 203 230 5 206 233 4 209 237 13 201 228 11 197 223 4 200 224 8 201 228 1 203 230 5 
207 233 14 208 235 8 205 233 8 205 231 8 202 224 15 
205 229 29 203 229 10 204 230 11 202 228 7 205 231 10 211 236 12 209 234 8 206 231 5 199 225 4 196 222 3 198 224 3 201 227 4 196 221 5 191 217 6 193 219 6 201 226 11 194 221 5 193 216 11 198 223 10 196 223 6 197 222 6 208 233 10 209 234 11 200 226 7 201 227 4 204 230 9 201 226 11 202 230 6 200 228 4 199 223 7 193 217 9 197 222 6 205 230 6 208 235 6 209 236 11 205 230 7 198 221 9 196 221 6 200 225 12 200 226 7 203 227 17 199 223 13 190 216 7 191 215 5 193 218 5 199 224 11 194 219 6 198 223 8 205 231 12 205 231 12 202 228 9 202 228 7 201 227 8 201 226 10 199 224 9 194 219 6 199 223 13 199 225 6 198 223 7 195 219 9 200 226 5 202 226 6 196 219 5 197 217 8 195 220 5 197 225 3 199 226 9 196 220 10 199 224 8 196 220 4 201 221 10 200 226 13 205 226 11 195 221 8 191 212 9 199 219 8 201 224 10 194 218 10 192 221 7 200 228 3 209 234 11 212 234 12 202 223 4 199 221 14 203 229 16 204 232 10 206 231 8 210 230 11 203 230 11 202 226 6 195 219 9 196 221 5 204 230 9 198 222 6 190 213 9 198 223 8 198 225 8 198 225 9 203 231 7 202 227 11 203 227 7 204 228 12 202 226 10 201 220 14 195 220 7 196 224 2 194 221 5 198 225 8 205 232 7 213 238 12 206 231 8 202 225 11 198 221 9 189 213 5 194 219 4 203 229 8 208 235 10 197 220 6 194 219 4 202 229 10 200 224 6 198 221 9 195 217 8 200 226 5 205 231 12 199 222 18 194 217 12 198 223 8 199 226 7 196 221 6 191 216 3 199 224 8 206 231 16 198 223 8 186 212 3 188 214 5 198 224 15 204 232 10 206 232 13 198 225 8 194 220 7 192 221 5 195 222 6 206 232 13 207 233 14 205 231 8 205 232 3 203 230 5 205 231 8 204 229 13 196 221 6 201 229 5 214 240 11 206 229 15 190 215 0 192 217 2 193 217 7 200 228 6 201 228 9 195 222 6 196 220 10 198 225 6 201 231 9 194 223 9 195 222 3 198 228 8 190 221 6 182 211 5 187 216 2 192 221 5 193 224 7 191 220 8 186 214 8 192 220 11 198 229 11 193 225 4 192 224 3 193 223 5 195 225 3 190 219 7 184 212 6 190 216 5 191 217 8 189 217 8 185 210 4 186 211 5 192 218 5 200 227 8 206 232 13 203 229 8 202 228 7 202 228 7 195 222 6 187 217 7 180 209 5 176 204 5 180 209 5 188 222 4 
194 225 7 192 215 13 185 213 6 186 214 7 192 221 7 193 223 3 197 224 8 202 229 10 195 224 12 190 218 12 189 218 6 184 212 6 179 204 1 185 211 2 202 229 10 203 229 10 197 222 6 196 223 6 194 223 11 194 221 5 187 212 6 178 205 4 189 218 6 199 226 7 197 224 5 196 224 2 193 226 0 199 231 10 192 221 7 186 214 7 190 219 7 193 224 7 192 221 5 186 215 3 182 211 5 190 221 6 198 228 8 195 222 3 194 223 9 201 231 9 198 225 6 196 220 10 195 222 6 201 228 9 200 228 6 193 217 7 192 217 2 190 215 0 206 229 15 214 240 11 201 229 5 196 221 6 204 229 13 205 231 8 203 230 5 205 232 3 205 231 8 207 233 14 206 232 13 195 222 6 192 221 5 194 220 7 198 225 8 206 232 13 204 232 10 198 224 15 188 214 5 186 212 3 198 223 8 206 231 16 199 224 8 191 216 3 196 221 6 199 226 7 198 223 8 194 217 12 199 222 18 205 231 12 200 226 5 195 217 8 198 221 9 200 224 6 202 229 10 194 219 4 197 220 6 208 235 10 203 229 8 194 219 4 189 213 5 198 221 9 202 226 10 205 230 7 212 239 14 205 231 8 197 224 5 194 221 5 197 222 6 195 220 5 201 221 12 203 227 11 204 228 10 203 229 8 202 228 7 204 230 9 198 223 8 199 224 8 200 223 11 189 214 9 197 222 6 204 228 8 196 221 6 196 221 8 202 226 8 204 229 13 207 231 11 206 230 12 206 230 10 204 227 15 200 222 15 200 224 4 211 236 12 208 233 7 199 227 3 196 221 8 195 217 10 201 224 12 198 220 11 189 212 7 196 221 8 203 227 9 201 228 11 197 222 7 197 222 7 198 223 7 196 222 11 199 226 10 197 224 7 193 220 4 197 217 8 196 219 5 202 226 6 200 226 5 195 219 9 198 223 7 199 225 6 199 223 13 194 219 6 199 224 9 201 226 10 201 227 8 202 228 7 202 228 9 205 231 12 205 231 12 198 223 8 194 219 6 199 224 11 193 218 5 191 215 5 190 216 7 199 223 13 203 227 17 200 226 7 200 225 12 196 221 6 198 221 9 205 230 7 209 236 11 208 235 6 205 230 6 197 222 6 193 217 9 199 223 7 200 228 4 202 230 6 201 226 11 204 230 9 201 227 4 200 226 7 209 234 11 208 233 10 197 222 6 196 223 6 198 223 10 193 216 11 194 221 5 201 226 11 193 219 6 191 217 6 196 221 5 201 227 4 198 224 3 196 222 3 199 225 4 204 230 7 209 237 5 211 236 12 206 230 10 
203 229 8 203 231 9 203 229 8 203 225 18 
208 230 33 206 232 11 206 231 8 206 230 10 206 231 7 204 229 6 209 234 11 207 231 11 206 231 7 203 229 6 200 226 5 204 228 8 198 221 9 191 214 9 193 218 5 198 223 10 199 224 8 198 222 6 193 215 8 198 223 10 196 223 6 196 220 10 196 221 8 196 223 7 198 225 6 201 227 8 205 230 7 202 230 6 200 231 5 203 228 12 192 214 9 190 213 9 194 221 5 200 224 8 205 228 14 205 229 9 200 225 12 204 230 9 208 232 12 206 231 8 207 231 11 203 228 12 200 226 7 197 224 8 191 220 6 199 226 10 203 229 6 199 223 7 198 222 6 196 220 10 198 223 10 199 224 11 199 224 9 208 235 10 205 230 6 201 225 7 200 225 9 200 224 6 195 217 8 193 216 4 203 227 7 212 237 11 206 233 6 204 229 16 203 227 17 199 224 9 202 228 7 192 216 8 187 209 4 193 218 5 197 224 7 199 224 8 198 225 6 194 218 8 192 215 10 193 218 5 201 227 6 198 221 9 190 212 7 194 221 5 198 223 7 205 231 8 208 235 8 200 224 8 189 211 6 193 215 10 196 220 12 192 218 9 199 221 12 202 230 6 201 229 5 207 229 7 204 225 6 203 229 6 205 228 14 206 226 13 197 220 8 188 212 4 196 221 6 200 224 16 194 216 7 201 225 5 201 225 5 195 215 6 191 213 6 192 215 11 185 210 4 181 208 9 189 215 6 198 223 8 204 230 7 203 228 4 189 213 3 180 204 4 182 206 6 193 219 10 197 222 9 192 216 6 194 219 4 203 230 11 209 237 15 206 233 8 201 227 8 202 228 7 203 229 10 200 224 14 196 221 6 196 222 3 198 224 11 202 230 8 199 227 3 200 226 5 198 223 8 201 228 9 193 220 3 191 217 4 190 216 7 190 215 2 197 221 11 193 216 11 184 208 8 189 217 10 192 218 7 193 219 6 200 227 10 207 236 8 213 242 12 209 235 12 204 230 7 201 226 10 192 218 7 198 226 4 211 236 10 212 237 11 202 228 7 200 227 10 196 223 7 189 218 2 193 222 10 195 224 8 196 226 8 199 231 6 202 233 7 200 228 6 199 232 3 202 235 8 197 228 3 198 228 6 188 219 4 191 220 8 201 228 9 196 226 6 190 221 6 187 219 11 191 222 7 191 220 4 194 223 7 196 226 8 196 226 8 197 224 8 191 218 2 191 215 5 193 216 11 198 225 6 203 228 5 205 230 7 207 232 8 207 233 12 203 231 9 193 223 5 193 222 8 195 225 5 186 219 6 185 215 7 184 212 5 183 213 5 188 221 10 193 224 6 194 226 5 
192 226 7 186 215 3 183 210 7 196 223 6 199 225 4 196 221 6 198 223 8 194 221 4 192 218 9 190 215 9 193 217 9 192 216 6 196 222 9 201 229 4 206 232 13 201 227 8 203 232 4 203 230 14 195 221 10 189 215 2 185 213 4 193 222 8 199 230 5 198 228 6 193 224 9 192 221 9 192 223 8 188 217 11 190 220 8 198 228 8 201 228 9 191 220 8 188 219 4 198 228 6 197 228 3 202 235 8 199 232 3 200 228 6 202 233 7 199 231 6 196 226 8 195 224 8 193 222 10 189 218 2 196 223 7 200 227 10 202 228 7 212 237 11 211 236 10 198 226 4 192 218 7 201 226 10 204 230 7 209 235 12 213 242 12 207 236 8 200 227 10 193 219 6 192 218 7 189 217 10 184 208 8 193 216 11 197 221 11 190 215 2 190 216 7 191 217 4 193 220 3 201 228 9 198 223 8 200 226 5 199 227 3 202 230 8 198 224 11 196 222 3 196 221 6 200 224 14 203 229 10 202 228 7 201 227 8 206 233 8 209 237 15 203 230 11 194 219 4 192 216 6 197 222 9 193 219 10 182 206 6 180 204 4 189 213 3 203 228 5 204 228 8 199 224 11 189 215 4 182 206 6 185 210 4 190 215 10 191 215 7 195 215 4 200 224 4 200 225 9 192 216 6 200 224 14 196 221 5 189 212 7 197 220 8 206 226 15 203 228 13 204 229 3 202 226 8 205 231 8 203 229 10 204 229 5 198 223 10 194 217 5 197 218 15 192 215 10 189 211 4 200 224 8 207 234 7 204 230 9 198 223 8 194 220 7 188 213 7 197 222 7 202 226 6 193 218 3 192 215 10 195 219 11 199 225 6 199 224 9 199 222 8 193 216 2 187 209 4 191 215 5 202 228 7 200 225 9 203 228 15 204 229 16 206 233 6 212 237 11 203 227 7 193 216 4 195 217 8 200 224 6 200 225 9 201 225 7 205 230 6 208 235 10 199 224 9 199 224 11 198 223 10 196 220 10 198 222 6 199 223 7 203 229 6 199 226 10 191 220 6 197 224 8 200 226 7 203 228 12 207 231 11 206 231 8 208 232 12 204 230 9 200 225 12 205 229 9 205 228 14 200 224 8 194 221 5 190 213 9 192 214 9 203 228 12 200 231 5 202 230 6 205 230 7 201 227 8 198 225 6 196 223 7 196 221 8 196 220 10 196 223 6 198 223 10 193 215 8 198 222 6 199 224 8 198 223 10 193 218 5 191 214 9 198 221 9 204 228 8 200 226 5 203 229 6 206 231 7 207 233 10 207 234 9 207 228 9 207 230 4 205 231 10 205 231 10 
207 232 9 205 225 14 
204 229 26 206 232 11 208 235 10 205 233 9 208 234 11 200 227 2 200 226 5 206 231 8 207 231 13 206 231 7 202 228 7 200 226 7 199 225 6 200 227 2 206 232 11 209 235 14 211 237 8 211 236 10 204 227 13 195 220 4 200 225 10 207 233 12 203 229 8 199 223 3 193 217 9 196 221 8 199 226 7 203 231 6 207 233 10 209 232 18 203 229 8 202 227 11 203 231 9 203 229 8 203 228 5 202 223 6 193 215 6 196 221 6 207 233 12 207 233 12 209 235 12 204 230 7 196 221 5 195 220 7 193 217 9 195 220 7 206 233 8 211 240 10 213 239 7 213 238 14 208 232 14 193 218 2 199 226 9 205 233 11 205 231 12 199 221 12 205 233 9 207 235 10 205 231 8 204 228 12 204 228 8 214 240 9 215 241 12 206 228 6 199 223 7 198 222 6 209 236 11 202 228 9 190 216 3 195 221 8 201 229 5 204 233 5 204 227 13 201 225 15 194 217 13 189 212 7 194 219 3 198 223 7 195 222 6 200 227 8 195 221 8 184 209 3 190 214 4 196 218 9 197 216 10 191 209 9 189 211 6 198 223 10 194 218 8 194 216 11 193 215 6 208 234 15 211 235 15 202 227 4 208 233 17 213 238 12 209 235 6 211 235 19 210 234 16 213 238 15 210 235 11 208 232 14 212 235 5 204 226 4 193 212 9 188 206 6 182 203 2 179 201 4 191 217 8 195 222 6 197 222 6 208 235 10 203 227 9 189 211 4 192 214 7 195 219 9 196 221 8 189 212 7 180 205 2 186 211 6 194 220 7 200 226 13 191 219 12 192 218 9 189 214 9 196 221 8 203 229 8 203 229 6 199 224 9 197 223 10 204 231 15 206 233 16 199 224 9 193 218 3 197 223 4 205 231 10 211 240 10 206 233 8 210 232 9 214 239 13 195 222 5 185 213 6 190 219 7 193 218 5 187 212 6 188 213 8 202 230 8 204 232 8 194 221 5 192 218 7 201 226 10 199 224 11 200 224 8 200 224 8 197 222 7 198 225 9 198 228 8 185 215 3 185 214 2 200 226 7 200 225 9 198 223 8 196 222 9 196 225 9 192 219 2 202 230 8 203 232 4 201 229 5 205 233 8 197 229 8 200 231 13 199 230 5 205 231 8 197 222 7 187 216 4 183 212 6 187 216 4 192 221 7 197 229 6 195 227 6 189 218 4 192 221 7 196 225 9 201 232 6 206 233 6 205 233 11 208 235 8 205 232 7 197 227 5 193 222 6 186 214 7 180 212 4 183 218 4 194 220 7 188 217 5 186 219 8 191 221 11 186 214 7 187 218 1 
188 213 10 184 209 4 197 227 7 210 239 11 208 235 6 208 235 10 202 230 8 193 220 4 189 213 3 189 215 4 194 220 7 205 231 8 206 233 6 214 240 8 215 238 12 204 229 6 205 234 6 201 233 8 200 232 11 196 228 5 185 215 5 194 224 6 200 231 6 194 223 9 186 216 6 183 211 5 187 216 4 196 223 7 204 232 8 200 231 6 200 231 13 196 228 5 205 234 6 201 229 5 203 232 4 202 230 8 192 219 2 196 225 9 196 222 9 198 223 8 200 225 9 200 226 7 185 214 2 185 215 3 198 228 8 198 225 9 197 222 7 200 224 8 200 224 8 199 224 11 201 226 10 192 218 7 194 221 5 204 232 8 202 230 8 188 213 8 187 212 6 193 218 5 190 219 7 185 213 6 195 222 5 214 239 13 210 232 9 206 233 8 211 240 10 205 231 10 197 223 4 193 218 3 199 224 9 206 233 16 204 231 15 197 223 10 199 224 9 203 229 6 203 229 8 196 221 8 189 214 9 192 218 9 191 219 12 200 226 13 194 220 7 186 211 6 180 205 2 189 212 7 196 221 8 195 219 9 192 214 7 189 211 4 203 227 9 208 235 10 197 222 6 195 222 6 191 217 8 179 201 4 182 203 2 188 206 6 193 212 9 204 226 4 212 235 5 208 232 14 210 235 11 213 238 15 210 234 16 211 235 19 209 235 6 213 238 12 208 233 17 202 227 4 211 235 15 208 234 15 193 215 6 194 216 11 194 218 8 198 223 10 189 211 6 191 209 9 197 216 10 196 218 9 190 214 4 184 209 3 195 221 8 200 227 8 195 222 6 198 223 7 194 219 3 189 212 7 194 217 13 201 225 15 204 227 13 204 233 5 201 229 5 195 221 8 190 216 3 202 228 9 209 236 11 198 222 6 199 223 7 206 228 6 215 241 12 214 240 9 204 228 8 204 228 12 205 231 8 207 235 10 205 233 9 199 221 12 205 231 12 205 233 11 199 226 9 193 218 2 208 232 14 213 238 14 213 239 7 211 240 10 206 233 8 195 220 7 193 217 9 195 220 7 196 221 5 204 230 7 209 235 12 207 233 12 207 233 12 196 221 6 193 215 6 202 223 6 203 228 5 203 229 8 203 231 9 202 227 11 203 229 8 209 232 18 207 233 10 203 231 6 199 226 7 196 221 8 193 217 9 199 223 3 203 229 8 207 233 12 200 225 10 195 220 4 204 227 13 211 236 10 211 237 8 209 235 14 206 232 11 200 227 2 199 225 6 200 226 7 202 228 7 206 231 7 207 231 13 206 231 7 200 226 7 200 226 3 208 234 13 207 233 10 
207 234 7 206 232 11 200 224 16 
208 230 31 199 223 5 205 231 8 208 234 13 206 232 13 200 228 6 206 233 14 212 237 13 209 236 7 210 237 12 206 232 11 203 229 8 203 229 6 199 225 2 196 221 6 202 228 7 205 231 10 201 227 6 205 231 12 204 230 11 206 232 11 211 238 13 207 231 11 205 227 5 197 223 4 199 225 6 202 228 7 204 228 8 208 230 8 206 230 12 196 222 3 198 225 6 205 229 11 206 230 12 208 235 6 206 233 4 195 220 4 197 220 6 198 221 7 192 215 11 201 226 10 201 227 4 198 224 5 198 223 7 198 224 5 199 225 6 200 225 10 197 223 10 206 232 9 211 239 7 210 235 12 200 224 8 205 232 5 206 233 6 197 222 7 194 218 8 198 224 11 196 222 11 198 223 7 194 219 6 195 220 7 203 229 8 207 231 11 208 233 10 197 220 8 197 221 3 208 235 10 200 225 9 193 217 7 191 216 10 192 218 9 204 231 14 209 234 11 212 238 15 199 225 6 200 226 7 202 227 4 197 222 6 190 214 4 195 221 8 200 227 8 188 213 7 184 207 5 201 225 9 211 235 15 208 232 16 201 225 7 204 230 9 203 227 9 199 220 1 195 217 8 201 225 9 205 229 9 201 226 11 201 226 11 211 236 10 207 232 9 203 226 12 208 232 12 204 230 11 205 230 7 205 229 9 214 240 11 216 242 10 213 236 8 209 231 8 200 224 8 190 213 9 191 215 7 198 225 8 199 227 3 211 238 13 211 236 10 203 227 7 206 230 12 201 225 5 200 224 8 198 221 7 189 211 6 182 204 7 191 214 9 194 219 4 190 213 8 194 218 10 193 218 5 192 216 8 197 222 7 199 224 8 196 221 5 195 221 2 204 230 7 207 234 5 204 231 4 201 226 10 200 225 10 203 230 3 203 230 3 206 232 13 203 229 8 212 239 12 214 239 16 200 224 4 203 227 9 200 224 8 192 217 4 192 215 10 200 226 7 208 235 10 210 236 13 199 226 7 206 234 12 210 238 14 199 229 9 194 221 5 198 223 8 198 225 8 199 228 12 195 226 8 190 218 9 190 218 9 202 230 8 204 232 10 199 226 9 190 219 7 188 218 10 190 220 10 191 220 8 194 220 7 198 224 11 196 223 6 201 228 11 200 227 10 203 231 7 204 236 5 197 227 5 187 216 4 188 217 5 193 222 10 200 232 11 196 227 10 189 217 8 189 218 6 194 223 7 199 229 9 197 229 6 192 223 8 197 227 5 197 228 2 193 224 7 192 221 9 185 213 6 182 215 4 191 221 11 198 225 6 197 222 9 190 219 3 192 221 9 193 221 12 
195 221 12 192 218 5 195 222 6 206 233 8 201 227 8 195 221 10 201 228 12 199 226 9 188 216 7 185 215 7 190 219 7 196 221 6 210 236 13 212 241 13 205 234 6 198 225 6 194 220 7 192 223 5 196 226 8 201 231 11 193 223 3 189 217 8 197 226 10 203 233 11 194 223 7 187 216 2 185 215 5 198 228 8 206 238 7 204 232 7 200 227 8 200 230 10 196 223 6 198 223 10 194 220 7 191 220 8 190 220 10 188 218 10 190 219 7 199 226 9 204 232 10 202 230 8 190 218 9 190 218 9 195 226 8 199 228 12 198 225 8 198 223 8 194 221 5 199 229 9 210 238 14 206 234 12 199 226 7 210 236 13 208 235 10 200 226 7 192 215 10 192 217 4 200 224 8 203 227 9 200 224 4 214 239 16 212 239 12 203 229 8 206 232 13 203 230 3 203 230 3 200 225 10 201 226 10 204 231 4 207 234 5 204 230 7 195 221 2 196 221 5 199 224 8 197 222 7 192 216 8 193 218 5 194 218 10 190 213 8 194 219 4 191 214 9 182 204 7 189 211 6 198 221 7 200 224 8 201 225 5 206 230 12 203 227 7 211 236 10 211 238 13 199 227 3 198 225 8 191 215 7 190 213 9 200 224 8 209 231 8 213 236 8 216 242 10 214 240 11 205 229 9 205 230 7 204 230 11 208 232 12 203 226 12 207 232 9 211 236 10 201 226 11 201 226 11 205 229 9 201 225 9 195 217 8 199 220 1 203 227 9 204 230 9 201 225 7 208 232 16 211 235 15 201 225 9 184 207 5 188 213 7 200 227 8 195 221 8 190 214 4 197 222 6 202 227 4 200 226 7 199 225 6 212 238 15 209 234 11 204 231 14 192 218 9 191 216 10 193 217 7 200 225 9 208 235 10 197 221 3 197 220 8 208 233 10 207 231 11 203 229 8 195 220 7 194 219 6 198 223 7 196 222 11 198 224 11 194 218 8 197 222 7 206 233 6 205 232 5 200 224 8 210 235 12 211 239 7 206 232 9 197 223 10 200 225 10 199 225 6 198 224 5 198 223 7 198 224 5 201 227 4 201 226 10 192 215 11 198 221 7 197 220 6 195 220 4 206 233 4 208 235 6 206 230 12 205 229 11 198 225 6 196 222 3 206 230 12 208 230 8 204 228 8 202 228 7 199 225 6 197 223 4 205 227 5 207 231 11 211 238 13 206 232 11 204 230 11 205 231 12 201 227 6 205 231 10 202 228 7 196 221 6 199 225 2 203 229 6 203 229 8 206 232 11 210 237 12 209 236 7 210 236 13 206 232 13 202 228 5 205 231 12 
208 234 13 206 232 9 198 224 5 202 226 18 
208 231 39 211 235 19 210 237 12 206 234 10 202 230 6 208 236 12 213 241 19 210 237 10 202 231 1 207 235 10 209 235 14 207 233 12 208 234 11 207 233 14 198 224 11 197 224 7 195 222 5 190 216 5 193 220 4 195 222 6 197 224 7 202 230 6 210 237 10 209 236 9 206 233 8 204 230 9 207 233 10 207 232 16 210 234 14 205 229 9 205 228 14 204 229 14 199 220 3 193 215 6 195 220 7 195 222 5 199 224 8 199 225 6 202 228 7 199 225 4 206 232 9 208 234 13 200 224 4 197 223 4 202 228 7 205 230 6 207 233 10 208 234 13 206 232 13 203 229 8 206 232 9 210 237 12 212 238 7 215 241 10 204 229 6 198 223 7 198 225 6 193 217 9 191 216 3 196 222 3 198 225 8 207 233 12 204 231 4 205 230 4 200 225 9 201 227 6 205 231 8 204 230 7 202 228 7 193 218 3 194 218 8 200 227 10 203 228 4 202 228 9 202 228 7 204 230 7 204 228 10 204 228 10 197 223 4 196 221 5 195 222 3 200 225 10 199 225 4 201 226 3 197 222 9 197 223 4 196 221 6 190 214 6 195 220 7 206 233 6 199 225 4 198 222 6 206 232 11 201 225 7 194 217 3 201 225 9 207 233 12 198 224 3 198 224 1 203 229 8 201 227 4 202 228 9 203 229 10 210 236 13 212 238 9 210 234 14 210 235 12 211 236 12 206 233 8 194 220 7 189 215 6 202 229 12 212 238 17 203 229 6 205 232 7 209 234 10 207 232 9 202 227 4 199 223 5 185 206 7 191 213 6 201 227 6 198 223 7 192 215 10 194 219 6 201 225 5 202 226 6 199 224 8 197 223 0 197 223 4 207 233 12 205 232 7 197 223 2 198 223 7 200 225 9 201 228 9 204 225 6 200 225 9 198 225 8 200 225 9 212 237 14 207 232 6 203 229 6 207 233 10 204 230 9 197 222 6 205 229 9 203 226 12 201 226 11 201 227 8 200 228 6 202 233 5 210 239 9 208 234 15 200 225 9 201 232 7 200 232 9 196 228 7 186 216 6 182 211 5 186 216 4 194 223 7 205 233 11 198 225 9 190 218 9 187 216 4 193 219 6 199 223 7 190 220 8 185 215 5 196 225 9 205 232 13 199 227 5 202 233 7 203 234 9 198 226 4 190 219 3 183 211 2 191 220 6 191 222 7 185 213 7 181 209 3 192 221 9 197 227 7 191 219 10 189 219 9 188 219 4 187 217 5 192 223 8 194 223 7 184 214 2 181 214 9 192 221 9 208 236 12 202 228 9 193 220 4 197 226 10 193 222 6 189 218 2 
187 215 8 192 221 7 198 225 9 195 222 6 193 223 5 198 229 4 197 224 7 186 214 7 190 219 13 194 225 7 197 225 3 204 230 9 193 219 10 185 214 8 194 225 8 196 227 9 195 226 11 199 229 7 195 225 5 186 214 7 188 215 12 190 219 7 188 216 7 180 207 4 190 219 3 198 226 4 204 235 10 206 235 7 200 228 4 206 234 12 199 229 11 185 215 5 189 219 7 199 223 7 193 219 6 187 216 4 190 218 9 198 225 9 205 233 11 194 223 7 186 216 4 182 211 5 186 216 6 196 228 7 200 232 9 201 232 7 200 225 9 208 234 15 210 239 9 202 233 5 200 228 6 201 227 8 201 226 11 203 226 12 205 229 9 197 222 6 204 230 9 207 233 10 203 229 6 207 232 6 212 237 14 200 225 9 198 225 8 200 225 9 204 225 6 201 228 9 200 225 9 198 223 7 197 223 2 205 232 7 207 233 12 197 223 4 197 223 0 199 224 8 202 226 6 201 225 5 194 219 6 192 215 10 198 223 7 201 227 6 191 213 6 185 206 7 199 223 5 202 227 4 207 232 9 209 234 10 205 232 7 203 229 6 212 238 17 202 229 12 189 215 6 194 220 7 206 233 8 211 236 12 210 235 12 210 234 14 212 238 9 210 236 13 203 229 10 202 228 9 201 227 4 203 229 8 198 224 1 198 224 3 207 233 12 201 225 9 194 217 3 201 225 7 206 232 11 198 222 6 199 225 4 206 233 6 195 220 7 190 214 6 196 221 6 197 223 4 197 222 9 201 226 3 199 225 4 200 225 10 195 222 3 196 221 5 197 223 4 204 228 10 204 228 10 204 230 7 202 228 7 202 228 9 203 228 4 200 227 10 194 218 8 193 218 3 202 228 7 204 230 7 205 231 8 201 227 6 200 225 9 205 230 4 204 231 4 207 233 12 198 225 8 196 222 3 191 216 3 193 217 9 198 225 6 198 223 7 204 229 6 215 241 10 212 238 7 210 237 12 206 232 9 203 229 8 206 232 13 208 234 13 207 233 10 205 230 6 202 228 7 197 223 4 200 224 4 208 234 13 206 232 9 199 225 4 202 228 7 199 225 6 199 224 8 195 222 5 195 220 7 193 215 6 199 220 3 204 229 14 205 228 14 205 229 9 210 234 14 207 232 16 207 233 10 204 230 9 206 233 8 209 236 9 210 237 10 202 230 6 197 224 7 195 222 6 193 220 4 190 216 5 195 222 5 197 224 7 198 224 11 207 233 14 208 234 11 207 233 12 209 235 14 207 235 10 202 231 1 209 237 13 211 238 19 207 235 10 202 230 5 207 234 9 209 235 12 
210 235 19 203 226 22 
191 217 24 200 226 5 198 225 6 187 213 4 192 218 5 200 230 8 205 235 15 209 237 15 202 233 7 200 231 5 202 230 8 199 226 9 199 227 5 205 233 11 205 233 8 194 224 6 194 219 13 191 216 10 187 212 6 188 217 5 188 216 9 189 217 8 196 228 5 202 235 6 209 236 9 203 231 7 197 225 1 202 230 8 209 238 10 205 232 5 207 233 10 209 235 12 210 237 10 215 242 15 206 231 8 198 224 5 203 229 8 206 234 9 204 233 5 204 232 8 206 233 8 204 230 9 209 234 10 206 233 8 201 226 10 197 220 8 197 220 8 203 229 10 205 229 11 198 223 7 197 224 5 200 228 4 206 233 6 216 241 15 212 237 11 208 234 3 208 234 11 206 233 6 200 225 9 194 220 7 200 228 6 208 234 13 212 238 15 211 236 10 214 240 17 215 241 20 212 238 15 208 233 9 206 230 14 193 218 5 191 215 7 201 227 8 204 230 9 201 227 4 202 229 4 204 231 6 205 231 10 202 226 8 198 224 5 206 232 11 209 236 17 202 227 12 194 216 7 205 229 11 205 231 10 201 228 11 194 219 4 192 216 6 189 214 8 197 226 10 206 231 15 200 226 5 200 227 8 199 225 6 193 216 4 201 226 11 202 228 9 199 225 4 203 228 12 200 226 7 203 229 8 202 228 5 198 223 7 198 223 7 202 229 4 207 232 6 202 226 6 206 229 15 212 239 14 202 229 4 195 222 3 197 225 1 201 228 12 205 232 13 204 230 11 203 229 10 197 222 6 202 226 8 204 228 10 193 217 1 193 217 9 199 224 9 199 225 6 197 222 9 200 226 5 203 229 8 202 228 9 199 225 4 198 223 7 200 225 9 199 225 6 203 229 6 198 224 5 187 210 5 186 211 6 194 221 5 201 226 10 200 226 5 204 230 9 200 225 9 197 224 5 199 230 5 202 230 6 207 234 9 200 228 6 200 226 7 203 229 8 199 225 4 201 227 4 203 230 5 199 225 4 199 227 5 206 235 7 209 236 11 205 231 10 195 227 4 194 226 3 193 219 6 191 216 3 188 213 7 178 207 5 179 205 8 192 218 7 197 224 5 194 220 7 197 224 5 206 233 4 213 239 10 203 233 13 192 221 7 190 219 5 201 228 9 199 229 9 197 227 5 197 229 6 200 233 6 199 227 3 191 219 10 183 211 5 185 215 7 184 212 5 189 217 10 191 220 8 193 223 5 194 219 4 188 214 5 183 211 5 189 218 6 196 223 6 194 220 7 187 215 8 185 217 9 190 221 4 199 226 10 187 212 7 197 224 8 200 228 4 191 221 3 187 217 9 
192 221 7 196 227 2 196 226 4 200 228 6 206 234 9 199 230 5 184 213 7 174 202 4 190 216 7 195 226 8 193 222 8 197 227 9 187 216 4 187 216 0 195 225 5 193 223 3 193 222 8 192 221 7 184 214 6 188 217 11 191 222 5 189 219 11 182 210 4 192 221 7 202 233 8 203 234 6 197 229 4 195 227 2 200 230 8 203 230 11 189 218 4 190 219 5 203 235 14 213 239 10 206 233 4 197 224 5 194 220 7 197 224 5 192 218 7 179 205 8 178 207 5 188 213 7 191 216 3 193 219 6 194 226 3 195 227 4 205 231 10 209 236 11 206 235 7 199 227 5 199 225 4 203 230 5 201 227 4 199 225 4 203 229 8 200 226 7 200 228 6 207 234 9 202 230 6 199 230 5 197 224 5 200 225 9 204 230 9 200 226 5 201 226 10 194 221 5 186 211 6 187 210 5 198 224 5 203 229 6 199 225 6 200 225 9 198 223 7 199 225 4 202 228 9 203 229 8 200 226 5 197 222 9 199 225 6 199 224 9 193 217 9 193 217 1 204 228 10 202 226 8 197 222 6 203 229 10 204 230 11 205 232 13 201 228 12 197 225 1 195 222 3 202 229 4 212 239 14 206 229 15 202 226 6 207 232 6 202 229 4 198 223 7 198 223 7 202 228 5 203 229 8 200 226 7 203 228 12 199 225 4 202 228 9 201 226 11 193 216 4 199 225 6 200 227 8 200 226 5 206 231 15 197 226 10 189 214 8 192 216 6 194 219 4 201 228 11 205 231 10 205 229 11 194 216 7 202 227 12 209 236 17 206 232 11 198 224 5 202 226 8 205 231 10 204 231 6 202 229 4 201 227 4 204 230 9 201 227 8 191 215 7 193 218 5 206 230 14 208 233 9 212 238 15 215 241 20 214 240 17 211 236 10 212 238 15 208 234 13 200 228 6 194 220 7 200 225 9 206 233 6 208 234 11 208 234 3 212 237 11 216 241 15 206 233 6 200 228 4 197 224 5 198 223 7 205 229 11 203 229 10 197 220 8 197 220 8 201 226 10 206 233 8 209 234 10 204 230 9 206 233 8 204 232 8 204 233 5 206 234 9 203 229 8 198 224 5 206 231 8 215 242 15 210 237 10 209 235 12 207 233 10 205 232 5 209 238 10 202 230 8 197 225 1 203 231 7 209 236 9 202 235 6 196 228 5 189 217 8 188 216 9 188 217 5 187 212 6 191 216 10 194 219 13 194 224 6 205 233 8 205 233 11 199 227 5 199 226 9 202 230 8 200 231 5 202 233 7 208 236 14 205 235 17 200 230 8 191 218 2 187 213 4 198 225 9 
200 228 6 185 211 2 
202 228 33 204 232 8 197 224 5 188 213 8 185 209 9 200 226 13 204 234 16 201 226 10 197 228 2 202 232 10 205 233 9 200 228 4 201 227 4 197 225 3 196 224 2 196 221 15 200 223 19 198 223 7 193 219 8 193 219 6 189 218 6 187 215 6 184 214 4 198 230 9 205 235 13 206 236 18 202 229 12 200 226 7 205 231 10 201 226 10 198 226 4 195 222 3 199 225 12 210 236 17 211 238 9 205 232 5 196 223 6 199 226 9 200 231 6 200 231 6 207 235 11 205 230 14 203 228 12 203 228 12 203 229 8 198 224 5 202 224 17 198 223 10 202 223 8 196 221 6 192 218 7 191 217 6 205 231 10 214 242 10 213 241 9 207 234 7 204 231 6 207 234 5 200 227 8 191 216 10 201 227 14 205 233 8 205 231 10 197 222 7 200 225 9 204 230 9 210 237 10 210 236 7 205 230 6 205 231 8 203 228 13 196 221 6 192 216 8 191 216 3 197 224 7 207 233 12 211 238 11 213 240 15 202 228 9 201 226 10 209 237 15 212 239 10 198 222 6 190 214 4 203 229 6 202 229 10 204 230 11 201 227 4 193 216 2 188 212 4 193 217 9 201 227 8 202 229 13 195 221 12 190 216 5 197 227 7 205 231 8 201 227 6 199 225 4 199 225 4 203 229 8 204 231 6 189 213 3 191 215 5 199 226 10 209 235 12 200 224 4 196 219 7 199 225 6 199 225 6 199 224 8 198 223 7 191 217 8 195 222 6 204 231 6 199 225 6 199 225 6 206 232 13 208 234 11 204 231 6 196 221 5 198 223 7 193 217 9 194 219 6 206 234 2 211 237 14 209 234 18 203 231 9 202 228 7 201 226 10 196 221 6 200 226 7 198 224 5 191 215 7 187 210 6 194 218 8 194 224 6 192 221 5 201 229 7 208 236 11 195 224 8 190 220 8 202 229 10 212 236 18 204 230 9 201 228 3 198 225 6 196 223 7 197 224 8 199 227 5 207 235 10 198 225 6 203 227 7 211 233 10 211 236 12 205 236 10 196 228 5 195 221 8 197 225 3 195 225 7 197 227 9 198 228 6 200 231 6 205 236 11 200 230 12 188 219 4 190 221 6 191 224 11 197 227 9 194 224 4 194 223 9 204 231 12 205 234 6 195 225 3 192 223 5 197 229 4 205 233 11 196 225 9 183 211 4 188 216 9 192 221 9 188 217 5 187 216 4 192 221 5 197 223 10 190 219 7 187 217 7 191 219 12 193 217 9 195 219 3 198 223 7 189 218 6 186 216 8 191 219 10 191 220 6 195 224 8 186 212 3 182 210 4 
189 219 7 193 223 5 194 219 3 207 233 12 209 233 13 202 227 11 187 215 6 184 217 6 194 228 9 207 238 13 198 225 6 191 219 12 195 225 7 193 222 6 199 227 3 202 229 12 198 228 10 188 217 3 189 219 7 186 216 8 185 215 5 195 227 4 195 224 10 191 220 4 207 236 8 209 238 10 200 231 3 192 224 3 194 226 3 203 234 6 204 231 12 197 223 10 195 225 5 195 227 6 191 224 11 190 221 6 188 219 4 200 230 12 205 236 11 200 231 6 198 228 6 197 227 9 195 225 7 197 225 3 195 221 8 196 228 5 205 236 10 211 236 12 211 233 10 203 227 7 198 225 6 207 235 10 199 227 5 197 224 8 196 223 7 198 225 6 201 228 3 204 230 9 212 236 18 202 229 10 190 220 8 195 224 8 208 236 11 201 229 7 192 221 5 194 224 6 194 218 8 187 210 6 191 215 7 198 224 5 200 226 7 196 221 6 201 226 10 202 228 7 203 231 9 209 234 18 211 237 14 206 234 2 194 219 6 193 217 9 198 223 7 196 221 5 204 231 6 208 234 11 206 232 13 199 225 6 199 225 6 204 231 6 195 222 6 191 217 8 198 223 7 199 224 8 199 225 6 199 225 6 196 219 7 200 224 4 209 235 12 199 226 10 191 215 5 189 213 3 204 231 6 203 229 8 199 225 4 199 225 4 201 227 6 205 231 8 197 227 7 190 216 5 195 221 12 202 229 13 201 227 8 193 217 9 188 212 4 193 216 2 201 227 4 204 230 11 202 229 10 203 229 6 190 214 4 198 222 6 212 239 10 209 237 15 201 226 10 202 228 9 213 240 15 211 238 11 207 233 12 197 224 7 191 216 3 192 216 8 196 221 6 203 228 13 205 231 8 205 230 6 210 236 7 210 237 10 204 230 9 200 225 9 197 222 7 205 231 10 205 233 8 201 227 14 191 216 10 200 227 8 207 234 5 204 231 6 207 234 7 213 241 9 214 242 10 205 231 10 191 217 6 192 218 7 196 221 6 202 223 8 198 223 10 202 224 17 198 224 5 203 229 8 203 228 12 203 228 12 205 230 14 207 235 11 200 231 6 200 231 6 199 226 9 196 223 6 205 232 5 211 238 9 210 236 17 199 225 12 195 222 3 198 226 4 201 226 10 205 231 10 200 226 7 202 229 12 206 236 18 205 235 13 198 230 9 184 214 4 187 215 6 189 218 6 193 219 6 193 219 8 198 223 7 200 223 19 196 221 15 196 224 2 197 225 3 201 227 4 200 228 4 205 233 9 202 232 10 197 228 2 201 228 9 206 233 16 199 225 12 185 209 9 
189 214 11 196 223 6 203 231 6 196 221 15 
204 231 28 201 227 8 206 232 11 203 231 7 202 227 11 203 230 13 202 230 6 202 227 3 197 224 5 195 221 10 205 232 7 208 235 6 207 234 9 206 232 9 206 232 13 206 232 13 200 225 9 201 227 4 204 229 13 202 227 11 199 224 8 198 224 5 185 210 5 189 214 8 199 226 9 205 232 16 203 230 14 200 228 3 203 231 6 203 229 16 209 235 14 200 226 7 194 216 7 193 218 13 197 225 18 200 230 12 200 227 8 198 225 8 197 224 7 196 226 6 206 237 11 207 233 10 202 228 7 200 226 7 203 229 8 202 228 5 203 227 9 202 226 10 208 234 13 210 236 13 203 229 6 194 219 4 191 214 9 202 227 12 205 233 11 197 226 10 202 228 15 202 230 5 201 232 7 197 227 5 197 228 3 205 233 8 209 237 13 207 235 13 206 233 6 215 241 20 211 237 16 212 239 14 210 237 8 206 232 9 207 232 16 208 235 10 204 230 9 196 221 5 196 221 6 199 224 8 202 227 11 204 230 11 195 221 8 194 219 14 199 225 6 203 230 3 202 228 5 195 220 7 195 220 5 192 215 10 193 217 7 202 228 7 202 228 5 197 222 7 197 222 6 198 224 3 201 227 8 196 223 7 192 216 6 201 227 8 202 228 5 200 225 10 196 220 10 201 227 8 210 237 12 215 242 13 201 226 10 192 214 7 191 217 8 199 227 5 203 230 3 200 226 5 200 225 9 201 226 11 203 229 8 201 227 8 198 224 5 199 224 8 208 235 10 197 223 2 190 214 4 196 220 10 199 224 11 197 222 6 200 226 7 204 230 7 204 230 7 198 223 8 199 225 6 203 229 8 202 228 7 208 234 11 212 239 14 203 230 5 203 229 6 210 236 13 206 233 8 202 228 5 199 225 6 198 223 7 194 220 7 186 211 6 187 213 4 202 230 8 205 232 15 194 223 11 196 224 2 204 231 6 210 237 12 205 232 5 200 226 5 200 228 3 195 225 3 189 218 2 199 229 7 205 236 8 196 226 8 196 223 7 201 226 11 206 234 10 201 229 7 204 232 10 197 224 5 191 220 4 196 226 4 199 229 9 189 217 10 186 214 5 199 229 7 195 225 7 186 216 4 179 211 3 180 208 10 189 219 11 192 218 9 195 220 4 199 227 5 193 222 10 188 216 7 189 215 6 193 222 8 195 224 8 189 218 4 190 219 5 188 217 1 187 215 6 193 221 12 197 227 9 194 223 9 199 226 9 191 220 6 187 217 5 196 223 6 201 229 5 198 228 6 189 219 7 183 211 5 183 215 8 191 220 6 194 220 7 196 226 8 196 225 13 
198 225 8 192 219 3 196 225 11 213 240 11 204 229 6 186 211 6 189 219 11 194 224 14 188 216 9 186 215 3 180 202 3 185 210 7 190 219 3 189 215 4 197 224 7 198 227 11 193 223 5 186 216 4 193 223 5 192 221 7 186 214 7 191 220 6 194 221 4 197 224 7 204 232 10 201 228 9 192 218 5 191 217 6 197 223 10 200 228 6 194 221 4 190 218 9 188 218 10 180 208 10 179 211 3 186 216 4 195 225 7 199 229 7 186 214 5 189 217 10 199 229 9 196 226 4 191 220 4 197 224 5 204 232 10 201 229 7 206 234 10 201 226 11 196 223 7 196 226 8 205 236 8 199 229 7 189 218 2 195 225 3 200 228 3 200 226 5 205 232 5 210 237 12 204 231 6 196 224 2 194 223 11 205 232 15 202 230 8 187 213 4 186 211 6 194 220 7 198 223 7 199 225 6 202 228 5 206 233 8 210 236 13 203 229 6 203 230 5 212 239 14 208 234 11 202 228 7 203 229 8 199 225 6 198 223 8 204 230 7 204 230 7 200 226 7 197 222 6 199 224 11 196 220 10 190 214 4 197 223 2 208 235 10 199 224 8 198 224 5 201 227 8 203 229 8 201 226 11 200 225 9 200 226 5 203 230 3 199 227 5 191 217 8 192 214 7 201 226 10 215 242 13 210 237 12 201 227 8 196 220 10 200 225 10 202 228 5 201 227 8 192 216 6 196 223 7 201 227 8 198 224 3 197 222 6 197 222 7 202 228 5 202 228 7 193 217 7 192 215 10 195 220 5 195 220 7 202 228 5 203 230 3 199 225 6 194 219 14 195 221 8 204 230 11 202 227 11 199 224 8 196 221 6 196 221 5 204 230 9 208 235 10 207 232 16 206 232 9 210 237 8 212 239 14 211 237 16 215 241 20 206 233 6 207 235 13 209 237 13 205 233 8 197 228 3 197 227 5 201 232 7 202 230 5 202 228 15 197 226 10 205 233 11 202 227 12 191 214 9 194 219 4 203 229 6 210 236 13 208 234 13 202 226 10 203 227 9 202 228 5 203 229 8 200 226 7 202 228 7 207 233 10 206 237 11 196 226 6 197 224 7 198 225 8 200 227 8 200 230 12 197 225 18 193 218 13 194 216 7 200 226 7 209 235 14 203 229 16 203 231 6 200 228 3 203 230 14 205 232 16 199 226 9 189 214 8 185 210 5 198 224 5 199 224 8 202 227 11 204 229 13 201 227 4 200 225 9 206 232 13 206 232 13 206 232 9 207 234 9 208 235 6 205 232 7 195 221 10 197 224 5 200 227 2 202 229 4 204 231 12 200 227 11 
203 229 6 207 234 9 201 227 6 199 223 15 
203 231 25 197 221 11 197 221 11 208 234 11 204 231 6 201 228 9 206 233 14 207 233 10 202 227 12 195 219 11 197 223 4 199 225 6 195 220 5 198 224 5 202 227 12 207 233 10 203 229 10 201 227 6 200 226 7 199 224 8 204 228 10 206 231 8 194 218 8 184 207 3 187 210 5 199 225 4 197 224 5 206 233 16 205 235 15 204 232 10 208 236 4 209 233 15 205 230 7 200 226 3 200 228 6 204 232 10 201 227 6 203 228 12 196 222 11 190 219 5 198 229 4 211 239 17 215 241 20 212 238 15 209 235 12 210 237 12 212 237 13 203 227 11 196 221 6 203 229 10 205 232 5 212 237 11 205 231 12 202 227 11 195 222 6 193 219 10 194 219 13 184 212 6 191 219 12 196 226 4 200 228 6 199 226 10 203 231 9 198 225 9 198 222 12 206 231 16 199 224 8 198 223 10 208 233 17 207 233 10 200 226 3 206 232 9 213 238 12 210 237 8 208 235 10 204 230 11 199 224 9 193 218 5 191 217 6 188 214 5 203 229 10 204 230 7 199 224 8 203 229 6 205 232 7 198 223 7 205 231 8 203 231 9 202 230 6 196 223 4 200 226 7 205 231 8 202 228 5 200 224 4 202 225 13 205 229 11 201 226 10 199 224 8 192 216 6 196 221 5 202 227 11 207 232 17 212 236 16 205 230 7 195 222 5 194 219 4 201 227 8 206 232 9 207 233 12 201 226 10 203 230 3 204 231 6 198 223 7 195 219 11 197 220 15 205 232 7 198 222 12 194 218 10 192 215 11 199 224 11 199 224 8 198 223 7 206 235 7 203 229 6 196 221 6 200 226 5 199 225 6 200 225 10 208 236 12 201 229 5 194 220 7 200 224 16 203 229 8 205 232 7 208 234 13 201 227 4 196 220 4 193 217 9 185 208 4 186 210 2 189 215 4 190 215 9 188 213 7 191 217 6 200 227 10 204 230 7 198 224 5 202 228 5 200 227 8 187 216 0 188 219 4 197 229 6 197 224 5 197 225 3 196 223 7 198 225 6 201 229 7 198 229 3 199 231 8 184 217 4 186 217 2 197 229 6 205 236 11 191 220 8 187 215 8 199 229 7 208 237 7 193 220 4 177 204 5 186 214 8 197 224 8 198 226 4 195 222 5 193 222 6 190 221 6 185 214 8 192 221 7 194 223 7 193 222 10 192 221 5 195 225 7 192 218 7 193 222 8 195 225 7 196 223 7 198 224 5 189 215 6 186 216 6 199 229 9 193 223 5 184 214 4 185 214 10 177 204 3 176 207 5 191 221 9 198 225 6 190 219 3 197 227 7 
205 231 10 201 228 11 202 232 10 206 234 9 203 231 9 191 220 4 194 225 7 194 224 6 190 216 3 197 224 8 195 222 6 190 219 3 198 228 6 200 230 10 198 228 6 196 227 9 194 225 8 194 225 8 194 223 9 192 221 7 196 225 9 192 221 5 192 221 5 195 224 8 199 229 9 195 224 8 187 217 9 192 223 6 197 227 9 197 224 5 201 229 5 197 227 9 186 214 8 179 203 5 193 220 4 208 237 7 199 229 7 187 215 8 191 220 8 205 236 11 197 229 6 186 217 2 184 217 4 199 231 8 198 229 3 201 229 7 198 225 6 196 223 7 197 225 3 197 224 5 197 229 6 188 219 4 187 216 0 200 227 8 202 228 5 198 224 5 204 230 7 200 227 10 191 217 6 188 213 7 190 215 9 189 215 4 186 210 2 185 208 4 193 217 9 196 220 4 201 227 4 208 234 13 205 232 7 203 229 8 200 224 16 194 220 7 201 229 5 208 236 12 200 225 10 199 225 6 200 226 5 196 221 6 203 229 6 206 235 7 198 223 7 199 224 8 199 224 11 192 215 11 194 218 10 198 222 12 205 232 7 197 220 15 195 219 11 198 223 7 204 231 6 203 230 3 201 226 10 207 233 12 206 232 9 201 227 8 194 219 4 195 222 5 205 230 7 212 236 16 207 232 17 202 227 11 196 221 5 192 216 6 199 224 8 201 226 10 205 229 11 202 225 13 200 224 4 202 228 5 205 231 8 200 226 7 196 223 4 202 230 6 203 231 9 205 231 8 198 223 7 205 232 7 203 229 6 199 224 8 204 230 7 203 229 10 188 214 5 191 217 6 193 218 5 199 224 9 204 230 11 208 235 10 210 237 8 213 238 12 206 232 9 200 226 3 207 233 10 208 233 17 198 223 10 199 224 8 206 231 16 198 222 12 198 225 9 203 231 9 199 226 10 200 228 6 196 226 4 191 219 12 184 212 6 194 219 13 193 219 10 195 222 6 202 227 11 205 231 12 212 237 11 205 232 5 203 229 10 196 221 6 203 227 11 212 237 13 210 237 12 209 235 12 212 238 15 215 241 20 211 239 17 198 229 4 190 219 5 196 222 11 203 228 12 201 227 6 204 232 10 200 228 6 200 226 3 205 230 7 209 233 15 208 236 4 204 232 10 205 235 15 206 233 16 197 224 5 199 225 4 187 210 5 184 207 3 194 218 8 206 231 8 204 228 10 199 224 8 200 226 7 201 227 6 203 229 10 207 233 10 202 227 12 198 224 5 195 220 5 199 225 6 197 223 4 195 219 11 202 227 12 207 233 12 205 232 13 201 229 7 203 231 6 
208 234 11 197 222 9 196 221 8 200 224 14 
206 234 28 210 237 8 200 226 3 206 234 9 208 237 7 198 229 3 202 232 10 205 233 8 200 226 7 202 228 9 197 224 5 199 226 7 206 234 9 213 243 7 206 232 11 202 228 9 204 228 18 206 233 6 207 234 5 208 235 10 211 236 12 206 231 8 200 226 5 198 225 6 198 226 4 204 232 7 198 225 9 196 221 15 197 223 12 200 226 13 201 229 5 205 231 10 201 228 9 201 226 10 201 226 10 201 225 5 201 225 7 199 224 8 196 223 7 193 222 8 197 227 5 206 234 10 209 234 18 207 233 12 204 231 6 210 237 10 208 233 7 206 231 7 204 229 13 203 228 12 200 226 7 203 229 8 208 236 12 206 234 9 206 233 8 208 233 7 202 229 10 198 224 13 191 219 12 197 223 10 196 223 7 196 221 6 202 228 9 205 231 12 199 225 4 199 223 13 198 223 7 194 221 5 202 229 10 210 236 15 204 231 6 206 230 10 206 230 12 209 233 17 209 235 12 207 234 5 206 233 8 206 232 9 200 227 10 194 221 20 206 231 18 210 237 10 201 227 6 204 230 7 206 231 7 199 223 7 199 224 9 202 230 5 196 226 6 195 220 4 188 214 5 196 222 9 200 225 12 196 221 5 200 226 5 206 230 12 195 220 4 194 219 6 189 213 5 191 216 3 194 219 4 195 220 7 203 226 12 203 228 5 209 236 9 207 233 12 203 229 8 205 231 8 201 229 7 198 224 13 199 226 9 201 227 8 199 226 7 192 218 7 195 219 9 202 227 14 206 233 8 200 225 9 199 225 4 197 223 4 202 230 8 200 228 6 203 231 7 205 234 6 202 229 10 206 233 8 203 229 6 202 228 9 196 222 9 199 227 3 203 231 7 194 221 5 194 221 2 203 230 5 209 236 9 213 239 10 207 234 9 203 229 8 199 225 6 198 223 7 200 225 9 206 234 10 197 224 7 193 217 9 192 223 8 198 229 1 204 232 7 206 232 9 203 228 12 186 211 5 181 208 7 190 221 6 199 225 4 203 232 2 199 229 9 195 225 7 203 233 11 189 219 7 190 221 4 193 224 9 182 216 7 188 219 4 205 237 6 210 242 11 196 228 3 193 225 0 206 237 12 207 235 13 194 224 2 184 213 7 185 218 7 198 228 6 205 233 9 202 229 12 190 218 9 181 213 5 191 220 6 196 226 6 196 225 9 191 220 4 193 219 6 194 220 7 195 225 5 198 228 8 199 229 7 200 225 9 193 219 8 190 219 3 200 227 8 196 223 6 194 224 4 196 223 4 185 213 7 188 218 8 198 229 12 190 219 3 182 210 4 191 219 13 194 220 11 
197 224 7 197 219 10 195 225 3 199 231 10 190 219 7 192 221 5 199 230 5 198 230 7 192 223 8 183 215 7 184 217 6 189 219 9 193 222 6 191 220 4 188 222 3 189 219 9 190 219 5 193 223 5 203 234 8 204 235 9 192 221 5 190 220 2 204 236 13 200 235 8 192 227 3 183 213 5 189 219 9 205 233 11 208 237 9 200 231 5 186 216 4 184 213 7 193 223 3 207 235 13 206 237 12 193 225 0 196 228 3 210 242 11 205 237 6 188 219 4 182 216 7 193 224 9 190 221 4 189 219 7 203 233 11 195 225 7 199 229 9 203 232 2 199 225 4 190 221 6 181 208 7 186 211 5 203 228 12 206 232 9 204 232 7 198 229 1 192 223 8 193 217 9 197 224 7 206 234 10 200 225 9 198 223 7 199 225 6 203 229 8 207 234 9 213 239 10 209 236 9 203 230 5 194 221 2 194 221 5 203 231 7 199 227 3 196 222 9 202 228 9 203 229 6 206 233 8 202 229 10 205 234 6 203 231 7 200 228 6 202 230 8 197 223 4 199 225 4 200 225 9 206 233 8 202 227 14 195 219 9 192 218 7 199 226 7 201 227 8 199 226 9 198 224 13 201 229 7 205 231 8 203 229 8 207 233 12 209 236 9 203 228 5 203 226 12 195 220 7 194 219 4 191 216 3 189 213 5 194 219 6 195 220 4 206 230 12 200 226 5 196 221 5 200 225 12 196 222 9 188 214 5 195 220 4 196 226 6 202 230 5 199 224 9 199 223 7 206 231 7 204 230 7 201 227 6 210 237 10 206 231 18 194 221 20 200 227 10 206 232 9 206 233 8 207 234 5 209 235 12 209 233 17 206 230 12 206 230 10 204 231 6 210 236 15 202 229 10 194 221 5 198 223 7 199 223 13 199 225 4 205 231 12 202 228 9 196 221 6 196 223 7 197 223 10 191 219 12 198 224 13 202 229 10 208 233 7 206 233 8 206 234 9 208 236 12 203 229 8 200 226 7 203 228 12 204 229 13 206 231 7 208 233 7 210 237 10 204 231 6 207 233 12 209 234 18 206 234 10 197 227 5 193 222 8 196 223 7 199 224 8 201 225 7 201 225 5 201 226 10 201 226 10 201 228 9 205 231 10 201 229 5 200 226 13 197 223 12 196 221 15 198 225 9 204 232 7 198 226 4 198 225 6 200 226 5 206 231 8 211 236 12 208 235 10 207 234 5 206 233 6 204 228 18 202 228 9 206 232 11 213 243 7 206 234 9 199 226 7 197 224 5 202 228 9 200 226 7 203 234 6 202 232 12 198 229 4 209 238 8 206 234 9 201 227 4 
210 237 8 202 227 11 
208 234 25 216 241 17 207 234 9 199 227 3 202 230 5 202 230 5 203 231 7 204 230 7 201 229 5 207 235 10 201 226 10 197 223 4 202 228 5 205 231 12 209 234 8 205 230 6 198 223 7 199 225 6 200 229 1 202 230 8 210 237 10 212 238 17 205 230 7 201 226 3 202 233 8 208 236 14 208 234 11 200 226 5 198 223 7 201 226 10 197 224 5 202 231 3 206 232 13 199 225 6 208 234 11 211 238 13 210 237 12 205 231 8 202 228 7 196 221 6 186 211 5 191 220 8 205 236 11 203 233 15 205 233 9 208 236 11 211 237 16 203 229 8 205 231 8 201 227 4 200 225 10 204 232 7 205 234 4 202 228 9 205 230 15 209 236 9 204 231 6 204 231 4 201 229 4 204 232 7 201 227 4 197 222 7 205 231 10 210 238 13 210 235 12 199 225 2 204 231 6 200 227 8 196 223 7 204 231 12 201 225 15 197 222 9 194 219 4 195 220 4 198 226 4 206 235 7 202 230 5 204 230 9 210 237 12 205 229 9 202 228 7 206 233 6 204 230 7 207 234 9 206 232 9 203 229 6 202 228 7 199 225 6 204 229 5 202 227 11 192 218 5 196 221 5 203 229 8 206 230 12 205 229 11 204 230 7 196 220 2 193 217 9 191 214 9 194 218 8 190 214 4 194 218 10 198 224 5 193 218 5 191 215 7 196 220 12 201 226 11 204 230 11 201 227 4 196 222 1 189 213 3 188 211 7 198 222 12 192 218 7 188 214 5 204 230 11 203 229 8 199 223 5 198 224 3 198 223 10 201 226 10 204 230 7 204 230 11 200 227 10 200 227 10 203 230 11 206 233 8 203 228 5 197 222 7 197 223 4 205 233 8 204 232 10 197 222 6 203 229 6 203 229 6 203 229 10 211 237 16 209 235 12 205 234 4 206 232 11 211 237 14 210 238 5 210 237 10 205 232 5 201 229 7 198 220 11 199 223 5 205 233 8 207 235 10 206 233 8 195 221 2 192 221 7 200 230 10 202 231 3 199 225 6 201 228 11 206 235 7 200 227 10 198 223 8 201 229 7 182 215 4 182 211 5 195 225 7 205 236 10 203 235 12 193 227 6 196 231 7 202 237 10 199 231 6 194 225 7 183 213 3 187 215 8 198 228 6 200 231 5 192 223 5 181 213 6 185 215 5 191 222 7 197 228 3 196 226 8 192 220 11 193 223 5 201 232 7 201 232 7 196 220 12 191 217 8 191 217 6 196 226 4 198 228 6 195 222 5 200 226 7 198 221 7 191 220 4 197 224 7 197 224 7 189 218 6 188 218 6 190 221 4 
192 221 7 199 226 7 193 220 3 200 226 7 199 227 5 191 220 6 188 218 6 192 223 5 189 219 9 180 212 5 173 206 5 176 204 5 179 208 6 184 212 6 185 213 6 182 212 4 193 222 8 198 228 6 207 238 12 200 230 10 188 218 6 184 217 6 190 224 5 198 233 6 196 228 5 186 216 6 184 213 7 195 227 6 201 232 6 202 230 6 185 214 8 182 212 0 194 225 8 197 232 6 202 237 10 196 231 7 193 227 6 203 235 12 205 236 10 195 225 7 182 211 5 182 215 4 201 229 7 198 223 8 200 227 10 206 235 7 201 228 11 199 225 6 202 231 3 200 230 10 192 221 7 195 221 2 206 233 8 207 235 10 205 233 8 199 223 5 198 220 11 201 229 7 205 232 5 210 237 10 210 238 5 211 237 14 206 232 11 205 234 4 209 235 12 211 237 16 203 229 10 203 229 6 203 229 6 197 222 6 204 232 10 205 233 8 197 223 4 197 222 7 203 228 5 206 233 8 203 230 11 200 227 10 200 227 10 204 230 11 204 230 7 201 226 10 198 223 10 198 224 3 199 223 5 203 229 8 204 230 11 188 214 5 192 218 7 198 222 12 188 211 7 189 213 3 196 222 1 201 227 4 204 230 11 201 226 11 196 220 12 191 215 7 193 218 5 198 224 5 194 218 10 190 214 4 194 218 8 191 214 9 193 217 9 196 220 2 204 230 7 205 229 11 206 230 12 203 229 8 196 221 5 192 218 5 202 227 11 204 229 5 199 225 6 202 228 7 203 229 6 206 232 9 207 234 9 204 230 7 206 233 6 202 228 7 205 229 9 210 237 12 204 230 9 202 230 5 206 235 7 198 226 4 195 220 4 194 219 4 197 222 9 201 225 15 204 231 12 196 223 7 200 227 8 204 231 6 199 225 2 210 235 12 210 238 13 205 231 10 197 222 7 201 227 4 204 232 7 201 229 4 204 231 4 204 231 6 209 236 9 205 230 15 202 228 9 205 234 4 204 232 7 200 225 10 201 227 4 205 231 8 203 229 8 211 237 16 208 236 11 205 233 9 203 233 15 205 236 11 191 220 8 186 211 5 196 221 6 202 228 7 205 231 8 210 237 12 211 238 13 208 234 11 199 225 6 206 232 13 202 231 3 197 224 5 201 226 10 198 223 7 200 226 5 208 234 11 208 236 14 202 233 8 201 226 3 205 230 7 212 238 17 210 237 10 202 230 8 200 229 1 199 225 6 198 223 7 205 230 6 209 234 8 205 231 12 202 228 5 197 223 4 201 226 10 207 235 10 201 229 5 205 230 7 203 231 6 202 230 5 203 231 6 198 229 4 
207 234 7 216 241 17 202 228 9 
209 234 29 209 235 16 204 228 8 198 224 5 202 228 7 208 234 15 208 235 10 206 234 2 211 236 13 213 239 10 211 237 6 208 232 14 203 228 13 198 226 4 197 225 1 203 231 9 199 225 6 206 232 9 206 232 9 202 230 5 203 231 7 207 238 10 205 234 6 199 226 10 207 232 8 207 233 10 210 238 14 210 237 12 207 233 4 203 228 4 197 222 6 200 227 10 199 224 8 189 213 3 190 214 6 204 229 14 209 235 12 208 235 6 209 236 7 209 235 12 194 217 5 188 214 5 189 219 7 194 225 8 196 223 6 200 226 7 199 226 7 197 227 5 208 235 16 217 244 19 205 232 7 205 231 12 212 239 10 205 230 6 198 223 8 202 229 13 204 231 6 200 225 9 204 231 14 204 232 7 201 229 5 198 223 7 198 224 5 207 234 9 208 235 10 200 225 9 200 227 8 204 232 10 197 224 7 198 226 4 200 228 6 202 228 9 204 229 13 206 231 18 201 226 10 200 228 6 203 231 9 204 232 10 207 233 10 210 237 10 205 231 10 200 226 7 207 233 12 205 232 7 206 233 8 206 232 9 206 232 13 207 234 7 210 237 8 205 232 7 200 226 5 194 219 6 197 221 13 205 230 15 212 237 14 208 233 10 202 225 11 200 223 9 203 230 5 201 228 3 199 225 6 199 224 8 200 225 9 201 227 8 195 220 5 190 215 2 196 221 6 204 230 9 204 229 5 200 224 6 193 216 4 185 207 0 194 218 10 205 230 15 195 219 11 195 219 9 206 230 12 207 231 13 196 222 3 195 222 6 201 227 8 201 227 8 202 230 8 202 230 6 196 226 6 203 231 9 211 240 12 210 238 6 205 232 7 203 229 10 201 227 6 197 222 6 202 227 11 206 231 8 203 228 5 200 226 7 204 230 9 203 230 3 200 226 5 194 218 8 196 221 6 196 221 6 194 219 6 201 228 3 207 238 12 205 231 12 197 223 2 201 229 5 203 231 6 206 233 6 206 234 9 199 229 9 200 227 8 198 228 6 202 233 8 205 233 9 206 234 10 206 236 14 206 237 11 202 229 12 191 221 13 185 213 4 191 220 6 194 223 7 191 220 4 191 222 4 193 224 7 191 223 2 194 223 11 196 227 9 193 224 6 189 218 4 198 228 6 204 232 10 196 225 9 185 215 7 179 208 4 182 211 5 196 225 11 195 227 6 192 223 6 193 224 6 196 228 7 196 227 9 194 221 5 192 217 4 198 225 8 202 233 5 202 230 8 193 221 12 189 219 7 192 222 4 196 223 6 194 220 7 187 216 4 186 216 4 190 221 6 194 223 7 
195 225 5 196 223 6 197 227 9 201 230 14 192 222 4 190 221 4 185 215 7 182 211 5 187 217 7 185 215 7 181 214 9 184 213 9 183 215 8 191 220 8 195 224 10 189 217 8 191 217 4 200 227 8 204 234 12 195 226 9 190 221 6 193 224 6 192 224 3 194 225 10 186 214 8 182 209 6 190 219 3 201 231 9 206 234 10 201 228 9 184 217 6 190 224 6 197 226 10 193 222 10 191 223 2 193 224 7 191 222 4 191 220 4 194 223 7 191 220 6 185 213 4 191 221 13 202 229 12 206 237 11 206 236 14 206 234 10 205 233 9 202 233 8 198 228 6 200 227 8 199 229 9 206 234 9 206 233 6 203 231 6 201 229 5 197 223 2 205 231 12 207 238 12 201 228 3 194 219 6 196 221 6 196 221 6 194 218 8 200 226 5 203 230 3 204 230 9 200 226 7 203 228 5 206 231 8 202 227 11 197 222 6 201 227 6 203 229 10 205 232 7 210 238 6 211 240 12 203 231 9 196 226 6 202 230 6 202 230 8 201 227 8 201 227 8 195 222 6 196 222 3 207 231 13 206 230 12 195 219 9 195 219 11 205 230 15 194 218 10 185 207 0 193 216 4 200 224 6 204 229 5 204 230 9 196 221 6 190 215 2 195 220 5 201 227 8 200 225 9 199 224 8 199 225 6 201 228 3 203 230 5 200 223 9 202 225 11 208 233 10 212 237 14 205 230 15 197 221 13 194 219 6 200 226 5 205 232 7 210 237 8 207 234 7 206 232 13 206 232 9 206 233 8 205 232 7 207 233 12 200 226 7 205 231 10 210 237 10 207 233 10 204 232 10 203 231 9 200 228 6 201 226 10 206 231 18 204 229 13 202 228 9 200 228 6 198 226 4 197 224 7 204 232 10 200 227 8 200 225 9 208 235 10 207 234 9 198 224 5 198 223 7 201 229 5 204 232 7 204 231 14 200 225 9 204 231 6 202 229 13 198 223 8 205 230 6 212 239 10 205 231 12 205 232 7 217 244 19 208 235 16 197 227 5 199 226 7 200 226 7 196 223 6 194 225 8 189 219 7 188 214 5 194 217 5 209 235 12 209 236 7 208 235 6 209 235 12 204 229 14 190 214 6 189 213 3 199 224 8 200 227 10 197 222 6 203 228 4 207 233 4 210 237 12 210 238 14 207 233 10 207 232 8 199 226 10 205 234 6 207 238 10 203 231 7 202 230 5 206 232 9 206 232 9 199 225 6 203 231 9 197 225 1 198 226 4 203 228 13 208 232 14 211 237 6 213 239 10 211 236 13 206 233 6 208 235 10 208 234 15 203 229 8 
198 224 5 204 230 9 210 234 16 203 229 10 
205 230 27 206 232 11 207 232 8 205 229 9 208 234 15 211 237 16 205 232 7 204 232 7 212 239 10 211 238 9 213 238 12 216 241 15 212 239 14 208 234 13 200 226 7 195 220 5 192 217 11 190 218 9 194 223 7 198 229 4 201 229 7 205 231 8 202 230 8 204 232 10 215 243 8 211 239 7 209 236 7 206 233 8 204 230 9 206 232 9 208 233 9 206 230 14 205 231 8 203 229 8 200 226 7 201 226 10 199 223 13 199 224 11 204 230 7 206 234 2 207 232 8 205 231 8 201 226 11 206 231 8 201 226 3 199 225 6 199 226 9 198 225 8 197 224 8 207 235 13 212 239 14 211 238 13 212 239 10 215 241 9 202 228 7 196 223 7 198 223 7 189 213 3 191 215 7 201 228 11 203 231 9 204 231 12 211 237 18 210 237 8 203 232 0 203 232 2 212 238 15 209 236 11 210 237 10 209 236 11 206 234 10 205 233 9 208 234 15 209 235 16 207 234 7 199 227 5 193 219 6 198 225 9 209 237 15 209 238 10 205 232 7 202 228 5 206 233 6 203 229 8 197 222 6 204 230 7 205 232 5 211 238 13 213 241 16 210 237 8 206 233 6 200 226 7 200 225 10 200 225 9 208 234 11 215 241 12 207 231 11 195 219 3 197 222 7 195 220 4 202 228 9 203 229 10 199 224 8 197 223 2 198 224 5 202 228 9 193 218 3 198 224 5 207 233 10 207 232 8 207 232 8 200 224 6 194 217 5 201 224 10 200 226 7 204 230 7 203 229 6 203 229 8 201 228 11 191 217 6 186 210 10 187 212 7 192 219 3 188 217 3 186 214 7 195 224 10 201 229 7 203 231 7 206 232 9 199 225 6 199 226 7 200 226 7 199 225 4 203 227 7 197 223 4 197 223 4 202 229 4 208 235 8 208 234 11 205 231 12 197 222 9 185 208 4 188 211 6 196 221 5 201 229 7 206 232 9 205 232 7 204 231 6 200 226 3 201 226 3 202 228 5 196 223 6 197 224 7 197 223 10 207 237 15 205 233 8 200 227 8 198 228 6 206 238 4 211 239 17 203 233 11 198 228 6 198 225 6 201 229 7 199 230 5 201 231 11 193 224 7 189 219 9 187 217 9 194 225 7 193 225 4 186 216 6 189 218 6 197 227 9 195 225 3 196 225 9 189 217 8 186 214 5 196 225 9 195 226 9 188 218 6 188 218 6 189 220 5 186 216 4 189 217 8 195 219 9 197 227 7 195 227 6 193 219 6 187 217 7 182 216 5 183 216 3 192 218 7 187 215 6 186 216 6 189 220 5 191 219 12 190 218 9 192 222 4 
193 224 7 200 232 11 190 221 6 188 219 4 186 216 4 176 205 3 184 213 7 194 225 7 194 224 6 186 215 3 183 210 7 196 227 10 195 225 7 194 219 13 193 222 10 194 221 4 191 220 4 197 227 5 194 224 4 193 224 9 193 223 11 192 223 8 200 231 13 197 229 6 195 227 6 204 232 10 200 231 6 199 229 11 184 214 4 180 212 4 192 226 7 195 225 7 188 216 7 189 219 9 193 224 7 201 231 11 199 230 5 201 229 7 198 225 6 198 228 6 203 233 11 211 239 17 206 238 4 198 228 6 200 227 8 205 233 8 207 237 15 197 223 10 197 224 7 196 223 6 202 228 5 201 226 3 200 226 3 204 231 6 205 232 7 206 232 9 201 229 7 196 221 5 188 211 6 185 208 4 197 222 9 205 231 12 208 234 11 208 235 8 202 229 4 197 223 4 197 223 4 203 227 7 199 225 4 200 226 7 199 226 7 199 225 6 206 232 9 203 231 7 201 229 7 195 224 10 186 214 7 188 217 3 192 219 3 187 212 7 186 210 10 191 217 6 201 228 11 203 229 8 203 229 6 204 230 7 200 226 7 201 224 10 194 217 5 200 224 6 207 232 8 207 232 8 207 233 10 198 224 5 193 218 3 202 228 9 198 224 5 197 223 2 199 224 8 203 229 10 202 228 9 195 220 4 197 222 7 195 219 3 207 231 11 215 241 12 208 234 11 200 225 9 200 225 10 200 226 7 206 233 6 210 237 8 213 241 16 211 238 13 205 232 5 204 230 7 197 222 6 203 229 8 206 233 6 202 228 5 205 232 7 209 238 10 209 237 15 198 225 9 193 219 6 199 227 5 207 234 7 209 235 16 208 234 15 205 233 9 206 234 10 209 236 11 210 237 10 209 236 11 212 238 15 203 232 2 203 232 0 210 237 8 211 237 18 204 231 12 203 231 9 201 228 11 191 215 7 189 213 3 198 223 7 196 223 7 202 228 7 215 241 9 212 239 10 211 238 13 212 239 14 207 235 13 197 224 8 198 225 8 199 226 9 199 225 6 201 226 3 206 231 8 201 226 11 205 231 8 207 232 8 206 234 2 204 230 7 199 224 11 199 223 13 201 226 10 200 226 7 203 229 8 205 231 8 206 230 14 208 233 9 206 232 9 204 230 9 206 233 8 209 236 7 211 239 7 215 243 8 204 232 10 202 230 8 205 231 8 201 229 7 198 229 4 194 223 7 190 218 9 192 217 11 195 220 5 200 226 7 208 234 13 212 239 14 216 241 15 213 238 12 211 238 9 212 239 10 204 232 8 205 231 8 211 237 16 208 233 17 204 228 8 
206 232 9 206 232 11 198 223 8 
205 228 23 206 234 12 205 231 10 201 229 7 202 233 7 205 234 4 199 223 3 193 219 8 203 235 10 203 234 9 204 232 10 208 234 11 206 233 8 205 231 10 212 236 18 211 235 15 207 232 9 199 225 6 198 226 2 203 231 9 202 229 12 191 217 8 190 219 5 195 227 2 199 227 5 210 238 16 218 244 21 210 237 10 198 226 4 196 222 9 202 228 7 203 229 8 201 227 6 207 234 9 210 237 8 203 230 5 206 232 13 210 236 15 210 237 12 205 232 7 204 234 12 207 236 8 200 225 10 207 233 14 212 239 12 203 231 6 197 224 5 196 223 6 202 228 7 201 227 8 201 226 11 206 233 14 206 231 15 213 238 15 218 243 17 211 236 12 208 235 8 206 233 8 203 230 3 201 229 5 196 225 9 197 227 7 205 233 11 215 242 17 217 244 19 208 235 10 205 232 7 205 231 10 208 235 8 211 238 11 209 236 9 205 232 7 198 224 3 205 232 5 207 234 7 201 228 3 197 225 1 196 223 4 205 232 13 208 237 7 211 239 14 210 237 12 208 235 8 212 239 14 207 233 14 199 224 9 204 230 7 200 227 10 202 230 6 206 232 11 217 243 24 213 239 18 206 234 9 207 235 11 208 235 10 217 243 11 223 249 18 209 235 6 203 229 10 204 230 9 210 236 15 206 233 8 205 231 10 202 228 7 199 226 7 195 220 5 195 220 5 201 227 4 203 230 5 200 226 3 210 237 12 214 241 14 207 234 7 202 228 9 200 226 3 208 235 8 210 236 13 204 232 8 205 233 11 201 228 9 193 218 3 196 221 15 190 216 7 180 208 1 186 214 7 197 226 10 200 227 10 196 222 9 202 230 5 197 225 1 204 231 14 210 238 14 202 229 2 204 230 9 205 230 15 196 223 6 194 221 5 199 225 4 202 228 5 206 233 8 207 234 9 199 225 6 195 220 4 202 228 7 207 234 15 204 230 7 204 230 7 206 232 9 206 232 9 206 232 11 204 230 7 198 228 6 194 224 4 199 226 9 205 232 13 196 227 10 195 227 6 196 226 6 199 230 5 201 233 10 203 234 8 199 230 5 195 221 10 193 219 8 194 224 6 199 229 11 193 224 6 185 215 7 187 217 7 191 221 9 194 228 9 190 224 5 195 227 6 199 231 10 197 229 8 192 223 6 194 225 8 196 225 9 197 228 2 192 223 5 187 217 9 185 214 8 180 209 5 183 212 6 188 218 8 191 219 12 193 224 9 185 215 7 182 209 6 184 213 7 180 212 4 186 216 6 195 224 8 187 215 8 188 217 5 192 221 5 188 216 7 
183 213 1 194 225 7 196 230 9 195 227 6 181 213 6 180 212 4 187 215 9 187 216 10 197 231 12 204 236 13 199 229 9 197 225 3 198 225 8 197 227 5 198 226 4 196 223 4 203 231 7 202 230 6 195 227 4 195 230 6 190 224 5 187 220 5 190 223 10 192 225 10 196 228 7 198 230 9 195 226 8 193 224 6 198 233 9 199 234 10 192 226 7 189 225 5 193 227 9 192 222 10 185 218 7 185 215 7 193 224 6 199 229 11 194 224 6 193 219 8 195 221 10 199 230 5 203 234 8 201 233 10 199 230 5 196 226 6 195 227 6 196 227 10 205 232 13 199 226 9 194 224 4 198 228 6 204 230 7 206 232 11 206 232 9 206 232 9 204 230 7 204 230 7 207 234 15 202 228 7 195 220 4 199 225 6 207 234 9 206 233 8 202 228 5 199 225 4 194 221 5 196 223 6 205 230 15 204 230 9 202 229 2 210 238 14 204 231 14 197 225 1 202 230 5 196 222 9 200 227 10 197 226 10 186 214 7 180 208 1 190 216 7 196 221 15 193 218 3 201 228 9 205 233 11 204 232 8 210 236 13 208 235 8 200 226 3 202 228 9 207 234 7 214 241 14 210 237 12 200 226 3 203 230 5 201 227 4 195 220 5 195 220 5 199 226 7 202 228 7 205 231 10 206 233 8 210 236 15 204 230 9 203 229 10 209 235 6 223 249 18 217 243 11 208 235 10 207 235 11 206 234 9 213 239 18 217 243 24 206 232 11 202 230 6 200 227 10 204 230 7 199 224 9 207 233 14 212 239 14 208 235 8 210 237 12 211 239 14 208 237 7 205 232 13 196 223 4 197 225 1 201 228 3 207 234 7 205 232 5 198 224 3 205 232 7 209 236 9 211 238 11 208 235 8 205 231 10 205 232 7 208 235 10 217 244 19 215 242 17 205 233 11 197 227 7 196 225 9 201 229 5 203 230 3 206 233 8 208 235 8 211 236 12 218 243 17 213 238 15 206 231 15 206 233 14 201 226 11 201 227 8 202 228 7 196 223 6 197 224 5 203 231 6 212 239 12 207 233 14 200 225 10 207 236 8 204 234 12 205 232 7 210 237 12 210 236 15 206 232 13 203 230 5 210 237 8 207 234 9 201 227 6 203 229 8 202 228 7 196 222 9 198 226 4 210 237 10 218 244 21 210 238 16 199 227 5 195 227 2 190 219 5 191 217 8 202 229 12 203 231 9 198 226 2 199 225 6 207 232 9 211 235 15 212 236 18 205 231 10 206 233 8 208 234 11 204 232 10 203 234 9 203 235 10 193 219 8 198 224 3 
205 234 4 202 232 10 201 229 5 204 231 12 206 234 12 199 222 8 
214 237 32 207 235 11 198 226 2 194 220 9 196 226 6 207 235 11 208 235 8 203 230 11 202 232 10 210 241 13 212 240 15 208 237 9 210 239 7 207 235 11 208 235 19 207 234 15 210 239 11 210 238 5 213 238 12 209 234 19 201 231 11 191 221 13 193 222 8 204 231 12 197 226 12 199 229 7 208 239 14 213 242 12 210 238 6 200 225 9 189 215 4 190 219 5 191 215 7 192 219 3 204 232 8 205 234 6 200 226 5 204 230 11 214 240 17 212 239 12 211 233 11 204 231 6 197 224 8 199 225 14 206 234 12 203 229 6 200 226 7 206 231 15 206 231 15 206 232 9 203 230 5 201 229 5 202 230 5 205 231 8 209 234 8 211 237 14 207 234 9 203 229 6 204 231 6 201 229 7 192 221 5 197 229 4 199 229 11 201 227 14 205 230 15 207 233 12 203 230 11 198 224 11 200 228 3 205 233 8 211 238 13 213 241 9 210 236 13 206 233 8 200 226 5 198 224 5 204 230 9 202 227 11 202 227 12 196 221 6 199 226 7 208 236 12 206 232 9 201 227 4 204 231 4 200 225 10 197 224 8 195 222 5 191 217 4 198 225 9 205 231 10 203 230 5 197 225 3 200 227 8 205 233 8 213 240 13 216 243 16 211 238 11 205 232 7 207 233 12 210 235 19 207 234 9 204 230 7 203 229 6 207 233 10 201 227 8 199 225 4 199 225 6 203 230 14 195 222 6 197 224 7 205 232 7 204 231 6 200 226 3 196 221 6 191 214 9 200 225 9 202 228 7 194 221 5 199 226 7 201 227 4 207 233 12 202 227 11 184 209 3 187 213 4 198 225 6 201 229 7 199 225 4 193 220 4 193 220 4 200 228 6 205 231 8 204 230 9 198 223 7 199 224 8 206 235 7 201 228 9 195 222 5 199 225 4 203 230 5 206 234 9 205 234 6 201 229 4 209 235 16 202 230 8 205 233 9 206 234 12 208 236 11 207 236 6 206 235 7 206 237 9 195 227 4 189 220 5 197 226 10 199 228 12 189 222 9 187 221 2 195 227 4 193 225 2 188 222 4 196 226 6 198 228 8 192 221 7 191 216 10 195 225 7 195 225 3 194 225 8 193 224 7 194 225 7 191 222 4 191 222 5 189 222 11 193 227 9 193 227 9 191 222 7 186 216 6 189 219 7 194 224 14 199 229 11 190 219 5 182 211 7 180 208 9 179 208 6 188 217 5 192 222 4 191 222 5 190 221 4 182 212 4 178 207 5 185 215 7 191 220 4 197 227 7 196 228 7 197 229 8 200 230 12 189 219 7 182 214 7 184 217 6 
195 226 8 197 228 10 182 212 4 178 207 3 191 222 5 198 228 8 198 229 11 191 224 9 181 213 5 191 220 8 202 233 8 194 226 3 180 213 10 183 215 10 195 224 8 198 227 13 196 220 10 190 215 10 176 209 8 179 212 7 184 216 8 181 213 5 184 217 4 196 227 10 196 227 12 191 221 9 182 216 5 187 222 6 194 225 8 189 220 5 185 218 5 188 221 6 191 222 4 194 225 8 193 224 7 194 225 8 195 225 3 195 225 7 191 216 10 192 221 7 198 228 8 196 226 6 188 222 4 193 225 2 195 227 4 187 221 2 189 222 9 199 228 12 197 226 10 189 220 5 195 227 4 206 237 9 206 235 7 207 236 6 208 236 11 206 234 12 205 233 9 202 230 8 209 235 16 201 229 4 205 234 6 206 234 9 203 230 5 199 225 4 195 222 5 201 228 9 206 235 7 199 224 8 198 223 7 204 230 9 205 231 8 200 228 6 193 220 4 193 220 4 199 225 4 201 229 7 198 225 6 187 213 4 184 209 3 202 227 11 207 233 12 201 227 4 199 226 7 194 221 5 202 228 7 200 225 9 191 214 9 196 221 6 200 226 3 204 231 6 205 232 7 197 224 7 195 222 6 203 230 14 199 225 6 199 225 4 201 227 8 207 233 10 203 229 6 204 230 7 207 234 9 210 235 19 207 233 12 205 232 7 211 238 11 216 243 16 213 240 13 205 233 8 200 227 8 197 225 3 203 230 5 205 231 10 198 225 9 191 217 4 195 222 5 197 224 8 200 225 10 204 231 4 201 227 4 206 232 9 208 236 12 199 226 7 196 221 6 202 227 12 202 227 11 204 230 9 198 224 5 200 226 5 206 233 8 210 236 13 213 241 9 211 238 13 205 233 8 200 228 3 198 224 11 203 230 11 207 233 12 205 230 15 201 227 14 199 229 11 197 229 4 192 221 5 201 229 7 204 231 6 203 229 6 207 234 9 211 237 14 209 234 8 205 231 8 202 230 5 201 229 5 203 230 5 206 232 9 206 231 15 206 231 15 200 226 7 203 229 6 206 234 12 199 225 14 197 224 8 204 231 6 211 233 11 212 239 12 214 240 17 204 230 11 200 226 5 205 234 6 204 232 8 192 219 3 191 215 7 190 219 5 189 215 4 200 225 9 210 238 6 213 242 12 208 239 14 199 229 7 197 226 12 204 231 12 193 222 8 191 221 13 201 231 11 209 234 19 213 238 12 210 238 5 210 239 11 207 234 15 208 235 19 207 235 11 210 239 7 208 237 9 212 240 15 210 241 13 202 232 10 203 231 9 208 235 6 206 234 9 195 224 8 
193 219 6 198 226 2 207 235 11 208 231 17 
215 241 32 211 238 13 207 233 12 202 227 4 198 224 5 199 223 7 197 221 13 194 220 7 190 216 5 205 233 9 210 238 14 199 226 9 199 227 5 197 228 3 199 229 9 202 233 8 204 237 10 211 240 12 210 236 15 210 235 19 205 237 6 205 236 8 207 235 11 202 228 9 199 229 11 211 242 16 213 242 14 214 241 14 215 241 12 209 236 9 205 233 9 196 226 6 202 229 4 198 223 7 196 223 6 208 236 14 209 237 13 202 230 5 207 234 7 213 240 13 217 245 13 211 238 9 206 235 7 206 233 16 199 229 11 193 222 6 191 220 4 199 228 12 206 233 14 211 238 13 209 237 5 207 234 7 209 236 11 210 237 10 210 237 10 208 237 9 209 236 9 213 240 13 211 238 13 205 231 8 192 218 7 192 222 4 198 228 8 203 234 8 205 231 8 198 225 8 202 232 14 195 225 7 195 224 8 200 230 12 204 232 8 209 236 9 209 236 11 207 233 12 204 229 13 195 221 2 199 225 6 206 233 8 208 234 5 197 220 6 186 209 5 193 218 5 208 234 13 204 230 7 205 232 5 205 231 8 197 222 9 192 216 6 193 219 10 198 223 8 204 230 7 201 227 6 194 220 7 189 215 6 189 215 4 204 229 13 210 237 8 204 231 4 199 225 6 197 223 4 194 219 3 202 228 9 209 238 10 211 240 12 208 234 13 206 232 9 214 239 13 205 231 12 202 227 11 200 228 4 199 226 7 197 222 6 195 220 5 191 215 7 196 221 8 189 211 2 188 211 6 196 221 8 197 222 6 202 226 10 205 231 8 205 232 5 210 237 12 199 224 8 200 226 7 208 235 6 209 236 7 202 228 5 195 220 5 191 215 7 198 226 4 203 229 8 205 231 12 207 232 8 203 229 8 207 234 9 208 236 14 207 235 10 201 227 6 200 228 6 209 238 8 209 238 6 202 230 8 205 231 12 208 237 9 207 236 8 206 234 10 200 228 6 198 226 4 202 233 7 202 233 5 197 228 3 196 223 4 193 223 3 195 225 3 191 217 6 190 218 9 190 220 8 194 225 8 198 228 10 201 232 7 198 228 10 187 215 9 197 224 8 205 234 6 202 233 7 201 232 6 199 231 10 198 228 8 201 232 7 193 223 5 189 219 9 192 223 6 187 217 5 181 210 4 182 212 4 185 215 7 187 215 6 193 222 8 189 218 6 188 216 9 188 216 9 191 220 8 190 219 3 199 226 7 195 224 8 191 222 5 189 219 7 187 217 7 191 222 5 199 229 9 197 227 5 201 232 6 199 230 4 187 217 5 182 214 6 189 223 12 189 224 8 198 230 7 
196 222 9 180 207 6 189 218 6 201 231 9 199 230 5 193 224 6 187 220 9 189 219 9 196 228 7 197 227 5 187 217 5 173 207 6 184 220 6 204 240 20 198 232 14 207 235 13 196 222 11 169 200 1 183 214 12 184 217 4 191 222 4 196 227 10 191 221 11 187 217 7 189 220 5 180 212 5 176 208 3 183 213 3 192 221 7 192 220 11 192 222 4 201 232 6 197 229 6 199 231 10 201 232 6 202 233 7 205 234 6 197 224 8 187 215 9 198 228 10 201 232 7 198 228 10 194 225 8 190 220 8 190 218 9 191 217 6 195 225 3 193 223 3 196 223 4 197 228 3 202 233 5 202 233 7 198 226 4 200 228 6 206 234 10 207 236 8 208 237 9 205 231 12 202 230 8 209 238 6 209 238 8 200 228 6 201 227 6 207 235 10 208 236 14 207 234 9 203 229 8 207 232 8 205 231 12 203 229 8 198 226 4 191 215 7 195 220 5 202 228 5 209 236 7 208 235 6 200 226 7 199 224 8 210 237 12 205 232 5 205 231 8 202 226 10 197 222 6 196 221 8 188 211 6 189 211 2 196 221 8 191 215 7 195 220 5 197 222 6 199 226 7 200 228 4 202 227 11 205 231 12 214 239 13 206 232 9 208 234 13 211 240 12 209 238 10 202 228 9 194 219 3 197 223 4 199 225 6 204 231 4 210 237 8 204 229 13 189 215 4 189 215 6 194 220 7 201 227 6 204 230 7 198 223 8 193 219 10 192 216 6 197 222 9 205 231 8 205 232 5 204 230 7 208 234 13 193 218 5 186 209 5 197 220 6 208 234 5 206 233 8 199 225 6 195 221 2 204 229 13 207 233 12 209 236 11 209 236 9 204 232 8 200 230 12 195 224 8 195 225 7 202 232 14 198 225 8 205 231 8 203 234 8 198 228 8 192 222 4 192 218 7 205 231 8 211 238 13 213 240 13 209 236 9 208 237 9 210 237 10 210 237 10 209 236 11 207 234 7 209 237 5 211 238 13 206 233 14 199 228 12 191 220 4 193 222 6 199 229 11 206 233 16 206 235 7 211 238 9 217 245 13 213 240 13 207 234 7 202 230 5 209 237 13 208 236 14 196 223 6 198 223 7 202 229 4 196 226 6 205 233 9 209 236 9 215 241 12 214 241 14 213 242 14 211 242 16 199 229 11 202 228 9 207 235 11 205 236 8 205 237 6 210 235 19 210 236 15 211 240 12 204 237 10 202 233 8 199 229 9 197 228 3 199 227 5 199 226 9 210 238 14 205 233 9 190 216 5 194 220 9 197 221 13 199 223 5 199 223 7 202 227 4 
207 233 12 211 238 11 208 232 12 
213 236 32 219 245 16 221 248 13 218 243 17 218 242 10 210 231 12 202 228 7 200 228 3 200 227 11 206 233 14 210 239 7 203 231 6 199 226 7 195 222 3 199 224 9 207 234 7 207 234 7 213 238 22 215 242 15 209 236 7 198 225 8 197 224 7 203 233 11 202 233 8 195 226 0 203 231 9 211 238 13 209 236 9 209 236 9 206 233 8 201 227 4 203 229 8 209 236 11 209 235 12 198 225 6 199 226 9 205 233 11 209 238 10 209 238 10 207 233 14 206 237 11 215 241 18 217 240 14 215 237 14 207 233 12 199 226 9 191 220 4 194 223 7 203 231 7 203 231 7 205 233 8 208 236 12 208 235 18 210 238 14 209 240 15 209 242 13 207 235 11 209 237 15 212 238 15 211 239 7 205 231 12 202 230 8 203 231 7 205 236 11 209 235 14 199 226 9 195 221 8 195 222 5 197 226 10 206 236 18 204 232 10 205 233 11 214 242 10 212 238 15 214 239 24 211 238 22 205 232 7 203 230 1 204 230 7 205 229 11 203 229 8 202 228 9 202 228 5 208 235 10 206 232 9 213 240 13 208 235 10 201 227 4 203 230 5 203 230 5 200 226 3 201 227 6 199 225 4 199 224 9 198 225 9 199 227 5 202 230 6 212 239 10 207 233 12 203 230 5 198 224 1 192 216 6 197 225 3 198 228 8 199 227 5 206 232 11 207 231 11 206 231 8 204 231 6 199 227 2 207 235 11 211 237 14 203 230 5 200 226 3 205 230 7 207 231 11 197 222 6 194 219 6 195 220 7 200 224 6 207 233 12 208 234 11 210 235 9 207 234 7 203 229 6 201 227 6 206 232 11 197 223 4 203 229 8 203 229 10 198 226 1 202 230 8 204 230 9 204 231 6 204 230 11 201 227 8 201 229 4 207 234 7 207 234 9 206 234 9 206 237 9 208 239 13 201 229 5 192 217 2 201 227 4 209 235 12 206 234 9 201 229 5 197 222 6 199 226 9 204 230 11 203 229 10 199 223 13 196 223 4 206 233 8 206 232 11 201 227 6 190 216 3 192 218 7 201 229 7 207 237 19 209 237 31 197 227 9 200 231 5 206 237 9 205 236 8 199 231 6 196 232 2 202 234 13 203 235 12 198 228 6 194 224 4 200 230 8 189 218 4 186 214 5 192 221 5 197 227 9 198 228 6 192 222 4 189 218 6 193 222 8 194 226 5 200 232 7 200 231 6 198 231 4 196 226 6 196 227 10 197 229 6 195 227 4 193 225 4 198 230 7 200 232 7 196 228 7 191 222 5 186 216 8 186 220 1 191 226 2 
197 229 8 207 238 10 206 234 9 204 235 9 205 236 10 200 230 8 190 221 6 183 216 5 185 215 5 190 220 8 195 225 7 194 223 9 188 217 5 189 223 5 197 234 7 194 230 6 193 229 7 200 232 11 189 219 7 180 214 5 186 221 7 186 219 6 186 219 6 190 221 6 190 220 0 201 229 7 205 233 11 196 223 6 187 217 5 192 223 8 201 231 9 195 225 7 203 230 11 207 235 13 202 234 11 196 232 2 199 231 6 205 236 8 206 237 9 200 231 5 197 227 9 209 237 31 207 237 19 201 229 7 192 218 7 190 216 3 201 227 6 206 232 11 206 233 8 196 223 4 199 223 13 203 229 10 204 230 11 199 226 9 197 222 6 201 229 5 206 234 9 209 235 12 201 227 4 192 217 2 201 229 5 208 239 13 206 237 9 206 234 9 207 234 9 207 234 7 201 229 4 201 227 8 204 230 11 204 231 6 204 230 9 202 230 8 198 226 1 203 229 10 203 229 8 197 223 4 206 232 11 201 227 6 203 229 6 207 234 7 210 235 9 208 234 11 207 233 12 200 224 6 195 220 7 194 219 6 197 222 6 207 231 11 205 230 7 200 226 3 203 230 5 211 237 14 207 235 11 199 227 2 204 231 6 206 231 8 207 231 11 206 232 11 199 227 5 198 228 8 197 225 3 192 216 6 198 224 1 203 230 5 207 233 12 212 239 10 202 230 6 199 227 5 198 225 9 199 224 9 199 225 4 201 227 6 200 226 3 203 230 5 203 230 5 201 227 4 208 235 10 213 240 13 206 232 9 208 235 10 202 228 5 202 228 9 203 229 8 205 229 11 204 230 7 203 230 1 205 232 7 211 238 22 214 239 24 212 238 15 214 242 10 205 233 11 204 232 10 206 236 18 197 226 10 195 222 5 195 221 8 199 226 9 209 235 14 205 236 11 203 231 7 202 230 8 205 231 12 211 239 7 212 238 15 209 237 15 207 235 11 209 242 13 209 240 15 210 238 14 208 235 18 208 236 12 205 233 8 203 231 7 203 231 7 194 223 7 191 220 4 199 226 9 207 233 12 215 237 14 217 240 14 215 241 18 206 237 11 207 233 14 209 238 10 209 238 10 205 233 11 199 226 9 198 225 6 209 235 12 209 236 11 203 229 8 201 227 4 206 233 8 209 236 9 209 236 9 211 238 13 203 231 9 195 226 0 202 233 8 203 233 11 197 224 7 198 225 8 209 236 7 215 242 15 213 238 22 207 234 7 207 234 7 199 224 9 195 222 3 199 226 7 203 231 6 210 239 7 206 233 14 200 227 11 201 227 6 202 228 7 
211 233 11 218 242 10 218 243 17 222 249 14 219 245 16 206 230 12 
215 237 30 218 241 13 213 238 14 212 238 15 221 244 14 214 237 9 207 231 11 207 232 8 208 235 10 212 239 10 212 240 8 209 236 9 204 230 11 197 223 4 200 227 2 204 228 8 204 232 7 207 234 9 210 237 8 213 239 7 208 235 6 197 222 6 203 229 8 206 233 6 202 228 5 200 227 10 200 228 6 202 230 5 208 235 6 209 237 5 205 232 7 202 228 5 205 230 6 209 235 14 207 235 13 201 229 5 202 229 10 203 230 11 206 232 9 207 234 9 201 231 11 203 231 9 211 237 18 216 241 15 216 242 13 211 238 9 203 229 8 200 227 10 207 234 9 207 236 6 198 229 4 193 224 7 198 229 12 201 230 14 195 225 5 202 232 12 201 229 7 195 222 3 198 225 9 207 234 9 205 229 13 201 225 5 206 234 9 207 238 12 205 231 10 205 232 7 203 228 12 201 227 4 201 227 6 206 234 10 210 238 13 205 235 17 206 233 8 211 238 9 207 233 10 207 234 17 208 236 12 209 236 7 204 230 7 206 233 8 209 233 13 204 229 6 202 228 9 210 237 10 206 232 9 207 233 10 204 228 12 193 216 4 199 223 5 207 231 11 208 235 10 208 235 10 198 222 4 198 223 8 198 223 7 198 225 8 200 226 13 209 238 8 214 241 14 210 236 13 209 236 7 207 233 10 202 230 5 193 223 3 188 218 6 200 227 10 201 227 6 205 232 3 205 233 8 200 227 8 203 231 7 208 235 8 210 236 13 207 233 10 204 229 5 211 236 12 209 236 9 207 236 8 199 225 2 195 221 2 201 227 6 204 230 9 205 230 7 210 235 9 208 234 13 202 228 9 205 231 8 199 225 6 199 224 8 203 231 9 187 215 6 185 213 7 202 229 10 206 234 9 206 232 11 196 221 5 192 219 3 199 225 4 204 230 11 204 232 7 198 229 4 203 234 9 210 239 7 206 233 6 202 228 7 202 228 15 201 231 9 205 233 8 201 228 9 200 227 8 202 228 7 207 232 9 200 230 12 200 227 10 205 232 5 207 235 10 204 232 10 206 233 14 198 225 6 196 226 8 198 229 11 195 226 11 189 219 7 190 220 8 199 230 13 197 229 6 195 229 8 189 224 6 185 218 7 194 225 10 195 225 3 192 221 5 194 223 7 196 225 9 196 226 6 191 220 8 198 227 11 200 229 13 194 224 4 192 221 5 190 221 4 196 228 7 196 227 9 196 228 7 192 228 4 198 230 7 192 226 7 189 222 7 191 219 10 186 216 6 188 222 4 189 220 5 185 218 5 184 217 4 186 216 4 197 227 7 203 231 6 201 229 4 
200 231 5 197 228 10 193 224 6 193 222 6 194 224 4 192 223 5 191 225 7 194 225 8 192 220 13 192 221 7 193 227 8 199 231 6 200 232 11 195 225 7 190 221 4 193 227 8 194 226 3 187 217 5 185 217 9 181 213 8 176 207 7 174 206 0 193 224 7 198 230 5 208 239 14 205 235 17 194 223 9 197 229 6 199 229 11 195 226 8 190 224 6 195 230 4 195 226 9 188 218 6 189 224 6 195 229 8 197 229 6 199 230 13 190 220 8 189 219 7 195 226 11 198 229 11 196 226 8 198 225 6 206 233 14 204 232 10 207 235 10 205 232 5 200 227 10 200 230 12 207 232 9 202 228 7 200 227 8 201 228 9 205 233 8 201 231 9 202 228 15 202 228 7 206 233 6 210 239 7 203 234 9 198 229 4 204 232 7 204 230 11 199 225 4 192 219 3 196 221 5 206 232 11 206 234 9 202 229 10 185 213 7 187 215 6 203 231 9 199 224 8 199 225 6 205 231 8 202 228 9 208 234 13 210 235 9 205 230 7 204 230 9 201 227 6 195 221 2 199 225 2 207 236 8 209 236 9 211 236 12 204 229 5 207 233 10 210 236 13 208 235 8 203 231 7 200 227 8 205 233 8 205 232 3 201 227 6 200 227 10 188 218 6 193 223 3 202 230 5 207 233 10 209 236 7 210 236 13 214 241 14 209 238 8 200 226 13 198 225 8 198 223 7 198 223 8 198 222 4 208 235 10 208 235 10 207 231 11 199 223 5 193 216 4 204 228 12 207 233 10 206 232 9 210 237 10 202 228 9 204 229 6 209 233 13 206 233 8 204 230 7 209 236 7 208 236 12 207 234 17 207 233 10 211 238 9 206 233 8 205 235 17 210 238 13 206 234 10 201 227 6 201 227 4 203 228 12 205 232 7 205 231 10 207 238 12 206 234 9 201 225 5 205 229 13 207 234 9 198 225 9 195 222 3 201 229 7 202 232 12 195 225 5 201 230 14 198 229 12 193 224 7 198 229 4 207 236 6 207 234 9 200 227 10 203 229 8 211 238 9 216 242 13 216 241 15 211 237 18 203 231 9 201 231 11 207 234 9 206 232 9 203 230 11 202 229 10 201 229 5 207 235 13 209 235 14 205 230 6 202 228 5 205 232 7 209 237 5 208 235 6 202 230 5 200 228 6 200 227 10 202 228 5 206 233 6 203 229 8 197 222 6 208 235 6 213 239 7 210 237 8 207 234 9 204 232 7 204 228 8 200 227 2 197 223 4 204 230 11 209 236 9 212 240 8 212 239 10 208 235 10 207 232 6 206 232 9 214 237 11 221 244 16 
211 237 14 212 239 12 218 241 13 209 230 11 
218 240 33 208 233 10 201 227 8 207 235 11 216 244 22 218 243 17 218 241 15 210 236 7 206 233 8 209 235 4 209 234 10 202 228 9 201 227 6 206 231 7 204 231 6 206 235 7 211 236 13 213 239 10 216 242 13 217 243 11 213 239 8 209 236 9 207 234 9 206 233 6 206 232 9 210 237 12 212 238 15 211 237 14 210 236 7 213 241 9 212 239 10 209 238 8 207 234 5 202 230 8 204 230 9 211 236 10 213 236 6 205 230 7 205 230 6 210 234 16 215 241 20 207 234 5 209 237 12 210 237 10 210 237 10 214 241 16 211 238 9 210 237 10 212 240 15 213 240 15 206 232 11 195 220 7 193 217 7 198 223 8 199 226 7 199 230 5 203 230 11 207 234 5 212 239 10 217 244 17 212 237 13 207 233 10 199 227 2 205 236 11 207 237 15 200 228 6 210 237 12 215 241 9 206 233 6 200 228 3 204 233 5 206 232 13 199 227 5 203 231 7 204 232 7 204 236 5 204 232 7 199 226 9 206 231 16 204 230 7 207 234 7 203 230 13 192 218 7 202 227 11 204 231 4 208 235 10 209 234 18 204 230 11 199 224 9 196 222 9 203 231 7 208 234 15 205 231 12 197 225 1 196 222 9 203 230 5 205 233 11 206 233 16 205 233 8 211 238 9 213 241 9 210 235 9 210 235 19 200 227 8 188 218 6 187 218 3 198 228 6 207 234 9 207 233 10 203 230 11 197 226 10 194 224 6 202 230 6 207 234 9 208 235 6 201 229 5 203 229 10 205 232 5 203 230 5 200 225 9 203 230 5 208 235 10 203 230 5 205 231 8 206 233 8 206 233 8 208 234 11 208 233 7 205 234 6 201 229 7 196 223 7 192 216 8 203 229 8 209 237 12 210 237 10 204 231 6 203 230 5 199 227 2 199 226 7 204 232 7 206 234 9 200 231 5 205 234 6 214 241 16 214 240 17 203 229 8 195 220 5 200 225 10 204 232 7 199 230 5 197 227 7 197 224 7 198 229 4 197 230 3 201 232 6 205 234 6 209 238 10 208 239 11 203 236 9 199 227 5 194 224 4 198 228 6 200 230 10 192 222 4 191 222 5 188 222 4 185 214 8 181 209 3 184 213 7 189 222 7 189 223 4 193 224 6 189 223 5 196 226 8 200 227 11 192 221 7 191 220 4 198 228 10 195 225 7 191 222 5 192 223 8 190 219 7 185 213 4 191 220 6 188 221 6 188 221 6 185 218 5 187 217 5 187 221 3 187 222 8 190 224 5 197 228 3 196 228 3 191 229 6 193 229 7 194 225 8 185 215 7 180 212 4 
189 219 9 181 209 3 183 216 5 196 225 9 196 226 4 196 228 7 200 232 9 200 232 7 187 220 7 180 216 6 193 228 4 206 237 11 200 230 10 189 223 4 191 226 8 185 217 9 188 221 8 188 222 14 184 218 9 178 212 4 178 209 9 194 223 11 196 228 7 196 231 4 202 232 10 203 228 12 200 226 13 205 232 13 196 226 8 190 221 4 194 228 9 188 222 4 189 222 7 181 213 6 181 209 3 185 214 8 188 222 4 191 222 5 192 222 4 200 230 10 198 228 6 194 224 4 199 227 5 203 236 9 208 239 11 209 238 10 205 234 6 201 232 6 197 230 3 198 229 4 197 224 7 197 227 7 199 230 5 204 232 7 200 225 10 195 220 5 203 229 8 214 240 17 214 241 16 205 234 6 200 231 5 206 234 9 204 232 7 199 226 7 199 227 2 203 230 5 204 231 6 210 237 10 209 237 12 203 229 8 192 216 8 196 223 7 201 229 7 205 234 6 208 233 7 208 234 11 206 233 8 206 233 8 205 231 8 203 230 5 208 235 10 203 230 5 200 225 9 203 230 5 205 232 5 203 229 10 201 229 5 208 235 6 207 234 9 202 230 6 194 224 6 197 226 10 203 230 11 207 233 10 207 234 9 198 228 6 187 218 3 188 218 6 200 227 8 210 235 19 210 235 9 213 241 9 211 238 9 205 233 8 206 233 16 205 233 11 203 230 5 196 222 9 197 225 1 205 231 12 208 234 15 203 231 7 196 222 9 199 224 9 204 230 11 209 234 18 208 235 10 204 231 4 202 227 11 192 218 7 203 230 13 207 234 7 204 230 7 206 231 16 199 226 9 204 232 7 204 236 5 204 232 7 203 231 7 199 227 5 206 232 13 204 233 5 200 228 3 206 233 6 215 241 9 210 237 12 200 228 6 207 237 15 205 236 11 199 227 2 207 233 10 212 237 13 217 244 17 212 239 10 207 234 5 203 230 11 199 230 5 199 226 7 198 223 8 193 217 7 195 220 7 206 232 11 213 240 15 212 240 15 210 237 10 211 238 9 214 241 16 210 237 10 210 237 10 209 237 12 207 234 5 215 241 20 210 234 16 205 230 6 205 230 7 213 236 6 211 236 10 204 230 9 202 230 8 207 234 5 209 238 8 212 239 10 213 241 9 210 236 7 211 237 14 212 238 15 210 237 12 206 232 9 206 233 6 207 234 9 209 236 9 213 239 8 217 243 11 216 242 13 213 239 10 211 236 13 206 235 7 204 231 6 206 231 7 201 227 6 202 228 9 209 234 10 209 235 4 206 233 8 208 235 6 218 240 17 220 243 17 217 243 20 
207 233 12 203 227 9 208 233 9 213 234 15 
224 243 39 217 240 10 209 235 6 206 233 6 207 232 8 215 237 14 219 241 18 215 238 10 210 238 6 214 241 14 210 237 10 209 234 8 208 233 7 208 233 7 211 236 12 213 239 10 210 235 12 211 236 10 216 243 6 213 239 8 213 239 10 213 239 10 214 239 15 208 234 13 206 233 6 208 235 8 207 234 9 213 240 15 213 240 11 207 234 7 203 229 6 208 234 13 212 241 11 211 239 7 206 232 9 214 241 12 220 247 18 213 234 15 204 228 12 200 226 5 207 233 10 214 241 14 208 235 8 211 238 13 209 236 7 206 231 7 206 232 9 210 237 8 211 240 10 213 240 11 216 243 14 214 241 12 206 233 8 205 231 10 208 236 14 210 239 11 205 236 10 210 239 9 210 239 11 214 242 17 218 243 20 214 241 12 204 233 5 204 230 7 205 235 13 200 227 11 202 228 15 209 235 16 204 230 7 198 225 8 199 226 10 201 229 4 197 224 8 197 224 5 202 229 13 203 231 9 211 237 16 205 232 7 203 229 8 207 233 10 204 230 7 204 230 9 202 228 7 204 230 9 205 233 9 203 232 4 208 237 9 206 234 12 207 233 14 204 229 13 200 227 2 207 233 10 206 232 9 206 233 8 199 224 8 198 225 6 200 230 10 204 231 12 206 231 16 203 229 8 211 238 13 210 238 14 205 233 9 207 233 10 201 226 3 193 219 10 194 223 9 204 229 6 210 235 11 200 227 10 188 217 5 197 227 9 193 219 6 184 209 3 191 217 6 204 232 10 205 233 9 198 224 5 196 221 6 195 218 13 188 217 3 199 227 5 206 234 9 209 236 7 206 233 8 205 233 8 207 236 4 206 235 5 205 231 10 196 223 7 194 223 7 201 229 7 200 228 3 204 233 5 207 236 8 210 237 8 208 235 8 203 232 4 199 226 9 198 228 8 201 231 9 197 225 3 201 227 6 209 235 6 216 242 11 213 241 9 208 235 10 201 225 7 200 227 2 202 233 8 203 233 11 205 231 10 197 228 3 193 222 6 197 227 7 206 237 12 202 233 7 206 236 14 204 234 16 206 234 9 195 224 8 196 226 8 207 234 7 207 233 12 199 227 5 192 221 5 191 222 7 192 223 5 191 225 6 193 227 8 187 218 3 190 224 6 193 228 2 200 230 8 201 231 13 197 229 6 201 232 7 204 234 12 195 225 5 192 224 3 197 229 6 195 225 5 194 225 7 195 227 6 186 219 4 191 224 9 191 226 2 187 220 7 188 221 6 187 220 5 188 221 8 195 227 6 190 224 6 184 218 7 182 215 4 185 215 7 186 216 6 
185 218 5 184 214 4 193 219 8 196 227 9 195 226 8 194 224 14 197 228 13 198 230 5 196 228 7 183 216 5 177 212 6 187 220 7 197 229 8 189 217 8 185 215 5 189 223 5 193 224 6 194 225 7 195 226 9 197 229 6 183 218 2 182 214 9 192 223 8 194 226 3 198 230 9 203 235 14 204 237 8 206 237 11 208 239 13 198 230 5 190 226 4 190 224 6 187 218 3 193 224 9 191 227 5 192 223 5 191 222 7 192 221 5 199 227 5 207 233 12 207 234 7 196 226 8 195 224 8 206 234 9 204 234 16 206 236 14 202 233 7 206 237 12 197 227 7 193 222 6 197 228 3 205 231 10 203 233 11 202 233 8 200 227 2 201 225 7 208 235 10 213 241 9 216 242 11 209 235 6 201 227 6 197 225 3 201 231 9 198 228 8 199 226 9 203 232 4 208 235 8 210 237 8 207 236 8 204 233 5 200 228 3 201 229 7 194 223 7 196 223 7 205 231 10 206 235 5 207 236 4 205 233 8 206 233 8 209 236 7 206 234 9 199 227 5 188 217 3 195 218 13 196 221 6 198 224 5 205 233 9 204 232 10 191 217 6 184 209 3 193 219 6 197 227 9 188 217 5 200 227 10 210 235 11 204 229 6 194 223 9 193 219 10 201 226 3 207 233 10 205 233 9 210 238 14 211 238 13 203 229 8 206 231 16 204 231 12 200 230 10 198 225 6 199 224 8 206 233 8 206 232 9 207 233 10 200 227 2 204 229 13 207 233 14 206 234 12 208 237 9 203 232 4 205 233 9 204 230 9 202 228 7 204 230 9 204 230 7 207 233 10 203 229 8 205 232 7 211 237 16 203 231 9 202 229 13 197 224 5 197 224 8 201 229 4 199 226 10 198 225 8 204 230 7 209 235 16 202 228 15 200 227 11 205 235 13 204 230 7 204 233 5 214 241 12 218 243 20 214 242 17 210 239 11 210 239 9 205 236 10 210 239 11 208 236 14 205 231 10 206 233 8 214 241 12 216 243 14 213 240 11 211 240 10 210 237 8 206 232 9 206 231 7 209 236 7 211 238 13 208 235 8 214 241 14 207 233 10 200 226 5 204 228 12 213 234 15 220 247 18 214 241 12 206 232 9 211 239 7 212 241 11 208 234 13 203 229 6 207 234 7 213 240 11 213 240 15 207 234 9 208 235 8 206 233 6 208 234 13 214 239 15 213 239 10 213 239 10 213 239 8 216 243 6 211 236 10 210 235 12 213 239 10 211 236 12 208 233 7 208 233 7 209 234 8 210 237 10 214 241 14 210 238 6 215 238 8 220 240 18 
213 238 14 207 234 7 206 233 6 207 234 5 216 239 9 220 236 23 
220 239 33 215 241 10 215 241 10 213 238 12 213 236 10 212 234 11 213 235 12 215 236 19 213 239 8 215 242 13 211 239 6 211 236 12 208 233 10 205 229 9 211 236 13 216 238 15 206 231 8 206 233 6 212 239 10 209 236 7 207 232 6 214 239 16 216 242 11 213 238 12 212 238 9 212 238 9 205 232 7 206 232 9 207 233 10 206 232 9 206 233 8 209 236 7 210 237 8 206 233 8 204 233 5 212 239 10 220 246 15 219 244 18 216 242 13 214 240 8 213 239 10 213 239 18 210 236 15 209 236 11 215 241 12 210 234 16 203 229 8 209 235 14 208 237 9 209 236 9 212 239 12 215 242 17 213 240 15 210 237 8 209 236 9 206 234 12 201 231 9 205 235 13 202 233 8 209 236 17 220 242 35 215 242 13 211 241 7 211 237 8 202 228 9 201 226 10 201 227 6 201 225 7 198 222 6 201 227 8 207 233 14 208 234 13 203 231 7 207 235 10 209 237 13 207 233 10 214 241 12 210 237 10 210 237 12 213 240 11 211 238 19 207 235 11 206 234 9 208 236 11 214 241 14 213 240 11 205 232 5 202 228 5 204 230 9 206 232 9 208 235 8 206 235 5 207 235 11 204 230 9 200 226 3 198 228 10 205 233 11 209 238 10 209 235 12 204 229 13 201 228 9 198 228 10 199 229 11 203 234 9 199 227 3 191 222 4 196 227 9 201 232 7 205 232 5 204 232 10 198 227 11 200 232 7 205 236 10 197 225 1 196 223 7 203 231 9 209 238 10 207 233 10 192 217 2 185 210 5 194 220 9 189 214 8 190 216 3 202 229 10 203 233 11 202 230 6 203 231 7 213 241 17 210 235 9 198 226 4 191 220 6 196 227 2 203 230 11 204 232 10 200 228 4 210 238 13 217 243 14 205 232 7 201 228 9 207 235 11 198 229 4 199 231 8 203 234 9 204 232 8 210 237 10 217 245 21 210 238 13 202 228 5 202 228 9 200 227 10 202 230 5 210 237 12 204 234 12 195 225 5 191 220 4 196 227 9 194 225 7 194 224 4 201 231 9 200 230 8 195 227 6 202 233 7 206 234 12 204 230 11 205 233 8 200 232 7 186 219 6 191 224 9 189 222 7 189 223 2 191 225 7 187 220 7 194 225 8 191 223 2 191 222 4 193 224 6 197 227 5 200 227 8 197 227 9 196 226 6 197 229 6 195 226 8 195 226 9 192 226 5 193 227 9 194 228 7 189 223 5 187 220 5 188 222 4 187 217 5 192 223 5 191 222 4 186 219 8 179 212 7 177 210 5 193 225 2 
196 226 6 194 223 11 194 226 3 201 232 7 200 228 6 196 226 6 194 225 7 196 230 11 196 228 3 192 223 6 184 212 13 175 206 6 191 225 7 202 233 8 198 226 4 191 222 5 189 219 7 202 232 12 200 231 6 190 224 6 190 223 10 181 217 3 179 213 4 186 216 6 197 228 11 202 234 13 203 233 11 203 233 11 196 228 3 197 229 4 194 229 5 193 226 11 188 222 4 196 228 3 192 223 5 189 223 5 191 224 9 186 219 6 200 232 7 205 233 8 204 230 11 206 234 12 202 233 7 195 227 6 200 230 8 201 231 9 194 224 4 194 225 7 196 227 9 191 220 4 195 225 5 204 234 12 210 237 12 202 230 5 200 227 10 202 228 9 202 228 5 210 238 13 217 245 21 210 237 10 204 232 8 203 234 9 199 231 8 198 229 4 207 235 11 201 228 9 205 232 7 217 243 14 210 238 13 200 228 4 204 232 10 203 230 11 196 227 2 191 220 6 198 226 4 210 235 9 213 241 17 203 231 7 202 230 6 203 233 11 202 229 10 190 216 3 189 214 8 194 220 9 185 210 5 192 217 2 207 233 10 209 238 10 203 231 9 196 223 7 197 225 1 205 236 10 200 232 7 198 227 11 204 232 10 205 232 5 201 232 7 196 227 9 191 222 4 199 227 3 203 234 9 199 229 11 198 228 10 201 228 9 204 229 13 209 235 12 209 238 10 205 233 11 198 228 10 200 226 3 204 230 9 207 235 11 206 235 5 208 235 8 206 232 9 204 230 9 202 228 5 205 232 5 213 240 11 214 241 14 208 236 11 206 234 9 207 235 11 211 238 19 213 240 11 210 237 12 210 237 10 214 241 12 207 233 10 209 237 13 207 235 10 203 231 7 208 234 13 207 233 14 201 227 8 198 222 6 201 225 7 201 227 6 201 226 10 202 228 9 211 237 8 211 241 7 215 242 13 220 242 35 209 236 17 202 233 8 205 235 13 201 231 9 206 234 12 209 236 9 210 237 8 213 240 15 215 242 17 212 239 12 209 236 9 208 237 9 209 235 14 203 229 8 210 234 16 215 241 12 209 236 11 210 236 15 213 239 18 213 239 10 214 240 8 216 242 13 219 244 18 220 246 15 212 239 10 204 233 5 206 233 8 210 237 8 209 236 7 206 233 8 206 232 9 207 233 10 206 232 9 205 232 7 212 238 9 212 238 9 213 238 12 216 242 11 214 239 16 207 232 6 209 236 7 212 239 10 206 233 6 206 231 8 216 238 15 211 236 13 205 229 9 208 233 10 211 236 12 211 239 6 215 242 13 213 239 8 
212 238 17 213 235 12 212 234 11 213 236 10 215 238 12 215 241 10 216 242 11 214 234 15 
216 238 29 210 238 6 212 239 12 216 241 17 221 245 11 216 242 11 213 238 12 216 241 17 217 240 14 214 240 11 214 240 11 212 237 14 208 234 5 205 231 10 208 235 10 210 236 7 212 235 9 210 235 9 210 237 8 213 241 8 215 242 13 212 238 9 209 234 10 208 234 5 212 235 9 212 237 13 208 233 9 201 225 7 194 219 4 196 221 6 202 228 9 209 238 10 210 235 12 205 231 10 204 232 8 204 230 7 206 231 5 203 227 7 198 222 4 203 227 9 204 230 7 202 228 5 206 232 9 206 231 8 211 236 10 206 231 15 202 228 5 209 235 12 207 235 11 212 238 15 213 240 13 212 239 12 210 237 12 208 235 10 209 236 7 210 239 7 210 239 9 205 236 10 202 232 12 203 231 7 207 232 8 207 235 11 218 245 28 219 243 23 211 234 6 206 231 8 207 234 7 206 231 7 203 227 7 204 229 5 205 232 7 204 229 13 203 229 10 201 228 11 203 230 11 206 235 7 208 236 11 211 240 8 212 239 12 218 244 21 212 239 12 209 235 12 207 234 9 204 231 6 208 232 12 211 236 12 214 240 11 202 228 5 200 226 7 201 227 4 204 232 0 202 228 7 201 226 11 207 233 12 202 229 12 190 219 3 201 228 11 209 237 13 208 236 11 205 232 3 208 236 4 203 229 6 200 227 10 193 220 3 187 218 3 191 222 7 192 224 3 191 225 4 197 227 5 205 231 8 202 228 9 193 223 3 204 232 7 210 237 10 195 222 5 192 218 7 204 231 12 212 239 12 206 233 8 191 217 4 200 225 9 201 228 3 199 227 5 198 228 6 201 231 9 197 225 3 201 227 4 211 237 14 211 236 10 203 231 6 195 225 3 195 222 6 194 218 8 202 229 10 191 217 6 182 209 6 198 223 10 201 228 11 197 224 8 198 225 6 200 231 6 199 231 6 193 227 8 193 227 6 200 230 10 212 240 16 214 243 15 204 235 9 199 230 5 200 227 8 201 229 5 205 236 11 209 241 10 205 236 11 195 224 8 197 227 9 201 233 12 194 224 6 201 231 9 199 230 5 197 227 5 204 234 12 210 240 18 202 232 10 197 228 11 197 232 6 194 226 5 190 220 10 182 211 5 180 212 5 187 220 9 188 218 6 194 223 7 194 228 9 188 224 4 192 221 5 198 228 10 199 226 7 197 227 7 198 228 6 195 225 3 192 222 4 190 221 4 194 228 9 198 230 7 197 227 5 194 225 10 184 213 7 187 216 2 199 226 7 197 227 7 187 217 5 182 217 3 183 216 5 181 213 5 194 225 7 196 223 4 
189 218 4 201 233 10 210 239 9 206 233 6 205 235 13 200 236 6 190 221 3 189 217 8 190 219 7 179 208 4 184 214 4 195 226 11 207 231 21 204 230 7 197 229 4 190 224 5 202 233 16 196 228 7 185 220 4 189 222 9 185 217 9 188 219 4 193 223 5 194 228 7 194 230 6 198 230 5 196 227 10 189 219 7 191 225 7 197 231 12 190 219 5 187 217 7 186 220 9 179 211 6 183 211 5 190 220 10 194 226 5 197 232 6 197 228 11 202 232 10 210 240 18 204 234 12 197 227 5 199 230 5 201 231 9 194 224 6 201 233 12 197 227 9 195 224 8 205 236 11 209 241 10 205 236 11 201 229 5 200 227 8 199 230 5 204 235 9 214 243 15 212 240 16 200 230 10 193 227 6 193 227 8 199 231 6 200 231 6 198 225 6 197 224 8 201 228 11 198 223 10 182 209 6 191 217 6 202 229 10 194 218 8 195 222 6 195 225 3 203 231 6 211 236 10 211 237 14 201 227 4 197 225 3 201 231 9 198 228 6 199 227 5 201 228 3 200 225 9 191 217 4 206 233 8 212 239 12 204 231 12 192 218 7 195 222 5 210 237 10 204 232 7 193 223 3 202 228 9 205 231 8 197 227 5 191 225 4 192 224 3 191 222 7 187 218 3 193 220 3 200 227 10 203 229 6 208 236 4 205 232 3 208 236 11 209 237 13 201 228 11 190 219 3 202 229 12 207 233 12 201 226 11 202 228 7 204 232 0 201 227 4 200 226 7 202 228 5 214 240 11 211 236 12 208 232 12 204 231 6 207 234 9 209 235 12 212 239 12 218 244 21 212 239 12 211 240 8 208 236 11 206 235 7 203 230 11 201 228 11 203 229 10 204 229 13 205 232 7 204 229 5 203 227 7 206 231 7 207 234 7 206 231 8 211 234 6 219 243 23 218 245 28 207 235 11 207 232 8 203 231 7 202 232 12 205 236 10 210 239 9 210 239 7 209 236 7 208 235 10 210 237 12 212 239 12 213 240 13 212 238 15 207 235 11 209 235 12 202 228 5 206 231 15 211 236 10 206 231 8 206 232 9 202 228 5 204 230 7 203 227 9 198 222 4 203 227 7 206 231 5 204 230 7 204 232 8 205 231 10 210 235 12 209 238 10 202 228 9 196 221 6 194 219 4 201 225 7 208 233 9 212 237 13 212 235 9 208 234 5 209 234 10 212 238 9 215 242 13 213 241 8 210 237 8 210 235 9 212 235 9 210 236 7 208 235 10 205 231 10 208 234 5 212 237 14 214 240 11 214 240 11 217 240 14 216 241 18 213 238 12 
216 242 13 218 244 12 216 241 17 211 238 9 210 238 5 211 231 9 
218 243 28 213 242 12 211 240 10 209 234 8 217 240 12 213 238 12 209 236 7 215 240 14 214 240 11 214 237 7 211 236 12 211 237 18 211 238 9 205 231 8 203 230 5 211 237 16 213 235 13 206 231 7 207 233 10 213 240 13 213 240 13 211 236 10 209 233 13 209 236 9 215 242 5 216 242 13 216 242 11 217 240 10 212 235 7 203 228 4 203 229 10 211 237 16 214 239 13 205 230 7 204 228 8 210 237 10 211 237 16 210 232 10 205 227 4 201 225 5 202 228 9 206 232 9 210 236 4 212 237 14 211 236 12 208 235 10 209 236 7 211 238 9 211 237 16 211 237 18 214 241 16 215 243 11 211 238 11 209 236 11 208 235 10 208 237 9 208 235 8 200 228 4 205 235 17 217 245 21 216 243 8 208 236 12 204 231 14 212 237 13 219 246 11 213 241 6 209 239 5 210 239 7 210 237 12 211 239 14 209 238 8 208 237 7 212 238 9 212 240 8 207 235 10 202 233 8 197 227 7 204 235 9 206 234 12 208 236 14 211 238 11 208 236 3 207 234 5 207 233 10 207 234 7 214 239 13 215 240 14 215 241 12 211 237 8 204 231 6 201 227 6 204 231 6 208 235 8 200 227 8 197 224 5 200 228 3 198 231 4 201 232 6 204 232 8 206 233 6 208 234 11 214 239 16 213 239 7 207 232 8 198 224 5 199 222 8 198 224 3 200 228 4 195 225 5 197 225 3 199 225 6 195 221 8 203 230 5 202 226 8 202 228 7 194 219 3 194 220 7 203 229 8 205 234 6 199 230 5 200 228 6 202 230 6 205 231 10 205 232 7 212 241 13 205 233 9 206 235 7 209 238 8 205 231 10 204 232 7 206 233 14 199 225 6 202 226 6 205 231 8 198 225 6 189 218 4 190 219 5 194 224 6 195 225 7 199 225 12 196 222 11 191 220 4 189 218 4 194 223 7 197 226 10 201 229 7 201 232 7 198 229 11 200 232 11 204 232 10 202 230 6 203 235 10 205 236 8 207 239 16 203 234 9 206 235 7 209 238 10 197 229 6 195 226 9 201 231 9 203 229 6 205 234 6 201 231 9 195 224 10 199 230 5 196 228 5 196 226 8 194 220 7 187 215 6 182 212 4 182 214 6 189 218 6 195 221 8 194 225 7 190 223 8 191 219 13 194 225 7 198 228 6 195 225 3 196 226 6 195 225 5 191 221 3 195 224 8 200 231 14 200 230 8 195 222 6 192 221 5 185 215 5 193 223 3 200 228 4 192 221 9 183 215 8 179 213 4 182 214 6 190 219 13 195 226 11 197 224 5 
194 223 7 193 224 6 197 224 5 203 229 10 203 234 8 188 221 6 179 210 8 187 217 5 196 225 9 197 226 10 196 228 5 187 217 5 191 221 3 196 226 6 190 220 8 191 225 6 193 227 6 195 231 9 189 225 5 182 214 6 183 214 12 186 214 5 189 220 3 192 226 5 193 227 6 198 230 5 194 228 10 186 215 9 189 222 7 196 227 12 191 219 10 184 213 7 177 210 5 181 213 6 187 215 9 194 220 7 196 226 8 196 228 5 199 230 5 195 224 10 201 231 9 205 234 6 203 229 6 201 231 9 195 226 9 197 229 6 209 238 10 206 235 7 203 234 9 207 239 16 205 236 8 203 235 10 202 230 6 204 232 10 200 232 11 198 229 11 201 232 7 201 229 7 197 226 10 194 223 7 189 218 4 191 220 4 196 222 11 199 225 12 195 225 7 194 224 6 190 219 5 189 218 4 198 225 6 205 231 8 202 226 6 199 225 6 206 233 14 204 232 7 205 231 10 209 238 8 206 235 7 205 233 9 212 241 13 205 232 7 205 231 10 202 230 6 200 228 6 199 230 5 205 234 6 203 229 8 194 220 7 194 219 3 202 228 7 202 226 8 203 230 5 195 221 8 199 225 6 197 225 3 195 225 5 200 228 4 198 224 3 199 222 8 198 224 5 207 232 8 213 239 7 214 239 16 208 234 11 206 233 6 204 232 8 201 232 6 198 231 4 200 228 3 197 224 5 200 227 8 208 235 8 204 231 6 201 227 6 204 231 6 211 237 8 215 241 12 215 240 14 214 239 13 207 234 7 207 233 10 207 234 5 208 236 3 211 238 11 208 236 14 206 234 12 204 235 9 197 227 7 202 233 8 207 235 10 212 240 8 212 238 9 208 237 7 209 238 8 211 239 14 210 237 12 210 239 7 209 239 5 213 241 6 219 246 11 212 237 13 204 231 14 208 236 12 216 243 8 217 245 21 205 235 17 200 228 4 208 235 8 208 237 9 208 235 10 209 236 11 211 238 11 215 243 11 214 241 16 211 237 18 211 237 16 211 238 9 209 236 7 208 235 10 211 236 12 212 237 14 210 236 4 206 232 9 202 228 9 201 225 5 205 227 4 210 232 10 211 237 16 210 237 10 204 228 8 205 230 7 214 239 13 211 237 16 203 229 10 203 228 4 212 235 7 217 240 10 216 242 11 216 242 13 215 242 5 209 236 9 209 233 13 211 236 10 213 240 13 213 240 13 207 233 10 206 231 7 213 235 13 211 237 16 203 230 5 205 231 8 211 238 9 211 237 18 211 236 12 214 237 7 214 240 11 214 239 15 210 236 7 
214 239 15 214 239 13 209 234 8 211 238 9 214 241 12 213 234 7 
212 234 29 205 232 5 213 240 13 215 241 10 213 239 8 212 237 11 213 238 15 209 234 11 208 235 8 213 239 10 212 238 6 210 237 12 215 243 11 216 243 8 216 242 10 216 243 18 216 240 8 212 235 7 216 240 22 220 246 25 214 243 3 216 244 9 215 243 11 212 238 9 216 242 19 218 245 16 215 242 5 215 241 12 222 245 19 221 245 11 220 243 13 215 237 15 209 233 13 209 235 6 211 235 17 214 241 16 215 240 14 217 242 19 217 243 14 212 238 7 209 237 13 216 242 21 214 240 9 210 235 9 207 232 8 204 230 7 208 235 10 209 235 12 210 237 10 214 240 19 212 239 12 209 239 3 212 241 9 211 238 13 204 231 6 205 232 7 208 235 8 209 236 11 204 232 8 205 231 8 214 240 11 209 235 14 208 237 9 212 239 12 217 243 14 216 244 11 209 236 9 211 237 16 206 234 12 209 238 10 207 236 4 206 234 10 211 236 10 214 241 14 205 233 9 194 224 6 191 220 4 197 226 10 201 228 9 201 230 2 198 225 6 203 231 9 206 234 10 207 236 8 216 243 14 212 239 10 212 237 11 214 239 13 216 242 13 215 243 11 207 236 8 207 234 9 207 234 7 203 231 6 204 232 7 213 241 9 206 237 12 207 234 5 211 236 10 205 230 6 201 229 5 206 234 10 213 240 13 208 233 9 203 228 5 205 230 7 205 230 6 205 230 6 205 234 6 201 232 4 200 228 3 205 232 3 213 239 7 202 226 10 200 224 8 201 226 10 196 223 6 203 229 6 199 227 3 195 225 7 208 236 11 207 236 8 204 233 5 204 232 7 209 237 15 206 236 14 207 236 8 207 236 8 208 236 11 209 238 10 211 238 9 209 235 6 211 237 8 214 241 14 207 234 15 201 229 5 203 229 10 203 231 6 195 222 6 195 221 10 197 227 7 199 230 5 194 220 7 201 227 8 205 234 6 196 226 6 194 224 6 196 223 7 192 219 3 189 218 6 192 221 7 194 223 9 197 227 7 198 230 5 199 230 2 204 231 6 202 230 8 198 230 9 197 229 8 200 230 8 206 234 9 207 238 10 207 238 12 204 232 7 203 234 8 197 227 7 194 226 5 197 229 4 196 227 9 195 224 8 194 225 10 194 225 8 196 226 6 196 226 6 199 230 12 195 226 9 198 230 9 199 231 8 195 226 8 191 222 7 193 224 7 194 224 4 196 226 8 191 222 7 186 214 5 192 221 5 192 221 5 189 220 5 197 229 6 200 232 9 190 224 5 179 212 7 179 212 7 189 222 11 192 225 14 197 229 6 198 226 2 
199 226 9 197 227 5 193 224 6 202 231 15 194 225 8 183 215 10 180 212 7 192 223 8 206 236 14 203 234 9 192 223 5 186 217 2 190 225 7 191 227 7 194 226 3 188 219 4 188 223 5 189 224 8 185 215 7 184 217 2 188 224 4 190 224 3 194 228 10 199 233 12 202 234 9 203 233 13 193 226 13 193 227 9 203 235 10 197 229 6 195 227 6 193 224 7 194 224 14 194 225 8 194 229 5 197 229 4 194 226 5 197 227 7 203 234 8 204 232 7 207 238 12 207 238 10 206 234 9 200 230 8 197 229 8 198 230 9 202 230 8 204 231 6 199 230 2 198 230 5 197 227 7 194 223 9 192 221 7 189 218 6 192 219 3 196 223 7 194 224 6 196 226 6 205 234 6 201 227 8 194 220 7 199 230 5 197 227 7 195 221 10 195 222 6 203 231 6 203 229 10 201 229 5 207 234 15 214 241 14 211 237 8 209 235 6 211 238 9 209 238 10 208 236 11 207 236 8 207 236 8 206 236 14 209 237 15 204 232 7 204 233 5 207 236 8 208 236 11 195 225 7 199 227 3 203 229 6 196 223 6 201 226 10 200 224 8 202 226 10 213 239 7 205 232 3 200 228 3 201 232 4 205 234 6 205 230 6 205 230 6 205 230 7 203 228 5 208 233 9 213 240 13 206 234 10 201 229 5 205 230 6 211 236 10 207 234 5 206 237 12 213 241 9 204 232 7 203 231 6 207 234 7 207 234 9 207 236 8 215 243 11 216 242 13 214 239 13 212 237 11 212 239 10 216 243 14 207 236 8 206 234 10 203 231 9 198 225 6 201 230 2 201 228 9 197 226 10 191 220 4 194 224 6 205 233 9 214 241 14 211 236 10 206 234 10 207 236 4 209 238 10 206 234 12 211 237 16 209 236 9 216 244 11 217 243 14 212 239 12 208 237 9 209 235 14 214 240 11 205 231 8 204 232 8 209 236 11 208 235 8 205 232 7 204 231 6 211 238 13 212 241 9 209 239 3 212 239 12 214 240 19 210 237 10 209 235 12 208 235 10 204 230 7 207 232 8 210 235 9 214 240 9 216 242 21 209 237 13 212 238 7 217 243 14 217 242 19 215 240 14 214 241 16 211 235 17 209 235 6 209 233 13 215 237 15 220 243 13 221 245 11 222 245 19 215 241 12 215 242 5 218 245 16 216 242 19 212 238 9 215 243 11 216 244 9 214 243 3 220 246 25 216 240 22 212 235 7 216 240 8 216 243 18 216 242 10 216 243 8 215 243 11 210 237 12 212 238 6 213 239 10 208 235 8 208 235 10 
213 238 14 212 237 11 212 238 6 215 241 12 213 240 13 206 233 8 206 227 10 
218 238 25 205 230 6 207 232 9 211 238 11 216 241 17 224 247 17 222 246 10 214 237 7 211 238 3 210 236 5 211 237 8 212 237 14 210 235 12 213 238 12 220 246 15 219 246 11 215 241 10 213 239 8 214 238 6 212 238 9 214 242 7 212 239 10 217 242 19 214 240 9 208 232 12 209 235 14 209 237 4 213 241 9 216 241 17 215 240 14 222 245 17 224 249 10 221 244 16 212 240 8 215 242 13 221 247 16 216 240 8 210 235 11 209 234 8 208 232 14 203 231 7 215 242 17 218 244 15 213 239 8 208 233 7 201 226 10 208 233 17 210 236 13 205 232 5 209 235 12 208 234 11 205 233 9 208 236 12 216 243 14 212 239 10 204 229 13 209 235 14 212 238 19 215 240 24 217 243 24 210 236 7 205 231 10 197 224 7 212 238 15 217 242 16 216 241 15 211 237 8 212 239 12 207 233 10 206 234 9 209 238 10 215 242 17 212 237 13 215 240 24 215 241 22 207 235 3 203 230 11 205 233 9 201 229 5 200 228 4 205 229 13 198 223 10 195 219 9 197 224 7 202 230 6 205 233 11 199 229 9 201 232 7 207 233 10 210 237 8 209 238 10 205 233 8 209 237 15 203 230 11 202 229 4 210 237 10 205 232 5 199 222 10 205 229 9 216 243 14 206 237 11 200 233 6 207 238 12 204 232 8 200 228 4 204 235 7 210 241 13 211 238 13 210 237 10 203 234 8 200 227 8 208 233 7 215 243 10 215 243 11 203 230 3 200 228 6 192 219 2 197 222 6 194 220 7 191 220 6 206 234 10 208 236 12 200 227 11 195 225 3 196 226 6 200 230 12 201 229 4 199 227 5 204 234 12 206 235 7 208 235 10 209 234 8 209 235 12 206 233 6 205 232 5 207 232 6 206 228 6 206 231 7 205 232 7 198 226 2 195 225 5 200 230 12 201 230 14 204 232 8 208 235 8 197 227 9 196 227 9 202 230 6 203 230 3 194 224 6 190 219 5 201 228 12 203 234 8 201 232 4 199 229 7 194 224 6 189 218 4 192 223 6 202 234 9 204 235 10 203 235 10 204 236 13 206 236 16 207 236 4 205 234 6 201 232 7 196 231 5 196 231 5 199 234 8 203 236 9 206 239 12 202 234 13 194 228 7 200 233 6 203 236 9 194 230 6 191 225 4 194 226 3 197 229 8 193 227 8 197 229 8 196 228 5 195 225 7 189 220 3 193 224 9 193 224 7 193 224 6 192 223 6 193 228 4 192 228 6 188 224 4 189 222 7 180 216 6 187 221 2 192 222 2 190 219 3 
199 229 9 208 239 13 201 232 7 199 232 3 194 228 7 192 223 8 186 219 8 187 220 9 196 230 9 202 232 10 192 221 5 188 219 1 192 223 6 194 231 4 190 226 4 192 226 5 193 224 6 193 227 8 191 225 6 190 221 4 192 223 6 196 228 5 196 229 2 196 231 7 200 236 12 200 235 8 195 227 6 189 224 6 197 233 11 205 238 11 199 231 6 194 228 9 202 236 15 207 240 13 204 237 8 196 233 6 196 231 5 196 231 5 201 232 7 205 234 6 207 236 4 206 236 16 204 236 13 203 235 10 204 235 10 202 234 9 192 223 6 189 218 4 194 224 6 199 229 7 201 232 4 203 234 8 201 228 12 190 219 5 194 224 6 203 230 3 202 230 6 196 227 9 197 227 9 208 235 8 204 232 8 201 230 14 200 230 12 195 225 5 198 226 2 205 232 7 206 231 7 206 228 6 207 232 6 205 232 5 206 233 6 209 235 12 209 234 8 208 235 10 206 235 7 204 234 12 199 227 5 201 229 4 200 230 12 196 226 6 195 225 3 200 227 11 208 236 12 206 234 10 191 220 6 194 220 7 197 222 6 192 219 2 200 228 6 203 230 3 215 243 11 215 243 10 208 233 7 200 227 8 203 234 8 210 237 10 211 238 13 210 241 13 204 235 7 200 228 4 204 232 8 207 238 12 200 233 6 206 237 11 216 243 14 205 229 9 199 222 10 205 232 5 210 237 10 202 229 4 203 230 11 209 237 15 205 233 8 209 238 10 210 237 8 207 233 10 201 232 7 199 229 9 205 233 11 202 230 6 197 224 7 195 219 9 198 223 10 205 229 13 200 228 4 201 229 5 205 233 9 203 230 11 207 235 3 215 241 22 215 240 24 212 237 13 215 242 17 209 238 10 206 234 9 207 233 10 212 239 12 211 237 8 216 241 15 217 242 16 212 238 15 197 224 7 205 231 10 210 236 7 217 243 24 215 240 24 212 238 19 209 235 14 204 229 13 212 239 10 216 243 14 208 236 12 205 233 9 208 234 11 209 235 12 205 232 5 210 236 13 208 233 17 201 226 10 208 233 7 213 239 8 218 244 15 215 242 17 203 231 7 208 232 14 209 234 8 210 235 11 216 240 8 221 247 16 215 242 13 212 240 8 221 244 16 224 249 10 222 245 17 215 240 14 216 241 17 213 241 9 209 237 4 209 235 14 208 232 12 214 240 9 217 242 19 212 239 10 214 242 7 212 238 9 214 238 6 213 239 8 215 241 10 219 246 11 220 246 15 213 238 12 210 235 12 212 237 14 211 237 8 210 236 5 211 238 3 
213 239 7 223 246 10 221 247 16 216 243 16 211 238 11 206 232 9 207 229 6 212 230 8 
223 244 27 218 241 11 209 234 8 205 232 5 207 233 12 218 241 13 220 243 13 220 242 19 218 239 14 212 238 7 214 239 15 217 240 14 215 241 12 209 236 7 210 237 10 215 243 11 215 242 17 215 242 5 221 245 11 213 236 8 210 235 11 211 238 11 215 240 14 221 244 16 219 242 4 212 234 11 204 231 4 207 236 8 213 242 14 213 241 9 215 241 12 219 242 14 218 244 12 211 236 10 206 231 5 211 238 11 218 244 15 217 243 11 211 237 8 207 234 7 204 232 7 210 236 15 217 243 12 219 242 12 211 236 10 208 234 5 203 229 6 205 231 8 205 231 8 212 238 15 211 238 11 206 235 7 204 232 10 210 237 12 214 242 10 213 240 13 211 240 12 212 237 11 210 235 9 214 241 14 216 242 11 211 237 8 207 234 9 208 236 4 209 237 5 213 240 15 214 241 12 210 237 8 207 235 10 200 231 5 202 233 8 213 239 16 212 239 10 208 235 8 206 231 5 211 237 8 211 236 10 210 235 11 208 235 10 206 233 6 210 235 11 209 234 10 204 231 6 204 230 7 199 226 7 203 230 11 198 228 6 198 228 8 208 235 8 212 238 15 214 241 12 208 236 11 201 229 5 205 232 5 199 226 1 206 233 8 208 236 11 199 227 5 195 222 3 207 234 17 213 241 19 205 233 8 208 236 11 205 234 4 197 224 5 187 216 4 195 226 8 207 236 8 211 238 9 205 234 6 199 227 3 201 227 4 201 229 7 210 237 12 208 236 12 200 228 6 197 225 3 200 228 6 197 224 5 189 215 6 192 218 5 198 226 4 198 224 5 197 223 4 197 224 5 194 221 5 201 228 11 196 226 8 193 223 3 204 231 14 210 236 17 213 241 6 210 239 9 210 240 6 212 239 12 216 239 9 209 237 5 202 228 9 203 231 7 207 236 8 198 226 4 195 226 1 197 227 5 205 233 8 211 238 9 205 235 15 201 233 8 201 232 4 206 234 9 206 237 11 204 235 7 201 231 9 201 232 7 202 233 7 202 233 7 199 231 6 195 230 4 197 229 4 195 225 7 192 221 9 196 227 9 205 237 12 200 231 6 208 236 11 206 233 4 198 225 8 194 225 8 193 224 6 193 227 6 188 223 9 192 225 10 196 227 9 191 225 7 192 226 5 198 233 7 189 225 5 188 221 6 195 227 6 196 231 7 197 232 6 199 234 7 199 231 8 193 224 6 191 225 7 195 230 6 195 230 4 196 229 2 198 230 9 197 232 8 189 227 6 185 220 4 188 218 8 186 221 5 186 221 3 190 221 6 193 222 8 201 231 13 
200 230 8 197 228 3 194 229 3 194 231 4 196 227 10 193 222 6 195 230 6 203 236 5 194 225 0 191 217 8 195 225 7 192 223 5 190 221 4 189 219 9 189 224 8 193 228 4 197 228 11 196 228 7 195 230 6 191 227 7 194 229 2 202 235 6 201 236 10 197 235 14 202 237 11 195 227 6 187 221 2 193 232 3 203 238 12 196 228 7 188 221 6 191 226 10 188 223 7 187 220 5 194 225 7 193 224 6 194 225 8 198 225 8 206 233 4 208 236 11 200 231 6 205 237 12 196 227 9 192 221 9 195 225 7 197 229 4 195 230 4 199 231 6 202 233 7 202 233 7 201 232 7 201 231 9 204 235 7 206 237 11 206 234 9 201 232 4 201 233 8 205 235 15 211 238 9 205 233 8 197 227 5 195 226 1 198 226 4 207 236 8 203 231 7 202 228 9 209 237 5 216 239 9 212 239 12 210 240 6 210 239 9 213 241 6 210 236 17 204 231 14 193 223 3 196 226 8 201 228 11 194 221 5 197 224 5 197 223 4 198 224 5 198 226 4 192 218 5 189 215 6 197 224 5 200 228 6 197 225 3 200 228 6 208 236 12 210 237 12 201 229 7 201 227 4 199 227 3 205 234 6 211 238 9 207 236 8 195 226 8 187 216 4 197 224 5 205 234 4 208 236 11 205 233 8 213 241 19 207 234 17 195 222 3 199 227 5 208 236 11 206 233 8 199 226 1 205 232 5 201 229 5 208 236 11 214 241 12 212 238 15 208 235 8 198 228 8 198 228 6 203 230 11 199 226 7 204 230 7 204 231 6 209 234 10 210 235 11 206 233 6 208 235 10 210 235 11 211 236 10 211 237 8 206 231 5 208 235 8 212 239 10 213 239 16 202 233 8 200 231 5 207 235 10 210 237 8 214 241 12 213 240 15 209 237 5 208 236 4 207 234 9 211 237 8 216 242 11 214 241 14 210 235 9 212 237 11 211 240 12 213 240 13 214 242 10 210 237 12 204 232 10 206 235 7 211 238 11 212 238 15 205 231 8 205 231 8 203 229 6 208 234 5 211 236 10 219 242 12 217 243 12 210 236 15 204 232 7 207 234 7 211 237 8 217 243 11 218 244 15 211 238 11 206 231 5 211 236 10 218 244 12 219 242 14 215 241 12 213 241 9 213 242 14 207 236 8 204 231 4 212 234 11 219 242 4 221 244 16 215 240 14 211 238 11 210 235 11 213 236 8 221 245 11 215 242 5 215 242 17 215 243 11 210 237 10 209 236 7 215 241 12 217 240 14 214 239 15 212 238 7 218 239 14 217 242 18 220 241 14 
217 240 12 208 234 11 205 232 7 209 234 8 217 241 9 216 237 10 
221 244 30 218 242 6 220 244 10 221 245 11 220 244 8 221 245 11 220 244 8 221 245 13 221 245 13 220 244 12 209 234 10 207 234 5 211 234 6 206 231 8 208 235 10 202 228 5 205 232 15 211 240 12 216 244 9 215 241 10 220 246 15 217 246 8 219 246 11 223 246 10 220 242 9 221 244 16 211 237 8 210 237 10 212 237 11 209 232 4 212 236 4 212 235 9 217 240 12 215 241 9 214 240 9 210 235 9 209 234 8 205 229 9 210 236 5 211 238 13 206 232 3 203 230 5 213 239 18 218 245 18 213 241 8 220 246 15 216 242 10 211 236 12 215 239 19 211 239 14 211 238 9 209 234 8 204 231 4 202 229 4 207 232 9 210 240 6 219 244 18 218 243 19 214 239 13 216 242 11 213 237 17 209 235 12 210 237 8 212 239 14 205 229 9 203 229 8 214 240 17 214 241 16 216 241 15 208 234 11 204 231 4 208 237 7 211 238 9 214 239 13 209 237 4 212 240 15 212 241 9 209 234 10 213 238 15 214 239 13 207 235 11 206 233 8 209 236 11 219 244 21 212 236 20 205 230 7 210 237 8 205 234 6 209 234 8 211 237 14 209 237 12 209 238 8 207 233 12 210 236 7 203 230 5 204 232 8 208 235 18 204 233 5 200 228 6 193 220 4 197 227 7 196 225 9 210 239 11 213 241 8 206 233 6 196 224 2 196 224 2 200 228 4 203 231 7 204 231 6 206 233 8 206 232 9 203 227 7 203 229 6 204 231 6 208 234 11 205 231 12 201 229 7 203 232 2 201 233 2 203 231 9 204 230 7 203 230 5 207 236 6 207 235 10 200 227 8 200 227 8 203 230 11 197 227 7 191 224 9 207 237 19 213 240 13 207 236 4 206 234 9 207 236 8 210 239 9 212 239 10 209 236 9 202 228 9 201 227 6 202 230 6 198 230 9 200 230 8 205 232 7 206 232 11 206 234 9 203 234 8 200 228 4 199 225 6 207 234 7 211 239 15 205 236 10 204 235 10 197 232 8 196 231 7 203 234 9 199 227 2 200 230 8 206 238 13 200 229 13 196 226 4 205 236 11 206 237 11 205 236 11 208 236 12 206 232 9 198 225 8 195 226 8 196 231 4 188 219 4 194 224 12 191 227 7 189 224 6 191 225 6 194 228 7 192 228 8 192 226 5 191 225 4 195 229 10 193 227 8 196 228 7 198 229 11 195 229 10 191 228 1 198 230 7 195 231 11 193 228 4 200 233 6 193 224 7 176 211 7 173 208 4 186 219 6 191 225 7 186 220 2 185 220 4 192 225 10 201 232 6 
199 227 5 202 230 6 198 229 4 194 226 5 196 227 9 193 224 7 195 232 5 193 229 5 202 236 17 208 240 19 198 234 12 192 226 5 186 219 4 191 225 6 199 231 10 199 231 10 201 234 7 199 232 5 197 228 10 196 233 5 203 236 9 201 233 8 190 225 7 188 223 9 198 229 12 196 228 5 193 229 5 200 235 8 199 234 8 190 225 7 188 225 8 190 225 7 189 222 9 188 218 6 198 230 5 195 226 8 198 225 8 206 232 9 208 236 12 205 236 11 206 237 11 205 236 11 196 226 4 200 229 13 206 238 13 200 230 8 199 227 2 203 234 9 196 231 7 197 232 8 204 235 10 205 236 10 211 239 15 207 234 7 199 225 6 200 228 4 203 234 8 206 234 9 206 232 11 205 232 7 200 230 8 198 230 9 202 230 6 201 227 6 202 228 9 209 236 9 212 239 10 210 239 9 207 236 8 206 234 9 207 236 4 213 240 13 207 237 19 191 224 9 197 227 7 203 230 11 200 227 8 200 227 8 207 235 10 207 236 6 203 230 5 204 230 7 203 231 9 201 233 2 203 232 2 201 229 7 205 231 12 208 234 11 204 231 6 203 229 6 203 227 7 206 232 9 206 233 8 204 231 6 203 231 7 200 228 4 196 224 2 196 224 2 206 233 6 213 241 8 210 239 11 196 225 9 197 227 7 193 220 4 200 228 6 204 233 5 208 235 18 204 232 8 203 230 5 210 236 7 207 233 12 209 238 8 209 237 12 211 237 14 209 234 8 205 234 6 210 237 8 205 230 7 212 236 20 219 244 21 209 236 11 206 233 8 207 235 11 214 239 13 213 238 15 209 234 10 212 241 9 212 240 15 209 237 4 214 239 13 211 238 9 208 237 7 204 231 4 208 234 11 216 241 15 214 241 16 214 240 17 203 229 8 205 229 9 212 239 14 210 237 8 209 235 12 213 237 17 216 242 11 214 239 13 218 243 19 219 244 18 210 240 6 207 232 9 202 229 4 204 231 4 209 234 8 211 238 9 211 239 14 215 239 19 211 236 12 216 242 10 220 246 15 213 241 8 218 245 18 213 239 18 203 230 5 206 232 3 211 238 13 210 236 5 205 229 9 209 234 8 210 235 9 214 240 9 215 241 9 217 240 12 212 235 9 212 236 4 209 232 4 212 237 11 210 237 10 211 237 8 221 244 16 220 242 9 223 246 10 219 246 11 217 246 8 220 246 15 215 241 10 216 244 9 211 240 12 205 232 15 202 228 5 208 235 10 206 231 8 211 234 6 207 234 5 209 234 10 220 244 12 221 245 13 222 244 11 218 246 4 
220 244 10 221 244 8 222 246 12 218 245 10 215 242 5 217 238 13 
225 244 30 217 242 3 214 241 12 221 248 23 223 250 13 222 246 10 222 244 11 220 244 8 223 247 15 226 247 20 220 243 15 213 239 7 218 242 10 215 240 14 211 238 11 207 234 7 205 231 8 204 231 4 210 235 11 214 240 11 215 241 9 211 237 5 214 241 4 217 241 7 212 238 7 211 237 6 207 232 6 206 233 8 212 239 14 213 240 13 216 243 14 213 241 9 215 242 13 219 247 15 220 246 14 223 247 15 223 246 10 216 240 8 209 234 8 213 239 16 208 235 10 207 234 7 212 239 12 210 237 10 213 238 12 220 245 21 217 243 11 217 244 17 219 244 21 215 241 18 214 239 15 212 238 9 215 242 17 214 240 19 208 232 12 207 233 14 211 238 11 214 242 9 216 242 13 218 239 20 217 241 9 212 238 9 207 234 7 215 244 14 216 241 15 211 236 13 211 238 9 212 239 10 215 241 10 216 242 13 209 236 9 210 239 7 209 238 8 214 240 17 213 240 11 216 243 14 216 244 11 211 237 8 210 235 11 214 242 17 216 242 13 208 233 10 199 224 8 209 235 12 213 240 13 206 232 9 211 238 11 215 241 18 213 238 12 210 237 8 202 230 5 205 232 7 210 236 15 218 242 26 215 242 17 210 237 18 214 238 18 208 233 7 203 228 4 203 229 10 197 227 9 188 216 7 198 225 8 203 231 9 200 228 3 196 223 6 199 226 7 205 233 11 210 239 11 209 237 15 209 235 22 205 234 4 202 233 7 206 233 14 204 231 6 207 233 12 209 235 14 201 228 1 202 229 10 210 238 16 210 241 13 210 239 9 204 233 3 205 233 9 206 234 10 206 233 4 207 234 5 212 240 8 206 235 5 194 224 4 198 228 8 199 229 7 196 227 2 205 231 8 206 233 6 205 231 8 198 225 9 207 233 10 209 236 7 206 234 9 201 232 7 201 231 9 202 232 12 210 238 13 203 234 9 206 235 3 211 240 8 199 227 3 191 217 6 195 222 5 206 232 13 210 236 15 209 237 13 199 229 7 196 223 4 209 235 12 203 231 7 199 232 3 201 234 7 207 238 10 202 233 5 200 232 9 195 226 8 203 234 9 208 237 7 207 236 8 201 228 9 197 227 9 201 236 9 199 231 6 197 229 4 194 229 5 195 229 10 191 225 7 195 229 8 194 229 5 191 227 5 191 224 9 193 226 11 194 228 7 196 228 7 202 232 12 200 232 7 196 231 4 200 232 7 194 229 5 196 231 5 199 234 10 187 222 4 180 219 6 178 217 4 185 221 7 196 228 5 196 228 7 192 223 5 
197 227 9 200 230 8 202 232 10 204 235 7 203 236 9 201 231 11 188 219 4 182 211 7 186 219 8 194 231 4 202 237 10 191 222 7 174 205 6 181 213 6 186 219 8 198 232 13 195 229 8 200 232 9 202 234 9 198 230 7 202 234 9 198 233 7 204 237 22 194 228 10 193 228 2 194 230 6 193 228 12 195 230 16 194 230 8 199 235 5 202 237 10 197 232 8 195 229 8 197 231 10 198 233 9 196 231 5 201 236 9 197 227 9 201 228 9 207 236 8 208 237 7 203 234 9 195 226 8 200 232 9 202 233 5 207 238 10 201 234 7 199 232 3 203 231 7 209 235 12 196 223 4 199 229 7 209 237 13 210 236 15 206 232 13 195 222 5 191 217 6 199 227 3 211 240 8 206 235 3 203 234 9 210 238 13 202 232 12 201 231 9 201 232 7 206 234 9 209 236 7 207 233 10 198 225 9 205 231 8 206 233 6 205 231 8 196 227 2 199 229 7 198 228 8 194 224 4 206 235 5 212 240 8 207 234 5 206 233 4 206 234 10 205 233 9 204 233 3 210 239 9 210 241 13 210 238 16 202 229 10 201 228 1 209 235 14 207 233 12 204 231 6 206 233 14 202 233 7 205 234 4 209 235 22 209 237 15 210 239 11 205 233 11 199 226 7 196 223 6 200 228 3 203 231 9 198 225 8 188 216 7 197 227 9 203 229 10 203 228 4 208 233 7 214 238 18 210 237 18 215 242 17 218 242 26 210 236 15 205 232 7 202 230 5 210 237 8 213 238 12 215 241 18 211 238 11 206 232 9 213 240 13 209 235 12 199 224 8 208 233 10 216 242 13 214 242 17 210 235 11 211 237 8 216 244 11 216 243 14 213 240 11 214 240 17 209 238 8 210 239 7 209 236 9 216 242 13 215 241 10 212 239 10 211 238 9 211 236 13 216 241 15 215 244 14 207 234 7 212 238 9 217 241 9 218 239 20 216 242 13 214 242 9 211 238 11 207 233 14 208 232 12 214 240 19 215 242 17 212 238 9 214 239 15 215 241 18 219 244 21 217 244 17 217 243 11 220 245 21 213 238 12 210 237 10 212 239 12 207 234 7 208 235 10 213 239 16 209 234 8 216 240 8 223 246 10 223 247 15 220 246 14 219 247 15 215 242 13 213 241 9 216 243 14 213 240 13 212 239 14 206 233 8 207 232 6 211 237 6 212 238 7 217 241 7 214 241 4 211 237 5 215 241 9 214 240 11 210 235 11 204 231 4 205 231 8 207 234 7 211 238 11 215 240 14 218 242 10 213 239 7 220 243 15 
226 247 20 223 247 15 219 244 5 220 244 8 223 245 12 226 251 12 221 248 23 214 241 12 217 241 5 219 237 13 
224 243 30 218 243 4 212 238 6 215 242 13 220 248 16 219 247 5 220 244 8 225 247 14 222 244 11 222 245 7 221 242 15 216 240 8 217 241 9 215 240 14 217 245 10 214 241 12 216 244 12 220 246 15 220 243 15 217 240 12 217 243 11 215 241 10 219 242 12 219 243 7 219 245 16 222 245 19 220 241 14 214 238 6 210 235 11 209 234 8 214 241 14 213 240 11 217 242 18 215 240 17 219 245 14 220 246 15 216 243 6 222 246 12 218 244 12 217 243 11 213 240 13 207 233 10 212 240 7 212 239 10 211 236 12 213 238 12 213 241 9 217 245 13 220 245 21 216 242 19 216 241 17 213 239 10 215 242 17 219 245 22 214 240 11 211 238 13 213 241 16 217 242 16 219 244 20 220 246 17 216 242 10 212 235 9 205 229 13 205 233 8 214 240 9 210 235 9 207 233 10 211 237 14 212 239 10 212 239 14 209 236 7 209 238 10 209 237 13 209 237 12 206 233 6 209 236 9 214 241 12 218 244 13 211 239 7 209 238 6 217 241 9 216 241 15 207 234 7 203 230 3 202 229 4 200 228 6 204 232 8 212 241 9 211 239 7 211 239 7 208 235 6 212 240 7 211 239 4 212 238 15 216 244 12 216 244 9 220 242 19 217 240 10 208 233 7 202 228 9 199 227 5 203 231 7 200 228 4 198 224 5 207 233 12 205 232 13 199 227 5 196 223 4 202 229 13 203 230 11 200 228 6 198 225 6 200 230 8 206 233 14 208 234 13 206 232 13 208 234 13 202 230 5 196 223 4 198 225 8 203 234 6 208 237 7 207 235 11 206 234 9 205 234 6 206 232 9 206 231 5 209 236 9 212 237 11 205 226 9 204 230 11 201 231 11 195 225 3 206 234 10 213 242 10 206 238 5 202 230 5 203 230 5 203 229 6 204 232 10 200 228 4 206 233 8 205 231 10 204 232 8 206 233 16 209 236 11 211 238 11 207 238 10 198 228 6 199 227 5 204 232 8 209 237 13 217 245 20 211 239 14 202 230 5 204 231 12 201 231 11 196 228 5 196 228 7 204 232 7 207 237 15 198 230 9 188 219 2 193 223 5 200 230 8 194 228 7 195 229 10 197 229 8 202 234 9 194 229 5 190 224 5 192 223 5 192 226 8 184 216 8 187 220 9 200 232 9 197 232 8 199 231 10 203 235 10 199 231 6 197 229 8 197 229 6 198 230 5 192 226 5 194 225 8 193 225 4 196 228 7 185 220 6 186 221 7 189 225 5 191 227 7 191 227 13 198 230 9 201 232 6 200 228 6 
203 230 11 208 239 13 205 235 13 200 232 9 201 234 7 198 229 3 193 223 5 189 223 2 197 230 17 207 237 17 195 227 4 184 216 11 191 220 6 195 225 5 202 233 7 203 234 9 200 231 6 200 231 3 197 228 3 202 233 8 207 238 13 199 234 10 194 231 4 191 227 5 195 225 13 197 229 6 197 234 6 198 234 14 200 235 11 205 237 12 188 221 8 186 219 6 199 230 12 196 228 7 191 225 4 195 230 4 199 234 7 197 229 8 195 229 10 194 228 7 200 230 8 193 223 5 188 219 2 198 230 9 207 237 15 204 232 7 196 228 7 196 228 5 201 231 11 204 231 12 202 230 5 211 239 14 217 245 20 209 237 13 204 232 8 199 227 5 198 228 6 207 238 10 211 238 11 209 236 11 206 233 16 204 232 8 205 231 10 206 233 8 200 228 4 204 232 10 203 229 6 203 230 5 202 230 5 206 238 5 213 242 10 206 234 10 195 225 3 201 231 11 204 230 11 205 226 9 212 237 11 209 236 9 206 231 5 206 232 9 205 234 6 206 234 9 207 235 11 208 237 7 203 234 6 198 225 8 196 223 4 202 230 5 208 234 13 206 232 13 208 234 13 206 233 14 200 230 8 198 225 6 200 228 6 203 230 11 202 229 13 196 223 4 199 227 5 205 232 13 207 233 12 198 224 5 200 228 4 203 231 7 199 227 5 202 228 9 208 233 7 217 240 10 220 242 19 216 244 9 216 244 12 212 238 15 211 239 4 212 240 7 208 235 6 211 239 7 211 239 7 212 241 9 204 232 8 200 228 6 202 229 4 203 230 3 207 234 7 216 241 15 217 241 9 209 238 6 211 239 7 218 244 13 214 241 12 209 236 9 206 233 6 209 237 12 209 237 13 209 238 10 209 236 7 212 239 14 212 239 10 211 237 14 207 233 10 210 235 9 214 240 9 205 233 8 205 229 13 212 235 9 216 242 10 220 246 17 219 244 20 217 242 16 213 241 16 211 238 13 214 240 11 219 245 22 215 242 17 213 239 10 216 241 17 216 242 19 220 245 21 217 245 13 213 241 9 213 238 12 211 236 12 212 239 10 212 240 7 207 233 10 213 240 13 217 243 11 218 244 12 222 246 12 216 243 6 220 246 15 219 245 14 215 240 17 217 242 18 213 240 11 214 241 14 209 234 8 210 235 11 214 238 6 220 241 14 222 245 19 219 245 16 219 243 7 219 242 12 215 241 10 217 243 11 217 240 12 220 243 15 220 246 15 216 244 12 214 241 12 217 245 10 215 240 14 217 241 9 216 240 8 
221 242 15 222 245 7 222 244 11 224 248 16 221 245 9 221 246 5 221 247 15 216 242 13 214 238 6 217 242 3 216 236 15 
221 246 31 221 247 15 222 247 8 219 244 5 218 243 19 217 243 12 214 241 6 225 249 13 226 250 16 223 246 16 223 246 10 218 241 11 216 239 9 212 238 6 218 243 20 213 241 9 209 236 9 223 247 15 223 246 20 219 242 16 215 241 10 221 244 18 224 247 21 220 248 15 219 245 16 224 247 19 228 251 25 223 246 18 218 244 15 216 242 11 212 237 13 213 239 18 213 240 11 217 243 12 215 241 9 215 241 10 217 242 18 213 239 8 215 241 10 216 242 13 214 240 11 212 238 15 211 238 13 213 241 9 215 242 13 210 236 13 207 233 2 214 240 9 218 243 19 214 241 12 216 244 12 216 243 14 212 239 10 216 243 16 216 242 21 217 246 18 214 241 12 214 239 13 213 239 8 216 244 11 217 244 17 217 240 12 211 233 10 209 236 9 216 241 15 214 239 15 209 234 10 209 235 12 216 243 14 213 240 11 209 238 10 205 234 6 206 232 9 209 236 7 211 238 11 206 234 9 204 231 6 214 242 10 211 239 7 208 235 6 210 235 12 207 231 11 209 236 9 204 230 7 201 227 6 195 220 5 190 216 5 204 232 8 211 238 11 210 238 6 211 237 8 207 232 8 207 234 9 209 236 9 209 236 9 216 240 22 213 241 9 218 246 14 216 244 9 208 236 3 209 236 9 213 240 13 215 240 16 207 232 8 210 234 14 209 236 7 210 238 6 209 236 7 204 231 6 199 227 2 199 227 3 197 223 10 203 229 10 201 228 3 206 232 9 207 235 11 209 238 10 208 237 9 205 232 5 207 234 7 207 236 8 207 233 12 207 233 10 206 235 5 207 236 8 205 231 8 202 228 5 208 235 10 219 246 17 213 238 12 206 233 6 203 231 6 205 232 5 209 235 12 213 241 16 211 240 12 209 236 7 212 239 10 208 236 11 206 234 9 207 234 7 204 229 5 205 231 8 196 223 6 199 229 9 208 239 11 206 237 11 202 235 8 206 237 11 211 238 9 212 238 9 199 227 5 204 230 11 204 235 10 203 236 7 199 231 8 200 232 7 200 232 7 202 234 9 199 230 5 206 234 9 203 234 8 206 238 7 199 230 2 195 227 2 188 223 5 187 222 8 197 232 6 200 232 9 196 231 5 193 227 6 195 227 6 199 231 10 190 223 8 187 220 5 201 232 7 202 232 14 201 231 9 202 233 7 193 225 4 186 219 6 187 221 3 192 226 5 189 224 6 192 226 5 192 226 7 193 227 9 187 222 8 188 223 5 193 227 6 193 224 6 188 218 8 189 222 7 198 230 7 199 229 9 
204 231 12 205 233 8 197 227 7 190 219 3 198 228 8 199 231 10 199 227 3 198 230 9 201 236 12 198 228 8 182 210 4 182 212 4 198 225 8 195 225 7 197 228 2 201 232 6 202 233 5 198 231 4 204 236 13 205 236 10 208 239 14 197 231 12 189 224 6 184 219 5 185 212 11 196 222 13 200 232 7 198 230 7 202 229 10 201 231 13 183 216 3 188 223 5 200 235 8 198 230 5 194 229 5 196 231 5 201 233 8 197 232 6 187 222 8 188 223 5 195 227 2 199 230 2 206 238 7 203 234 8 206 234 9 199 230 5 202 234 9 200 232 7 200 232 7 199 231 8 203 236 7 204 235 10 204 230 11 199 227 5 212 238 9 211 238 9 206 237 11 202 235 8 206 237 11 208 239 11 199 229 9 196 223 6 205 231 8 204 229 5 207 234 7 206 234 9 208 236 11 212 239 10 209 236 7 211 240 12 213 241 16 209 235 12 205 232 5 203 231 6 206 233 6 213 238 12 219 246 17 208 235 10 202 228 5 205 231 8 207 236 8 206 235 5 207 233 10 207 233 12 207 236 8 207 234 7 205 232 5 208 237 9 209 238 10 207 235 11 206 232 9 201 228 3 203 229 10 197 223 10 199 227 3 199 227 2 204 231 6 209 236 7 210 238 6 209 236 7 210 234 14 207 232 8 215 240 16 213 240 13 209 236 9 208 236 3 216 244 9 218 246 14 213 241 9 216 240 22 209 236 9 209 236 9 207 234 9 207 232 8 211 237 8 210 238 6 211 238 11 204 232 8 190 216 5 195 220 5 201 227 6 204 230 7 209 236 9 207 231 11 210 235 12 208 235 6 211 239 7 214 242 10 204 231 6 206 234 9 211 238 11 209 236 7 206 232 9 205 234 6 209 238 10 213 240 11 216 243 14 209 235 12 209 234 10 214 239 15 216 241 15 209 236 9 211 233 10 217 240 12 217 244 17 216 244 11 213 239 8 214 239 13 214 241 12 217 246 18 216 242 21 216 243 16 212 239 10 216 243 14 216 244 12 214 241 12 218 243 19 214 240 9 207 233 2 210 236 13 215 242 13 213 241 9 211 238 13 212 238 15 214 240 11 216 242 13 215 241 10 213 239 8 217 242 18 215 241 10 215 241 9 217 243 12 213 240 11 213 239 18 212 237 13 216 242 11 218 244 15 223 246 18 228 251 25 224 247 19 219 245 16 220 248 15 224 247 21 221 244 18 215 241 10 219 242 16 223 246 20 223 247 15 209 236 9 213 241 9 218 243 20 212 238 6 216 239 9 218 241 11 223 246 10 
223 246 16 226 250 16 222 249 12 214 240 8 216 242 11 220 243 17 219 243 7 222 247 8 223 247 13 215 240 17 
215 240 27 217 242 16 223 250 15 225 249 17 223 246 8 221 245 13 214 240 9 213 241 9 220 247 10 222 249 14 225 250 11 221 245 9 224 248 16 218 245 10 214 240 8 213 240 5 216 243 14 221 244 16 221 244 16 222 248 17 216 242 10 217 240 10 216 242 11 218 246 11 223 246 16 219 246 11 220 246 14 216 241 15 216 242 10 220 244 10 213 237 5 213 238 12 218 242 10 213 239 8 211 237 8 210 236 13 216 243 16 216 243 14 220 247 12 223 248 7 222 247 6 216 242 10 210 237 10 210 239 7 214 243 13 219 246 21 218 245 8 217 244 9 218 244 15 214 241 16 214 241 12 212 239 10 205 231 8 205 231 10 208 234 15 214 240 21 216 244 9 214 240 9 214 240 8 213 242 12 213 241 8 218 244 15 219 242 16 211 239 6 217 243 14 217 243 14 210 235 9 204 228 8 210 235 11 208 234 11 210 237 12 213 240 11 212 239 10 211 238 9 212 239 12 216 244 12 210 237 10 210 237 8 214 241 16 213 239 18 213 241 8 210 237 10 208 235 8 210 237 12 213 240 11 205 231 10 206 234 10 211 240 8 210 237 12 213 240 11 219 245 14 213 239 10 204 230 7 203 229 8 211 239 6 214 240 8 209 239 5 211 238 13 215 243 10 217 245 12 213 239 18 210 235 12 215 241 12 218 244 13 214 240 11 205 231 0 211 238 9 214 241 16 212 239 12 208 235 10 199 224 8 199 226 10 203 231 9 200 231 6 199 232 3 206 237 11 210 239 11 209 236 9 206 232 9 205 232 5 210 240 4 212 242 8 212 241 9 209 237 13 213 241 19 210 238 13 206 233 6 207 235 10 213 240 11 214 242 10 205 234 6 199 227 5 210 237 10 211 240 10 208 240 9 210 237 12 211 240 12 208 239 11 206 238 13 206 236 14 212 240 16 213 242 14 206 237 9 199 229 9 201 229 7 212 239 12 210 239 11 201 234 7 202 234 9 207 235 11 208 237 9 200 232 7 200 227 8 198 228 8 197 228 13 200 231 13 195 226 9 197 229 6 202 237 11 201 236 10 208 239 13 207 235 10 208 237 7 205 235 15 201 232 14 199 231 8 191 220 4 198 228 8 197 231 12 191 225 4 195 227 4 201 233 10 194 226 5 183 218 2 189 222 7 199 229 9 203 233 11 200 230 8 197 229 6 195 229 10 186 219 8 185 218 7 186 221 3 189 224 6 191 226 10 187 224 7 186 223 4 188 224 2 188 224 4 191 224 9 194 225 8 192 222 2 196 228 7 
205 237 12 204 236 13 201 232 7 202 230 6 199 229 7 195 227 4 194 229 5 201 234 7 198 233 6 202 234 13 198 232 13 192 227 9 194 225 7 196 223 4 193 227 8 201 233 8 203 235 10 194 229 2 190 224 3 189 225 3 192 228 6 196 229 14 198 232 14 184 217 6 181 215 7 182 216 7 189 219 7 199 229 7 203 234 8 202 232 12 203 233 13 201 232 7 188 223 7 182 216 5 191 225 7 203 235 12 195 229 8 190 224 3 199 230 12 198 228 8 191 220 4 199 231 8 201 232 14 205 235 15 208 237 7 207 235 10 208 239 13 201 236 10 202 237 11 197 229 6 195 226 9 200 231 13 197 228 13 198 228 8 200 227 8 200 232 7 208 237 9 207 235 11 202 234 9 201 234 7 210 239 11 212 239 12 201 229 7 199 229 9 206 237 9 213 242 14 212 240 16 206 236 14 206 238 13 208 239 11 211 240 12 210 237 12 208 240 9 211 240 10 210 237 10 199 227 5 205 234 6 214 242 10 213 240 11 207 235 10 206 233 6 210 238 13 213 241 19 209 237 13 212 241 9 212 242 8 210 240 4 205 232 5 206 232 9 209 236 9 210 239 11 206 237 11 199 232 3 200 231 6 203 231 9 199 226 10 199 224 8 208 235 10 212 239 12 214 241 16 211 238 9 205 231 0 214 240 11 218 244 13 215 241 12 210 235 12 213 239 18 217 245 12 215 243 10 211 238 13 209 239 5 214 240 8 211 239 6 203 229 8 204 230 7 213 239 10 219 245 14 213 240 11 210 237 12 211 240 8 206 234 10 205 231 10 213 240 11 210 237 12 208 235 8 210 237 10 213 241 8 213 239 18 214 241 16 210 237 8 210 237 10 216 244 12 212 239 12 211 238 9 212 239 10 213 240 11 210 237 12 208 234 11 210 235 11 204 228 8 210 235 9 217 243 14 217 243 14 211 239 6 219 242 16 218 244 15 213 241 8 213 242 12 214 240 8 214 240 9 216 244 9 214 240 21 208 234 15 205 231 10 205 231 8 212 239 10 214 241 12 214 241 16 218 244 15 217 244 9 218 245 8 219 246 21 214 243 13 210 239 7 210 237 10 216 242 10 222 247 6 223 248 7 220 247 12 216 243 14 216 243 16 210 236 13 211 237 8 213 239 8 218 242 10 213 238 12 213 237 5 220 244 10 216 242 10 216 241 15 220 246 14 219 246 11 223 246 16 218 246 11 216 242 11 217 240 10 216 242 10 222 248 17 221 244 16 221 244 16 216 243 14 213 240 5 214 240 8 
218 245 10 224 248 16 221 245 9 225 250 11 222 249 14 220 247 10 214 240 9 213 239 10 221 245 13 224 247 9 224 247 17 223 249 17 217 243 14 210 232 10 
216 239 25 213 239 7 220 244 12 228 249 20 225 249 13 223 247 13 222 249 12 219 246 7 217 245 12 219 247 15 219 243 9 217 241 9 221 246 22 221 247 16 219 244 3 216 242 10 217 243 12 218 243 20 216 242 10 214 241 6 211 237 8 213 239 10 213 238 12 212 240 7 224 247 17 222 248 16 219 247 12 219 246 17 218 245 10 220 244 8 218 243 4 213 239 10 221 243 12 224 248 16 220 246 14 212 240 7 209 237 12 215 242 15 223 248 25 224 245 16 220 244 8 212 238 6 207 234 7 206 234 9 207 235 11 210 236 15 212 238 9 215 240 14 216 242 13 213 239 8 212 238 15 211 237 14 208 234 5 207 232 6 204 231 6 208 233 7 210 238 6 213 239 8 210 235 11 210 237 12 211 239 4 215 241 12 216 240 20 216 245 15 221 247 18 223 247 15 220 243 17 216 238 15 212 238 7 208 233 7 206 231 5 211 236 13 209 236 7 211 238 13 211 236 10 216 239 9 216 238 15 211 237 8 208 235 6 210 236 13 213 240 15 209 236 11 209 238 8 212 241 13 215 244 12 212 239 12 212 239 10 211 238 9 208 236 11 211 237 16 216 242 13 214 240 9 214 241 12 210 237 12 210 237 8 212 237 13 212 239 10 209 236 11 211 238 13 213 240 15 211 237 16 203 230 5 205 232 7 214 242 10 221 247 16 211 238 9 205 232 3 211 238 9 209 236 9 204 231 6 204 230 7 198 223 8 199 226 7 198 228 6 197 230 1 201 231 9 208 234 13 209 235 12 199 228 12 192 223 8 198 230 9 209 241 10 210 241 13 203 234 9 206 237 12 210 239 11 207 236 8 210 238 16 209 234 8 210 237 12 203 234 8 194 224 2 203 234 8 206 237 9 206 238 5 211 239 7 209 236 11 206 237 11 202 234 3 204 232 7 204 230 9 203 231 9 205 235 13 203 231 9 200 232 7 209 237 15 203 231 7 201 232 6 195 226 1 196 223 6 204 230 9 209 236 7 206 237 9 204 232 10 198 225 9 199 226 7 190 219 3 191 225 7 196 233 5 199 239 5 206 239 8 214 245 20 207 238 12 197 231 10 195 230 4 198 231 4 196 227 9 198 230 7 197 232 6 193 225 4 193 225 4 202 232 12 198 229 12 189 222 9 189 222 7 197 228 10 198 233 7 200 232 9 198 230 5 194 229 5 189 223 5 192 226 7 192 224 3 190 220 8 188 218 6 186 219 8 185 220 6 189 223 4 194 229 3 197 232 6 201 233 10 198 230 9 195 225 7 197 229 6 196 228 7 
198 228 6 200 230 8 194 226 5 192 226 5 191 227 5 197 232 6 197 232 8 190 224 6 180 214 3 181 217 5 195 227 6 196 227 2 194 229 11 202 237 11 200 232 11 192 223 6 187 220 7 190 226 6 190 226 2 191 226 10 190 224 6 191 224 9 191 225 4 188 223 5 188 223 5 199 235 3 206 239 10 202 234 11 198 233 9 195 228 13 187 222 6 190 225 9 200 231 14 202 232 14 193 224 6 192 226 5 197 232 5 198 230 7 196 227 9 198 231 4 195 230 4 197 231 10 207 238 12 214 245 20 206 239 8 199 239 5 196 233 5 191 225 7 190 219 3 199 226 7 198 225 9 204 232 10 206 237 9 209 236 7 204 230 9 196 223 6 195 226 1 201 232 6 203 231 7 209 237 15 200 232 7 203 231 9 205 235 13 203 231 9 204 230 9 204 232 7 202 234 3 206 237 11 209 236 11 211 239 7 206 238 5 206 237 9 203 234 8 194 224 2 203 234 8 210 237 12 209 234 8 210 238 16 207 236 8 210 239 11 206 237 12 203 234 9 210 241 13 209 241 10 198 230 9 192 223 8 199 228 12 209 235 12 208 234 13 201 231 9 197 230 1 198 228 6 199 226 7 198 223 8 204 230 7 204 231 6 209 236 9 211 238 9 205 232 3 211 238 9 221 247 16 214 242 10 205 232 7 203 230 5 211 237 16 213 240 15 211 238 13 209 236 11 212 239 10 212 237 13 210 237 8 210 237 12 214 241 12 214 240 9 216 242 13 211 237 16 208 236 11 211 238 9 212 239 10 212 239 12 215 244 12 212 241 13 209 238 8 209 236 11 213 240 15 210 236 13 208 235 6 211 237 8 216 238 15 216 239 9 211 236 10 211 238 13 209 236 7 211 236 13 206 231 5 208 233 7 212 238 7 216 238 15 220 243 17 223 247 15 221 247 18 216 245 15 216 240 20 215 241 12 211 239 4 210 237 12 210 235 11 213 239 8 210 238 6 208 233 7 204 231 6 207 232 6 208 234 5 211 237 14 212 238 15 213 239 8 216 242 13 215 240 14 212 238 9 210 236 15 207 235 11 206 234 9 207 234 7 212 238 6 220 244 8 224 245 16 223 248 25 215 242 15 209 237 12 212 240 7 220 246 14 224 248 16 221 243 12 213 239 10 218 243 4 220 244 8 218 245 10 219 246 17 219 247 12 222 248 16 224 247 17 212 240 7 213 238 12 213 239 10 211 237 8 214 241 6 216 242 10 218 243 20 217 243 12 216 242 10 219 244 3 221 247 16 221 246 22 217 241 9 219 243 9 
219 247 15 217 245 12 221 244 4 222 249 12 221 247 15 225 249 13 226 249 21 218 244 12 215 239 7 212 230 6 
224 248 30 221 245 11 221 240 11 223 246 8 221 246 7 215 242 3 219 243 7 223 246 6 216 243 8 217 243 12 220 243 7 219 242 6 214 240 11 216 242 11 223 247 11 222 246 12 219 245 13 215 241 9 215 242 7 216 240 4 216 240 8 215 240 16 215 241 12 212 238 6 215 243 11 215 243 10 216 243 16 215 243 19 215 243 8 218 245 6 215 241 10 210 237 12 215 240 14 219 245 14 224 248 14 214 237 9 206 230 10 213 239 10 218 244 12 220 246 15 215 241 12 214 240 8 213 238 12 209 236 9 208 235 6 213 238 15 213 239 10 211 236 13 211 237 6 210 236 5 212 239 12 215 243 11 216 243 8 214 240 8 216 242 11 222 245 17 219 247 14 214 241 6 214 241 16 214 241 16 213 240 15 214 242 10 208 235 6 211 240 12 217 243 12 219 245 14 224 247 17 226 248 25 220 247 12 216 243 6 214 240 8 217 241 9 211 236 10 204 231 4 213 239 8 219 242 14 216 238 15 216 242 11 214 241 12 214 240 9 215 241 9 211 238 11 207 235 3 210 238 13 213 241 8 212 240 7 214 242 9 215 241 12 210 238 5 209 236 9 209 236 7 213 240 13 215 242 15 211 238 11 212 239 10 213 240 11 214 241 14 213 240 11 209 236 9 209 237 5 217 244 15 206 232 9 208 235 18 209 238 10 212 239 10 214 241 14 208 234 13 210 237 10 210 237 10 206 232 11 207 234 9 205 232 7 200 226 5 196 224 2 202 230 6 205 233 8 208 235 10 202 230 5 192 224 3 191 224 9 199 230 12 206 237 12 209 238 10 204 232 10 202 229 10 202 230 6 198 226 4 205 233 9 210 239 11 206 237 11 204 237 6 201 234 5 208 239 11 206 233 14 203 229 8 204 229 6 199 226 1 202 229 12 206 233 14 200 226 5 204 230 9 200 226 3 205 233 8 205 234 4 207 236 8 210 237 12 209 234 10 214 240 21 208 236 14 195 225 3 205 233 8 211 240 12 209 240 14 208 236 11 206 235 7 206 237 11 204 236 11 197 228 11 190 224 5 192 226 7 196 226 4 201 233 8 202 238 8 199 234 7 198 234 4 195 228 1 196 227 10 197 230 15 198 233 6 200 233 6 202 230 8 195 225 7 191 222 7 194 228 10 191 225 6 191 224 9 193 227 8 197 229 8 200 232 9 196 231 7 194 228 7 195 227 2 198 229 4 199 228 12 200 230 12 199 230 5 197 229 4 201 233 10 201 233 8 205 236 8 201 232 6 191 225 4 195 226 8 204 235 10 
200 230 10 200 230 8 193 224 6 193 224 6 192 223 5 193 225 2 195 227 4 192 221 5 187 218 1 184 219 1 190 221 4 196 228 5 196 228 3 193 224 6 198 230 9 205 236 11 201 231 9 196 227 2 203 236 9 195 230 4 194 229 3 202 234 13 202 231 15 194 226 5 189 223 4 194 231 4 198 235 7 202 234 11 199 231 10 191 224 9 188 221 8 188 222 4 195 228 13 191 220 8 196 223 6 203 231 6 199 232 3 199 234 7 197 230 15 196 227 10 195 228 1 198 234 4 199 234 7 202 238 8 201 233 8 196 226 4 192 226 7 190 224 5 197 228 11 204 236 11 206 237 11 206 235 7 208 236 11 209 240 14 211 240 12 205 233 8 195 225 3 208 236 14 214 240 21 209 234 10 210 237 12 207 236 8 205 234 4 205 233 8 200 226 3 204 230 9 200 226 5 206 233 14 202 229 12 199 226 1 204 229 6 203 229 8 206 233 14 208 239 11 201 234 5 204 237 6 206 237 11 210 239 11 205 233 9 198 226 4 202 230 6 202 229 10 204 232 10 209 238 10 206 237 12 199 230 12 191 224 9 192 224 3 202 230 5 208 235 10 205 233 8 202 230 6 196 224 2 200 226 5 205 232 7 207 234 9 206 232 11 210 237 10 210 237 10 208 234 13 214 241 14 212 239 10 209 238 10 208 235 18 206 232 9 217 244 15 209 237 5 209 236 9 213 240 11 214 241 14 213 240 11 212 239 10 211 238 11 215 242 15 213 240 13 209 236 7 209 236 9 210 238 5 215 241 12 214 242 9 212 240 7 213 241 8 210 238 13 207 235 3 211 238 11 215 241 9 214 240 9 214 241 12 216 242 11 216 238 15 219 242 14 213 239 8 204 231 4 211 236 10 217 241 9 214 240 8 216 243 6 220 247 12 226 248 25 224 247 17 219 245 14 217 243 12 211 240 12 208 235 6 214 242 10 213 240 15 214 241 16 214 241 16 214 241 6 219 247 14 222 245 17 216 242 11 214 240 8 216 243 8 215 243 11 212 239 12 210 236 5 211 237 6 211 236 13 213 239 10 213 238 15 208 235 6 209 236 9 213 238 12 214 240 8 215 241 12 220 246 15 218 244 12 213 239 10 206 230 10 214 237 9 224 248 14 219 245 14 215 240 14 210 237 12 215 241 10 218 245 6 215 243 8 215 243 19 216 243 16 215 243 10 215 243 11 212 238 6 215 241 12 215 240 16 216 240 8 216 240 4 215 242 7 215 241 9 219 245 13 222 246 12 223 247 11 216 242 11 214 240 11 219 242 6 
220 243 7 217 243 12 216 243 8 224 244 5 220 244 8 215 242 5 221 246 7 223 246 10 219 240 11 221 243 10 218 239 10 
226 247 30 225 248 8 222 243 14 222 244 13 228 250 17 228 250 17 221 243 10 220 242 11 225 248 12 219 244 5 224 244 7 220 239 10 213 236 10 219 242 12 223 245 14 223 247 11 221 245 13 216 243 4 219 245 14 216 239 11 219 243 9 214 240 8 215 241 12 215 241 9 215 243 8 216 243 4 218 242 10 220 243 13 219 245 16 218 244 13 216 242 13 211 237 6 214 242 7 216 243 4 220 243 17 218 241 11 216 239 11 213 239 10 217 241 9 221 245 11 221 247 18 215 241 12 216 242 13 218 243 19 217 241 9 212 238 6 216 243 14 218 246 13 220 247 18 217 242 19 208 235 8 208 237 9 214 239 13 214 240 9 215 243 10 217 243 11 224 247 17 219 245 16 212 239 10 210 238 6 213 242 12 219 248 20 213 242 10 211 238 11 212 240 15 216 244 9 218 245 10 222 248 19 219 245 14 213 238 12 217 242 16 222 248 19 220 243 15 211 237 8 208 235 6 214 240 11 216 243 8 215 243 11 220 244 26 218 241 13 211 239 7 213 240 15 207 232 8 210 235 9 211 237 6 208 232 14 209 236 9 219 247 25 220 246 23 210 238 6 211 237 14 214 242 10 219 246 19 214 241 16 208 235 8 212 238 17 214 242 10 214 243 15 206 234 9 209 236 9 213 239 16 212 239 10 211 238 9 215 243 18 210 237 12 211 238 13 211 238 13 213 241 9 212 240 8 214 239 13 214 239 13 212 238 7 203 229 6 195 220 7 199 224 8 207 234 5 215 242 13 209 237 13 205 233 11 204 232 7 201 228 11 208 234 11 214 242 10 211 239 7 206 233 6 210 236 13 206 234 9 210 241 16 213 241 16 206 235 7 206 234 10 206 236 16 204 237 10 206 234 10 211 237 14 201 234 7 197 228 3 203 231 7 211 238 11 209 238 8 200 231 5 202 230 8 202 230 6 202 232 10 211 237 14 212 240 15 214 242 10 219 246 21 214 241 12 206 233 4 205 234 4 210 239 11 209 240 15 209 240 14 205 240 14 196 233 6 201 237 7 208 240 6 205 233 8 199 227 5 195 224 10 189 223 4 192 226 7 199 231 6 202 231 3 204 232 10 209 237 13 207 234 9 195 230 4 204 235 7 212 241 11 207 238 10 198 230 7 198 230 9 193 227 6 193 227 6 201 234 7 202 233 7 200 231 6 195 227 6 192 227 3 197 229 6 198 228 6 199 230 5 199 233 12 205 236 10 204 237 6 201 236 9 200 235 11 202 232 12 202 232 10 193 230 3 195 230 4 
201 233 8 200 230 8 195 225 3 189 219 9 196 226 14 200 230 8 202 230 6 201 229 7 194 224 6 196 226 6 197 227 7 195 225 7 201 231 9 203 234 8 201 229 4 197 229 4 205 235 15 208 236 14 206 237 12 205 237 14 197 232 6 201 236 10 208 239 24 207 235 11 199 230 5 193 227 8 193 228 2 197 229 4 204 234 14 205 234 6 202 233 7 193 225 4 194 225 8 197 228 13 199 231 10 212 241 11 214 242 10 207 236 8 197 229 6 207 234 9 209 237 13 204 232 10 202 231 3 199 231 6 192 226 7 189 223 4 195 224 10 199 227 5 205 233 8 208 240 6 201 237 7 196 233 6 205 240 14 209 240 14 209 240 15 210 239 11 205 234 4 206 233 4 214 241 12 219 246 21 214 242 10 212 240 15 211 237 14 202 232 10 202 230 6 202 230 8 200 231 5 209 238 8 211 238 11 203 231 7 197 228 3 201 234 7 211 237 14 206 234 10 204 237 10 206 236 16 206 234 10 206 235 7 213 241 16 210 241 16 206 234 9 210 236 13 206 233 6 211 239 7 214 242 10 208 234 11 201 228 11 204 232 7 205 233 11 209 237 13 215 242 13 207 234 5 199 224 8 195 220 7 203 229 6 212 238 7 214 239 13 214 239 13 212 240 8 213 241 9 211 238 13 211 238 13 210 237 12 215 243 18 211 238 9 212 239 10 213 239 16 209 236 9 206 234 9 214 243 15 214 242 10 212 238 17 208 235 8 214 241 16 219 246 19 214 242 10 211 237 14 210 238 6 220 246 23 219 247 25 209 236 9 208 232 14 211 237 6 210 235 9 207 232 8 213 240 15 211 239 7 218 241 13 220 244 26 215 243 11 216 243 8 214 240 11 208 235 6 211 237 8 220 243 15 222 248 19 217 242 16 213 238 12 219 245 14 222 248 19 218 245 10 216 244 9 212 240 15 211 238 11 213 242 10 219 248 20 213 242 12 210 238 6 212 239 10 219 245 16 224 247 17 217 243 11 215 243 10 214 240 9 214 239 13 208 237 9 208 235 8 217 242 19 220 247 18 218 246 13 216 243 14 212 238 6 217 241 9 218 243 19 216 242 13 215 241 12 221 247 18 221 245 11 217 241 9 213 239 10 216 239 11 218 241 11 220 243 17 216 243 4 214 242 7 211 237 6 216 242 13 218 244 13 219 245 16 220 243 13 218 242 10 216 243 4 215 243 8 215 241 9 215 241 12 214 240 8 219 243 9 216 239 11 219 245 14 216 243 4 221 245 13 223 247 11 223 245 14 
219 242 12 213 236 10 220 239 10 224 244 7 219 244 5 225 248 12 219 242 12 220 242 9 228 250 17 228 251 15 221 243 10 224 243 13 228 248 11 219 240 13 
224 245 26 222 245 9 224 247 11 222 246 10 224 246 13 228 247 15 222 241 9 219 241 10 220 244 10 226 250 16 226 246 9 217 240 4 215 241 10 220 246 15 226 248 17 223 245 14 218 244 13 220 247 10 223 248 7 217 239 8 219 240 11 219 243 11 219 246 9 221 246 22 224 246 13 227 250 12 224 247 19 221 246 7 221 246 4 221 247 16 218 244 21 217 245 12 218 245 8 222 248 17 221 245 13 219 243 7 218 244 13 218 245 20 219 245 13 219 240 11 214 240 9 222 246 10 220 244 8 223 245 22 224 249 23 221 247 16 214 240 8 218 242 8 219 245 13 223 248 24 212 240 8 209 236 7 216 243 14 215 241 10 211 236 10 212 240 8 217 246 8 220 246 17 220 245 21 211 237 8 212 239 10 219 246 19 218 243 17 212 239 10 217 240 10 216 242 10 218 244 12 221 247 18 217 244 17 212 240 8 215 241 9 219 246 17 220 246 17 217 244 9 215 238 8 213 239 7 212 239 10 211 238 9 219 245 14 221 247 15 216 245 13 213 242 10 213 240 11 211 237 6 211 237 8 212 239 12 209 236 7 213 239 7 212 239 10 212 238 7 212 238 7 209 235 6 214 241 16 215 241 20 208 234 15 209 234 10 215 241 9 212 239 14 210 237 8 208 235 6 206 233 6 213 240 11 213 242 14 214 242 20 210 236 13 208 235 8 210 237 10 214 242 10 214 242 10 210 237 10 208 235 8 211 238 11 210 237 12 210 237 10 209 236 9 206 233 8 210 237 12 207 233 10 207 235 10 203 235 4 200 228 3 199 226 7 208 236 14 209 237 12 210 239 11 206 234 12 206 236 16 207 238 13 212 240 16 214 241 16 205 231 8 208 232 16 207 232 9 210 235 11 213 240 13 208 237 9 205 230 6 205 232 7 207 236 8 210 239 11 209 237 13 203 231 6 198 229 4 195 229 8 207 239 8 208 237 9 212 239 22 213 241 19 208 237 5 212 241 13 211 240 10 211 237 16 202 232 10 208 236 11 209 238 8 198 230 5 195 231 11 202 237 11 207 239 8 202 233 8 197 229 8 195 231 7 200 234 13 202 232 14 199 229 7 200 232 11 209 240 15 211 242 14 209 240 15 204 239 12 202 235 6 210 238 13 204 234 12 195 230 3 193 227 8 193 227 8 195 232 5 201 234 7 205 235 13 203 234 8 201 233 8 196 231 7 200 232 7 201 232 7 201 233 12 202 234 9 198 233 6 197 232 6 201 233 8 204 237 10 204 237 8 198 230 5 199 235 5 
201 233 8 195 226 8 194 226 5 195 227 6 198 228 6 201 229 4 200 226 5 197 228 3 204 237 6 203 239 7 200 237 9 201 239 8 204 240 8 210 241 13 207 235 10 198 233 7 203 235 10 209 240 14 211 242 17 203 235 10 199 234 7 200 235 8 203 235 14 204 235 9 199 230 5 192 223 5 199 230 13 204 236 11 206 237 11 201 233 10 194 233 5 190 225 7 192 226 5 197 230 1 207 238 13 210 241 13 205 236 8 207 238 12 212 241 13 211 242 14 209 240 15 200 232 11 199 229 7 202 232 14 200 234 13 195 231 7 197 229 8 202 233 8 207 239 8 202 237 11 195 231 11 198 230 5 209 238 8 208 236 11 202 232 10 211 237 16 211 240 10 212 241 13 208 237 5 213 241 19 212 239 22 208 237 9 207 239 8 195 229 8 198 229 4 203 231 6 209 237 13 210 239 11 207 236 8 205 232 7 205 230 6 208 237 9 213 240 13 210 235 11 207 232 9 208 232 16 205 231 8 214 241 16 212 240 16 207 238 13 206 236 16 206 234 12 210 239 11 209 237 12 208 236 14 199 226 7 200 228 3 203 235 4 207 235 10 207 233 10 210 237 12 206 233 8 209 236 9 210 237 10 210 237 12 211 238 11 208 235 8 210 237 10 214 242 10 214 242 10 210 237 10 208 235 8 210 236 13 214 242 20 213 242 14 213 240 11 206 233 6 208 235 6 210 237 8 212 239 14 215 241 9 209 234 10 208 234 15 215 241 20 214 241 16 209 235 6 212 238 7 212 238 7 212 239 10 213 239 7 209 236 7 212 239 12 211 237 8 211 237 6 213 240 11 213 242 10 216 245 13 221 247 15 219 245 14 211 238 9 212 239 10 213 239 7 215 238 8 217 244 9 220 246 17 219 246 17 215 241 9 212 240 8 217 244 17 221 247 18 218 244 12 216 242 10 217 240 10 212 239 10 218 243 17 219 246 19 212 239 10 211 237 8 220 245 21 220 246 17 217 246 8 212 240 8 211 236 10 215 241 10 216 243 14 209 236 7 212 240 8 223 248 24 219 245 13 218 242 8 214 240 8 221 247 16 224 249 23 223 245 22 220 244 8 222 246 10 214 240 9 219 240 11 219 245 13 218 245 20 218 244 13 219 243 7 221 245 13 222 248 17 218 245 8 216 244 12 217 245 20 221 247 16 222 245 5 221 245 9 224 247 17 227 250 10 224 246 13 221 246 20 220 247 12 220 244 12 218 241 15 215 239 7 223 248 9 220 248 6 218 244 13 225 244 14 226 248 17 
221 247 18 216 242 11 218 241 5 224 247 11 225 249 15 219 243 11 221 240 10 221 240 8 228 247 15 224 246 13 222 245 9 224 247 11 222 245 5 219 237 11 
229 250 31 221 244 8 226 245 13 232 251 21 226 246 7 226 245 5 229 249 10 223 245 14 222 247 6 223 247 13 226 246 11 220 239 7 214 236 5 222 243 14 225 246 21 226 249 21 224 246 13 223 246 10 223 246 6 216 240 4 213 236 8 213 239 10 219 245 16 221 249 17 218 244 13 221 244 16 222 248 16 224 248 12 224 246 13 223 247 11 220 246 15 220 244 8 220 243 13 220 243 17 219 244 18 219 246 17 224 246 24 218 241 13 218 244 15 221 246 20 219 244 18 216 242 10 222 246 12 216 238 15 217 241 23 224 248 32 223 249 20 218 244 13 217 243 11 213 239 10 208 233 7 214 240 21 217 244 19 213 240 5 212 238 7 216 244 12 217 244 19 214 240 9 213 239 16 213 239 18 209 236 7 215 241 12 216 240 20 215 241 18 219 242 12 221 246 22 223 246 20 224 248 16 220 243 15 218 241 11 217 243 11 214 240 11 214 243 13 217 245 10 218 244 13 215 241 9 215 241 12 210 238 6 212 240 8 222 249 24 215 241 20 212 237 11 218 241 13 214 237 9 210 237 8 211 243 12 210 239 9 213 240 11 216 243 8 216 242 11 214 239 13 216 241 17 216 243 14 215 242 13 214 240 17 211 238 13 216 244 11 215 242 13 213 240 13 212 239 12 209 236 11 210 237 8 211 238 13 214 242 17 213 239 16 210 237 10 213 241 9 213 241 8 216 243 16 213 239 16 209 236 7 212 239 14 209 236 7 209 236 9 216 243 14 213 240 15 208 234 11 206 233 6 209 236 9 206 234 12 205 230 4 202 229 4 201 229 5 205 233 9 213 238 15 203 227 9 194 219 6 194 224 2 206 233 6 215 244 16 212 241 9 212 242 8 209 238 8 214 242 10 219 247 14 216 243 18 214 241 16 211 238 11 209 236 9 212 239 14 211 240 12 212 240 16 210 239 11 199 227 5 202 230 6 205 233 9 205 232 13 210 238 14 208 236 12 208 236 12 213 242 14 210 237 8 206 234 2 210 237 10 209 237 12 197 227 5 195 224 8 202 232 10 209 240 14 209 240 15 209 237 13 198 231 4 201 231 9 205 235 13 193 229 5 191 229 4 206 238 13 210 241 15 209 240 12 208 241 14 204 236 5 207 235 10 207 238 12 208 241 14 197 229 4 187 221 2 185 220 6 191 227 3 198 233 6 207 240 11 208 241 14 201 232 7 197 228 3 197 227 7 199 231 10 200 233 6 202 235 6 200 233 6 204 237 10 204 237 8 200 233 6 199 231 8 
203 234 16 199 231 6 192 227 1 197 229 4 200 232 9 199 229 7 201 232 6 202 230 6 202 233 8 207 238 13 205 237 14 200 232 9 194 229 3 197 232 5 206 239 10 206 239 8 200 237 9 198 235 7 203 236 9 204 235 9 200 231 6 198 233 7 197 234 7 201 236 9 198 230 7 192 223 6 195 226 11 209 241 18 209 242 11 197 232 5 189 225 5 185 220 2 185 218 5 198 230 7 211 242 16 210 238 13 206 234 9 204 237 6 205 240 13 208 241 12 210 241 15 206 238 13 191 229 4 193 229 5 205 235 13 201 231 9 198 231 4 209 237 13 209 240 15 209 240 14 202 232 10 195 224 8 197 227 5 209 237 12 210 237 10 206 234 2 210 237 8 213 242 14 208 236 12 208 236 12 210 238 14 205 232 13 205 233 9 202 230 6 199 227 5 210 239 11 212 240 16 211 240 12 212 239 14 209 236 9 211 238 11 214 241 16 216 243 18 219 247 14 214 242 10 209 238 8 212 242 8 212 241 9 215 244 16 206 233 6 194 224 2 194 219 6 203 227 9 213 238 15 205 233 9 201 229 5 202 229 4 205 230 4 206 234 12 209 236 9 206 233 6 208 234 11 213 240 15 216 243 14 209 236 9 209 236 7 212 239 14 209 236 7 213 239 16 216 243 16 213 241 8 213 241 9 210 237 10 213 239 16 214 242 17 211 238 13 210 237 8 209 236 11 212 239 12 213 240 13 215 242 13 216 244 11 211 238 13 214 240 17 215 242 13 216 243 14 216 241 17 214 239 13 216 242 11 216 243 8 213 240 11 210 239 9 211 243 12 210 237 8 214 237 9 218 241 13 212 237 11 215 241 20 222 249 24 212 240 8 210 238 6 215 241 12 215 241 9 218 244 13 217 245 10 214 243 13 214 240 11 217 243 11 218 241 11 220 243 15 224 248 16 223 246 20 221 246 22 219 242 12 215 241 18 216 240 20 215 241 12 209 236 7 213 239 18 213 239 16 214 240 9 217 244 19 216 244 12 212 238 7 213 240 5 217 244 19 214 240 21 208 233 7 213 239 10 217 243 11 218 244 13 223 249 20 224 248 32 217 241 23 216 238 15 222 246 12 216 242 10 219 244 18 221 246 20 218 244 15 218 241 13 224 246 24 219 246 17 219 244 18 220 243 17 220 243 13 220 244 8 220 247 12 223 248 9 224 246 13 225 249 13 224 248 14 221 244 16 218 244 15 221 248 19 220 246 17 214 240 9 214 237 9 218 241 3 224 247 9 223 246 10 223 247 11 227 249 18 
224 245 18 223 245 14 215 237 6 221 241 6 224 247 9 223 247 11 222 247 6 223 245 12 227 251 9 225 245 6 226 246 7 230 251 22 224 246 13 221 244 8 222 243 18 
229 250 49 229 252 24 227 250 10 226 249 11 228 248 11 223 246 8 220 243 17 218 244 12 221 245 9 219 246 11 225 249 7 226 246 7 220 243 3 221 244 8 222 243 14 222 246 12 222 246 12 219 243 11 221 245 11 219 243 7 217 240 12 221 244 16 218 241 13 219 243 7 216 242 11 213 240 5 217 243 14 221 248 13 229 249 27 226 249 23 221 246 7 223 242 12 218 239 10 213 239 10 208 234 5 213 240 15 223 249 26 222 245 15 218 239 12 214 243 13 218 244 15 220 247 12 224 247 21 212 237 11 210 236 7 212 239 14 217 244 17 219 245 13 222 246 12 219 243 9 213 237 5 213 238 15 216 242 13 215 242 5 219 242 16 223 247 27 225 246 27 220 246 17 215 241 10 214 241 14 216 241 15 218 241 15 211 236 10 211 238 9 212 239 12 216 242 13 217 243 12 218 243 17 216 239 11 216 242 10 218 245 16 214 240 21 210 237 12 216 243 14 217 243 14 217 243 12 225 248 22 220 243 15 215 240 14 221 245 25 218 241 13 212 238 7 217 243 12 219 245 16 215 240 16 211 238 11 213 242 14 213 241 16 218 244 12 218 245 10 217 243 11 219 244 21 217 243 24 214 241 14 211 238 9 208 235 8 211 238 13 215 243 11 212 239 10 213 240 11 212 239 10 210 238 6 214 240 17 217 245 13 211 239 6 209 236 11 210 237 8 210 236 13 218 244 25 214 240 17 209 236 9 209 236 7 211 239 6 211 237 5 212 238 7 213 239 10 216 241 15 211 236 10 208 234 5 211 239 7 214 240 11 211 239 7 206 235 3 209 236 7 213 238 12 212 237 14 207 232 16 204 232 8 208 235 6 211 241 7 211 240 8 211 240 10 206 234 12 208 234 11 217 243 20 213 240 13 210 239 11 214 241 12 214 241 12 213 241 9 209 238 10 213 242 14 214 242 17 210 237 8 208 236 11 211 239 15 212 240 15 208 237 5 208 236 11 210 239 9 214 241 12 218 245 16 214 243 5 209 241 10 206 239 10 207 239 8 206 237 9 203 234 9 201 234 7 208 241 12 213 242 14 209 241 10 204 235 10 203 234 8 191 225 4 184 219 1 194 225 7 204 235 9 200 232 9 202 234 13 209 240 15 207 238 12 204 235 9 204 235 9 204 236 5 198 230 7 192 228 8 192 226 7 194 228 7 203 235 12 203 235 10 203 236 9 202 235 8 201 232 6 202 234 11 200 232 7 203 236 9 200 232 7 200 232 7 200 233 6 200 231 6 198 230 7 
201 233 10 197 232 6 196 231 5 196 231 4 199 232 3 196 227 2 203 234 9 207 238 12 208 241 12 202 235 8 201 233 8 199 231 6 196 231 5 201 234 5 204 235 7 203 232 4 195 230 4 198 231 4 199 231 6 198 230 9 198 230 5 201 234 7 197 229 4 199 229 9 196 230 9 194 231 3 201 236 9 207 240 13 203 236 7 190 225 7 185 219 8 193 227 8 200 231 6 204 233 5 205 236 11 204 235 9 210 241 15 206 241 14 200 235 9 201 232 7 204 235 9 194 225 7 184 219 1 191 225 4 203 234 8 204 235 10 209 241 10 213 242 14 208 241 12 201 234 7 203 234 9 206 237 9 207 239 8 206 239 10 209 241 10 214 243 5 218 245 16 214 241 12 210 239 9 208 236 11 208 237 5 212 240 15 211 239 15 208 236 11 210 237 8 214 242 17 213 242 14 209 238 10 213 241 9 214 241 12 214 241 12 210 239 11 213 240 13 217 243 20 208 234 11 206 234 12 211 240 10 211 240 8 211 241 7 208 235 6 204 232 8 207 232 16 212 237 14 213 238 12 209 236 7 206 235 3 211 239 7 214 240 11 211 239 7 208 234 5 211 236 10 216 241 15 213 239 10 212 238 7 211 237 5 211 239 6 209 236 7 209 236 9 214 240 17 218 244 25 210 236 13 210 237 8 209 236 11 211 239 6 217 245 13 214 240 17 210 238 6 212 239 10 213 240 11 212 239 10 215 243 11 211 238 13 208 235 8 211 238 9 214 241 14 217 243 24 219 244 21 217 243 11 218 245 10 218 244 12 213 241 16 213 242 14 211 238 11 215 240 16 219 245 16 217 243 12 212 238 7 218 241 13 221 245 25 215 240 14 220 243 15 225 248 22 217 243 12 217 243 14 216 243 14 210 237 12 214 240 21 218 245 16 216 242 10 216 239 11 218 243 17 217 243 12 216 242 13 212 239 12 211 238 9 211 236 10 218 241 15 216 241 15 214 241 14 215 241 10 220 246 17 225 246 27 223 247 27 219 242 16 215 242 5 216 242 13 213 238 15 213 237 5 219 243 9 222 246 12 219 245 13 217 244 17 212 239 14 210 236 7 212 237 11 224 247 21 220 247 12 218 244 15 214 243 13 218 239 12 222 245 15 223 249 26 213 240 15 208 234 5 213 239 10 218 239 10 222 243 14 220 245 6 226 248 25 229 249 27 222 249 14 216 242 11 212 239 4 215 241 10 218 245 8 218 240 17 220 243 15 217 238 9 219 242 4 222 244 11 218 242 8 222 246 14 222 246 14 
224 242 16 221 244 8 220 243 5 223 246 6 224 249 7 219 246 9 221 246 7 218 245 10 221 244 16 225 245 6 227 247 8 229 249 10 228 252 8 229 250 23 225 244 31 
227 247 36 228 250 19 229 251 20 223 245 12 224 244 9 226 246 7 218 240 7 215 242 7 222 243 16 217 243 12 219 246 11 223 250 15 228 253 12 224 248 6 227 246 16 225 249 17 225 249 13 223 247 11 223 247 15 219 243 9 220 242 11 226 249 19 223 246 16 224 247 17 223 245 12 220 244 8 220 247 10 216 245 7 217 243 11 221 247 15 222 249 14 226 248 15 223 242 10 220 243 13 211 234 4 208 233 7 212 241 11 222 249 24 227 247 25 220 246 14 215 239 7 219 242 14 220 244 12 217 240 14 216 242 10 215 241 10 213 239 7 215 241 9 211 239 7 219 245 14 220 246 14 213 240 11 212 240 8 214 242 9 214 241 12 217 244 17 223 247 15 222 245 17 219 245 16 214 239 13 220 246 17 222 249 14 212 239 2 211 238 9 217 243 12 219 241 18 225 246 27 221 246 23 217 238 11 216 239 11 218 244 15 218 241 11 206 230 10 210 235 9 211 238 11 213 238 12 219 242 14 220 242 19 219 241 18 214 240 11 216 244 11 216 243 16 218 244 13 218 244 13 213 238 14 208 235 6 217 243 12 218 241 13 216 241 15 216 242 11 218 243 17 216 242 13 217 243 14 218 243 17 213 239 7 212 240 8 214 239 13 213 240 13 212 239 14 210 237 10 212 239 14 210 238 6 210 237 8 216 244 12 214 240 9 209 234 11 214 240 19 214 241 14 214 242 9 215 242 15 215 242 17 213 241 8 213 242 10 213 241 8 214 241 14 212 241 9 216 244 9 219 247 14 215 243 10 210 239 7 213 240 15 215 242 17 211 238 9 208 235 6 207 234 7 213 240 11 217 244 17 212 239 10 208 237 9 210 237 10 208 234 11 213 238 15 212 237 13 207 234 5 210 237 8 210 238 6 208 236 4 209 238 10 218 246 21 218 246 21 206 235 5 209 238 10 215 243 19 210 241 15 213 242 10 213 242 14 209 238 10 205 234 4 205 234 6 206 235 5 211 238 11 216 243 18 218 246 13 216 245 17 206 237 9 209 239 5 212 242 8 210 241 15 202 233 8 204 235 7 213 242 14 213 246 17 212 242 20 213 241 17 201 231 9 191 226 2 200 233 6 207 240 11 204 236 11 198 230 5 198 228 6 206 239 10 206 238 13 203 234 8 203 232 4 195 230 6 197 232 5 198 230 7 199 230 5 201 232 7 196 231 7 195 230 6 198 230 7 202 233 7 201 232 6 201 234 7 201 234 7 197 229 6 197 229 6 196 228 3 203 234 8 202 233 7 
200 231 5 194 226 3 192 226 5 194 226 3 196 227 2 201 229 7 209 237 15 210 241 15 205 236 10 203 234 6 206 237 9 196 228 5 193 224 6 199 231 6 205 237 6 205 236 8 205 238 7 205 238 7 201 234 7 194 230 6 194 230 6 197 232 6 198 231 4 199 232 1 193 227 6 190 226 4 190 227 10 196 230 11 202 233 5 201 232 7 198 229 11 194 229 3 194 229 5 201 232 6 203 234 8 208 239 11 208 240 9 197 229 6 199 231 8 204 236 13 207 240 11 200 233 6 191 226 2 201 231 9 213 241 17 212 242 20 213 246 17 213 242 14 204 235 7 202 233 8 210 241 15 212 242 8 209 239 5 206 237 9 216 245 17 218 246 13 216 243 18 211 238 11 206 235 5 205 234 6 205 234 4 209 238 10 213 242 14 213 242 10 210 241 15 215 243 19 209 238 10 206 235 5 218 246 21 218 246 21 209 238 10 208 236 4 210 238 6 210 237 8 207 234 5 212 237 13 213 238 15 208 234 11 210 237 10 208 237 9 212 239 10 217 244 17 213 240 11 207 234 7 208 235 6 211 238 9 215 242 17 213 240 15 210 239 7 215 243 10 219 247 14 216 244 9 212 241 9 214 241 14 213 241 8 213 242 10 213 241 8 215 242 17 215 242 15 214 242 9 214 241 14 214 240 19 209 234 11 214 240 9 216 244 12 210 237 8 210 238 6 212 239 14 210 237 10 212 239 14 213 240 13 214 239 13 212 240 8 213 239 7 218 243 17 217 243 14 216 242 13 218 243 17 216 242 11 216 241 15 218 241 13 217 243 12 208 235 6 213 238 14 218 244 13 218 244 13 216 243 16 216 244 11 214 240 11 219 241 18 220 242 19 219 242 14 213 238 12 211 238 11 210 235 9 206 230 10 218 241 11 218 244 15 216 239 11 217 238 11 221 246 23 225 246 27 219 241 18 217 243 12 211 238 9 212 239 2 222 249 14 220 246 17 214 239 13 219 245 16 222 245 17 223 247 15 217 244 17 214 241 12 214 242 9 212 240 8 213 240 11 220 246 14 219 245 14 211 239 7 215 241 9 213 239 7 215 241 10 216 242 10 217 240 14 220 244 12 219 242 14 215 239 7 220 246 14 227 247 25 222 249 24 212 241 11 208 233 7 211 234 4 220 243 13 223 242 10 226 248 15 222 249 14 221 247 15 216 242 10 217 246 8 219 248 10 220 244 8 222 246 12 224 248 16 223 246 20 227 248 19 220 242 9 220 242 9 224 248 16 223 248 7 224 251 16 226 248 17 
227 246 16 225 249 7 228 253 12 225 249 15 219 246 11 217 243 12 222 243 16 217 241 9 216 240 8 224 247 7 225 244 12 223 245 12 229 251 18 229 250 21 221 239 17 
228 248 29 229 249 14 227 249 16 224 246 15 224 247 9 227 247 8 222 245 5 220 242 11 225 246 17 221 248 9 218 247 7 220 246 14 225 249 15 228 251 11 227 247 10 221 245 9 220 244 8 224 246 13 226 248 17 225 247 16 220 243 7 217 241 7 217 243 11 218 245 18 222 246 10 222 248 1 221 248 11 225 248 22 223 245 12 223 246 16 225 250 24 228 252 20 226 251 12 226 247 6 220 244 8 212 238 7 215 238 8 216 243 16 221 248 19 228 249 22 224 248 14 224 248 16 223 247 15 219 243 11 219 243 11 217 241 9 219 245 16 220 246 15 217 241 5 220 243 13 226 248 17 222 245 15 216 241 15 217 243 12 221 245 9 222 247 8 222 248 17 224 248 12 217 241 7 212 237 11 214 241 16 218 246 14 219 247 12 212 240 8 216 239 11 224 244 22 224 249 26 220 245 22 225 248 22 223 247 15 222 246 12 227 249 18 219 242 12 211 236 13 214 241 12 214 242 10 211 237 14 216 241 17 217 243 11 212 238 6 209 237 12 213 240 15 214 242 9 210 236 4 211 237 6 211 237 6 215 241 12 222 244 21 216 241 18 214 243 5 219 247 15 215 240 14 215 241 12 221 246 22 220 246 17 219 246 9 218 241 11 215 241 9 213 238 12 213 240 13 215 242 13 211 239 7 211 238 9 216 244 12 220 244 10 215 241 12 214 239 15 213 240 13 217 244 9 218 244 15 216 240 20 211 237 6 208 235 8 210 235 11 210 235 12 205 231 8 209 234 10 219 245 14 218 242 10 210 236 7 213 241 9 213 240 13 213 240 11 211 238 13 201 229 7 201 229 4 212 239 12 212 239 10 206 235 7 210 237 12 207 234 9 214 239 16 211 238 13 212 239 14 213 242 10 217 247 13 215 243 11 212 240 8 211 239 14 212 241 13 208 237 5 209 237 12 208 236 11 204 235 7 215 244 16 210 242 11 208 240 9 211 243 12 209 238 6 208 237 9 209 238 10 212 239 10 213 242 14 214 246 15 209 241 10 206 237 9 208 239 13 206 237 11 202 233 7 206 237 11 204 234 12 205 236 8 212 239 10 214 241 16 202 234 9 191 228 1 200 236 4 212 243 15 210 243 16 199 232 5 199 229 7 206 237 9 208 241 12 203 234 6 210 238 13 203 235 12 197 229 6 199 229 7 204 232 7 199 229 7 199 231 8 199 234 7 199 231 6 198 229 4 199 232 3 202 235 8 199 232 5 199 231 8 200 232 9 196 228 3 202 235 8 203 236 7 
203 234 9 197 229 4 193 228 2 191 225 4 192 222 4 204 235 10 207 238 12 201 233 8 199 231 8 196 228 5 199 229 7 195 225 5 197 227 9 198 229 3 202 233 5 202 234 11 205 236 8 204 235 10 196 228 3 198 230 5 200 232 9 198 233 9 199 234 8 200 233 6 195 229 10 193 228 4 196 231 4 198 233 7 199 231 10 203 231 9 197 228 3 193 228 4 200 235 11 211 240 12 207 235 10 208 241 14 206 239 12 197 227 7 201 232 6 210 241 13 212 243 15 200 236 4 191 228 1 202 234 9 214 241 16 212 239 10 205 236 8 204 234 12 206 237 11 202 233 7 206 237 11 208 239 13 206 237 9 209 241 10 214 246 15 213 242 14 212 239 10 209 238 10 208 237 9 209 238 6 211 243 12 208 240 9 210 242 11 215 244 16 204 235 7 208 236 11 209 237 12 208 237 5 212 241 13 211 239 14 212 240 8 215 243 11 217 247 13 213 242 10 212 239 14 211 238 13 214 239 16 207 234 9 210 237 12 206 235 7 212 239 10 212 239 12 201 229 4 201 229 7 211 238 13 213 240 11 213 240 13 213 241 9 210 236 7 218 242 10 219 245 14 209 234 10 205 231 8 210 235 12 210 235 11 208 235 8 211 237 6 216 240 20 218 244 15 217 244 9 213 240 13 214 239 15 215 241 12 220 244 10 216 244 12 211 238 9 211 239 7 215 242 13 213 240 13 213 238 12 215 241 9 218 241 11 219 246 9 220 246 17 221 246 22 215 241 12 215 240 14 219 247 15 214 243 5 216 241 18 222 244 21 215 241 12 211 237 6 211 237 6 210 236 4 214 242 9 213 240 15 209 237 12 212 238 6 217 243 11 216 241 17 211 237 14 214 242 10 214 241 12 211 236 13 219 242 12 227 249 18 222 246 12 223 247 15 225 248 22 220 245 22 224 249 26 224 244 22 216 239 11 212 240 8 219 247 12 218 246 14 214 241 16 212 237 11 217 241 7 224 248 12 222 248 17 222 247 8 221 245 9 217 243 12 216 241 15 222 245 15 226 248 17 220 243 13 217 241 5 220 246 15 219 245 16 217 241 9 219 243 11 219 243 11 223 247 15 224 248 16 224 248 14 228 249 22 221 248 19 216 243 16 215 238 8 212 238 7 220 244 8 226 247 6 226 251 12 228 252 20 225 250 24 223 247 15 223 247 11 223 249 20 221 248 11 222 248 1 222 246 10 217 244 17 217 244 9 218 242 8 220 243 5 224 246 15 227 249 18 224 248 12 220 245 6 
222 247 8 227 247 8 228 251 11 225 249 15 220 246 14 217 246 6 221 248 9 225 246 19 220 242 9 222 246 4 224 248 6 223 246 8 224 246 13 227 250 14 228 247 17 223 240 11 
233 249 39 229 248 19 227 250 12 225 250 8 225 250 11 230 251 22 231 250 21 223 246 10 224 246 13 225 251 19 226 249 21 223 245 14 223 246 10 227 246 16 227 249 18 224 248 12 219 246 11 224 248 16 228 251 13 229 249 14 225 248 8 217 241 5 214 241 6 217 245 10 218 246 13 222 249 14 222 247 5 228 250 19 230 248 16 224 245 4 222 246 10 223 247 13 222 248 16 226 250 18 227 249 26 223 245 14 224 243 13 221 244 16 215 242 13 225 249 15 229 250 23 228 251 21 227 250 24 229 251 29 225 250 11 221 246 7 222 247 6 221 245 11 219 246 7 221 245 11 222 246 10 216 243 8 213 239 10 213 239 8 216 243 6 221 247 16 226 249 19 224 244 9 222 242 5 222 244 13 216 241 15 215 240 14 214 240 11 220 243 15 218 242 6 216 240 8 212 237 11 213 240 13 220 246 15 219 245 14 220 246 15 226 249 19 222 244 11 213 236 8 211 237 8 212 239 14 214 239 15 218 244 15 222 246 14 220 244 12 211 236 12 208 235 6 213 241 9 216 241 18 219 241 18 219 243 11 218 244 13 220 248 16 219 244 20 215 243 10 216 244 12 214 239 15 213 239 8 217 240 14 220 241 24 219 244 21 223 244 25 217 243 14 216 242 11 212 240 8 215 243 11 220 247 20 218 246 13 219 248 10 222 246 10 219 245 16 213 238 12 215 242 17 216 243 14 214 240 11 217 241 23 217 242 19 214 242 10 214 241 12 213 241 8 208 237 9 205 231 8 214 239 15 219 243 27 207 233 14 206 231 5 207 234 9 207 234 7 209 235 12 211 238 13 207 234 7 210 237 10 213 242 12 217 246 14 215 242 15 210 237 10 210 238 13 211 243 10 206 237 9 208 237 9 213 241 17 216 244 9 212 240 8 213 238 14 214 241 14 211 240 10 209 241 8 210 239 11 206 233 8 207 237 15 204 235 10 207 237 15 211 241 23 212 240 16 215 243 21 212 241 11 213 243 7 207 240 9 207 240 13 206 239 12 204 237 8 208 241 14 205 237 14 206 238 13 207 238 10 207 237 3 198 230 5 207 238 13 215 242 23 207 239 16 196 231 7 203 234 8 211 239 14 214 244 24 209 241 18 203 234 8 203 234 8 204 237 8 206 237 12 209 237 12 205 238 9 202 235 8 195 227 2 197 229 6 196 228 5 199 230 5 202 233 7 200 231 6 197 227 5 201 233 8 199 231 6 197 232 6 200 235 11 201 233 10 197 229 4 202 234 9 
202 235 8 202 234 11 199 231 10 195 230 6 196 228 5 197 229 6 209 240 12 203 236 7 197 229 4 195 230 3 202 234 9 202 233 7 202 233 7 209 240 12 201 232 4 201 229 4 206 234 12 205 230 7 200 230 8 196 228 3 206 234 9 205 236 11 197 232 5 197 232 8 202 231 15 192 223 5 197 227 5 202 233 5 197 229 4 197 229 8 201 233 10 195 228 1 200 235 11 206 236 14 210 237 10 209 237 12 206 242 12 202 238 8 205 238 7 209 241 16 214 244 22 211 239 14 203 234 8 196 231 7 207 239 16 215 242 23 207 238 13 198 230 5 207 237 3 207 238 10 206 238 13 205 237 14 208 241 14 204 237 8 206 239 12 207 240 13 207 240 9 213 243 7 212 241 11 215 243 21 212 240 16 211 241 23 207 237 15 204 235 10 207 237 15 206 233 8 210 239 11 209 241 8 211 240 10 214 241 14 213 238 14 212 240 8 216 244 9 213 241 17 208 237 9 206 237 9 211 243 10 210 238 13 210 237 10 215 242 15 217 246 14 213 242 12 210 237 10 207 234 7 211 238 13 209 235 12 207 234 7 207 234 9 206 231 5 207 233 14 219 243 27 214 239 15 205 231 8 208 237 9 213 241 8 214 241 12 214 242 10 217 242 19 217 241 23 214 240 11 216 243 14 215 242 17 213 238 12 219 245 16 222 246 10 219 248 10 218 246 13 220 247 20 215 243 11 212 240 8 216 242 11 217 243 14 223 244 25 219 244 21 220 241 24 217 240 14 213 239 8 214 239 15 216 244 12 215 243 10 219 244 20 220 248 16 218 244 13 219 243 11 219 241 18 216 241 18 213 241 9 208 235 6 211 236 12 220 244 12 222 246 14 218 244 15 214 239 15 212 239 14 211 237 8 213 236 8 222 244 11 226 249 19 220 246 15 219 245 14 220 246 15 213 240 13 212 237 11 216 240 8 218 242 6 220 243 15 214 240 11 215 240 14 216 241 15 222 244 13 222 242 5 224 244 9 226 249 19 221 247 16 216 243 6 213 239 8 213 239 10 216 243 8 222 246 10 221 245 11 219 246 7 221 245 11 222 247 6 221 246 7 225 250 11 229 251 29 227 250 24 228 251 21 229 250 23 225 249 15 215 242 13 221 244 16 224 243 13 223 245 14 227 249 26 226 250 18 222 248 16 223 247 15 222 246 14 222 245 5 231 249 17 228 250 19 222 247 5 222 249 14 219 247 12 218 245 10 217 241 7 217 241 7 224 247 9 227 249 16 228 251 15 225 249 17 
220 244 8 222 249 12 227 249 18 225 247 14 223 246 10 224 246 13 226 249 19 226 252 20 223 247 11 225 245 10 231 250 20 229 251 20 226 249 11 224 249 7 227 250 10 229 247 21 227 243 20 
234 251 33 232 251 19 231 252 25 227 250 12 227 250 14 232 251 21 230 249 17 224 248 6 228 248 26 228 251 21 227 251 15 229 251 20 231 252 23 224 247 11 227 250 14 224 248 14 223 249 17 226 250 18 226 250 16 223 245 12 225 247 14 226 247 18 222 245 19 223 247 15 219 247 14 217 244 7 220 248 6 232 253 28 233 252 23 225 248 12 223 246 16 222 245 9 219 243 7 219 246 9 224 248 16 227 250 14 223 245 12 220 244 12 215 238 10 217 243 11 224 246 24 223 247 15 222 246 12 224 247 17 223 247 15 225 250 11 219 246 11 223 247 29 223 248 22 226 249 21 224 246 13 216 240 6 215 241 10 219 245 13 223 247 15 225 247 25 226 249 19 227 248 19 223 246 10 223 248 7 222 246 14 222 245 19 220 243 13 223 247 15 224 247 11 223 247 13 216 239 11 212 235 7 216 240 8 223 246 16 224 247 19 221 245 9 222 246 12 224 247 21 218 241 11 214 237 11 215 241 12 220 243 13 221 245 13 220 242 11 214 240 9 216 242 11 216 243 6 219 242 14 219 244 18 214 242 9 211 238 11 215 240 17 218 243 17 217 245 13 218 245 16 219 245 24 219 244 18 214 240 8 213 238 14 215 241 18 214 240 11 216 243 18 215 243 10 209 238 6 208 234 11 213 239 20 217 245 13 217 244 17 220 247 12 224 251 26 216 241 26 208 234 11 215 242 17 218 244 21 216 243 14 215 242 13 216 244 11 217 245 13 216 243 14 216 245 17 213 240 11 210 236 7 216 241 17 214 240 9 208 233 9 210 236 13 209 236 9 207 234 7 210 237 10 212 239 10 215 242 17 213 241 17 213 242 12 212 238 15 210 236 13 201 229 4 199 229 9 199 229 9 206 237 11 211 239 14 214 243 13 213 240 13 217 243 12 218 245 20 214 243 15 209 240 12 213 242 14 213 240 13 207 238 12 206 237 12 205 236 11 204 235 10 204 232 7 207 236 6 210 239 9 212 241 9 212 240 16 207 238 12 206 239 10 208 239 14 211 241 19 206 237 9 207 239 8 208 236 14 201 229 4 193 227 9 197 233 9 204 237 10 213 244 16 210 241 15 202 232 10 204 235 9 198 233 9 198 234 12 202 238 8 205 238 9 206 239 10 204 236 11 205 236 10 203 234 6 199 231 6 200 232 7 203 235 10 200 233 4 202 235 6 204 237 10 205 236 10 207 238 10 203 235 10 196 228 5 196 231 7 200 235 9 201 233 8 201 234 7 
206 239 12 205 238 9 207 236 8 202 230 8 201 229 5 203 231 7 207 235 10 208 237 9 200 228 4 199 227 3 203 231 6 205 234 6 206 237 9 207 238 13 202 234 11 195 227 6 199 231 8 206 237 11 209 236 9 204 236 11 202 237 11 206 241 14 201 236 10 189 225 3 191 225 4 201 233 8 206 237 9 205 235 13 203 234 16 199 231 8 198 234 4 203 236 9 201 233 10 201 234 7 202 235 8 205 236 10 208 239 14 209 242 15 208 241 12 203 241 8 197 235 10 198 233 9 204 235 9 202 232 10 210 241 15 213 244 16 204 237 10 197 233 9 193 227 9 201 229 4 208 236 14 207 239 8 206 237 9 211 241 19 208 239 14 206 239 10 207 238 12 212 240 16 212 241 9 210 239 9 207 236 6 204 232 7 204 235 10 205 236 11 206 237 12 207 238 12 213 240 13 213 242 14 209 240 12 214 243 15 218 245 20 217 243 12 213 240 13 214 243 13 211 239 14 206 237 11 199 229 9 199 229 9 201 229 4 210 236 13 212 238 15 213 242 12 213 241 17 215 242 17 212 239 10 210 237 10 207 234 7 209 236 9 210 236 13 208 233 9 214 240 9 216 241 17 210 236 7 213 240 11 216 245 17 216 243 14 217 245 13 216 244 11 215 242 13 216 243 14 218 244 21 215 242 17 208 234 11 216 241 26 224 251 26 220 247 12 217 244 17 217 245 13 213 239 20 208 234 11 209 238 6 215 243 10 216 243 18 214 240 11 215 241 18 213 238 14 214 240 8 219 244 18 219 245 24 218 245 16 217 245 13 218 243 17 215 240 17 211 238 11 214 242 9 219 244 18 219 242 14 216 243 6 216 242 11 214 240 9 220 242 11 221 245 13 220 243 13 215 241 12 214 237 11 218 241 11 224 247 21 222 246 12 221 245 9 224 247 19 223 246 16 216 240 8 212 235 7 216 239 11 223 247 13 224 247 11 223 247 15 220 243 13 222 245 19 222 246 14 223 248 7 223 246 10 227 248 19 226 249 19 225 247 25 223 247 15 219 245 13 215 241 10 216 240 6 224 246 13 226 249 21 223 248 22 223 247 29 219 246 11 225 250 11 223 247 15 224 247 17 222 246 12 223 247 15 224 246 24 217 243 11 215 238 10 220 244 12 223 245 12 227 250 14 224 248 16 219 246 9 219 243 7 222 245 9 223 246 16 225 248 12 233 252 22 231 252 27 219 247 5 218 245 10 219 247 15 225 247 16 223 244 17 225 246 19 227 247 12 223 246 10 
227 250 10 226 250 18 225 249 17 223 247 13 226 249 13 224 247 11 231 252 23 231 250 20 228 251 15 228 251 21 228 248 26 225 245 8 231 250 18 231 250 21 227 249 16 229 252 16 231 252 25 231 250 18 230 247 18 
234 253 63 233 253 42 232 252 39 232 251 45 232 252 39 229 250 33 230 250 37 227 251 33 233 251 41 230 250 39 229 250 33 230 250 37 229 251 42 228 249 32 227 246 30 231 250 34 232 250 42 231 250 36 228 248 37 227 247 34 226 246 35 224 247 35 225 248 36 227 248 33 220 243 31 220 243 29 222 247 31 223 248 35 230 249 43 230 251 48 229 252 38 231 249 39 230 250 41 229 249 38 226 247 30 223 246 34 226 251 36 229 249 36 227 245 35 224 244 33 223 246 32 225 248 36 223 247 31 221 243 34 221 244 30 223 245 38 223 244 41 221 243 36 223 248 45 227 249 44 228 248 39 218 241 29 215 239 29 220 245 32 222 245 31 217 239 32 224 248 48 226 251 48 225 249 39 224 251 35 224 248 38 222 246 38 224 247 35 223 248 33 231 250 47 230 252 47 227 247 38 225 244 31 221 245 29 224 247 35 221 243 36 220 245 39 220 246 35 227 250 48 227 250 38 221 244 30 221 246 33 225 249 41 226 249 35 224 247 33 223 246 34 220 243 39 222 247 32 224 247 35 221 240 37 220 240 29 218 241 29 216 239 35 218 240 31 220 242 35 221 244 40 222 246 38 222 245 31 219 241 32 213 236 34 215 239 29 215 239 31 216 241 35 221 246 41 223 248 45 217 244 27 218 242 32 218 242 32 220 241 40 218 241 37 223 247 39 219 245 36 217 242 37 223 247 47 219 244 38 219 243 33 216 239 37 217 242 37 221 247 36 214 243 31 211 240 28 220 248 41 221 246 40 218 243 30 222 248 39 222 248 37 224 247 45 221 245 37 213 237 27 210 236 27 216 242 33 220 245 39 217 239 40 216 242 33 216 240 30 214 235 32 213 236 31 209 234 29 202 229 26 200 227 28 212 240 33 214 242 33 215 241 30 215 241 30 216 242 31 221 246 40 217 243 34 214 240 27 220 246 35 212 241 29 212 240 34 214 242 35 217 245 38 219 244 39 218 242 34 219 242 40 217 242 37 217 240 35 209 240 38 206 239 34 210 240 32 214 239 33 213 242 30 216 245 29 217 243 34 210 238 31 202 233 31 202 234 29 202 229 28 209 236 35 214 245 30 204 236 28 203 235 28 203 236 31 194 230 32 195 229 28 205 237 29 209 242 31 207 241 23 208 238 28 211 239 32 205 238 27 207 237 27 210 238 32 209 237 31 203 235 27 202 236 27 204 237 26 208 237 33 207 235 28 202 231 25 
198 230 25 198 230 25 204 233 27 207 237 29 207 237 25 210 239 25 207 238 23 206 235 21 209 238 22 207 236 24 203 233 23 200 230 20 201 230 24 204 234 22 209 238 24 213 243 25 212 239 23 207 233 24 205 234 20 211 241 23 208 239 24 205 235 23 206 237 22 208 237 25 206 236 28 199 231 23 197 230 19 200 230 22 201 230 24 205 237 29 212 240 34 201 236 22 200 237 20 203 236 25 208 238 28 208 238 26 206 237 22 204 234 22 210 241 23 207 240 25 206 242 22 208 243 25 203 238 22 192 229 25 193 229 31 204 236 31 203 235 28 204 236 28 214 245 30 209 236 35 202 229 28 202 234 29 202 233 31 210 238 31 217 243 34 216 245 29 213 242 30 214 239 33 210 240 32 206 239 34 209 240 38 217 240 35 217 242 37 219 242 40 218 242 34 219 244 39 217 245 38 214 242 35 212 240 34 212 241 29 220 246 35 214 240 27 217 243 34 221 246 40 216 242 31 215 241 30 215 241 30 214 242 33 212 240 33 200 227 28 202 229 26 209 234 29 213 236 31 214 235 32 216 240 30 216 242 33 217 239 40 220 245 39 216 242 33 210 236 27 213 237 27 221 245 37 224 247 45 222 248 37 222 248 39 218 243 30 221 246 40 220 248 41 211 240 28 214 243 31 221 247 36 217 242 37 216 239 37 219 243 33 219 244 38 223 247 47 217 242 37 219 245 36 223 247 39 218 241 37 220 241 40 218 242 32 218 242 32 217 244 27 223 248 45 221 246 41 216 241 35 215 239 31 215 239 29 213 236 34 219 241 32 222 245 31 222 246 38 221 244 40 220 242 35 218 240 31 216 239 35 218 241 29 220 240 29 221 240 37 224 247 35 222 247 32 220 243 39 223 246 34 224 247 33 226 249 35 225 249 41 221 246 33 221 244 30 227 250 38 227 250 48 220 246 35 220 245 39 221 243 36 224 247 35 221 245 29 225 244 31 227 247 38 230 252 47 231 250 47 223 248 33 224 247 35 222 246 38 224 248 38 224 251 35 225 249 39 226 251 48 224 248 48 217 239 32 222 245 31 220 245 32 215 239 29 218 241 29 228 248 39 227 249 44 223 248 45 221 243 36 223 244 41 223 245 38 221 244 30 221 243 34 223 247 31 225 248 36 223 246 32 224 244 33 227 245 35 229 249 36 226 251 36 223 246 34 226 247 30 229 249 38 230 250 41 231 249 39 231 251 38 232 251 47 227 247 36 
222 246 30 219 245 24 219 240 23 217 238 21 220 241 24 221 241 19 218 238 19 221 238 18 221 239 15 221 239 17 225 242 24 224 244 25 223 244 19 221 239 13 220 241 14 223 243 22 223 241 17 222 241 11 225 243 21 227 243 22 223 242 13 224 242 16 223 242 12 227 245 19 226 245 29 225 245 23 226 246 24 223 239 27 
